<?xml version="1.0" encoding="UTF-8"?>
<map version="1.10" tiledversion="1.11.2" orientation="orthogonal" renderorder="right-down" width="30" height="50" tilewidth="128" tileheight="128" infinite="0" nextlayerid="25" nextobjectid="356">
 <editorsettings>
  <export target="Cave1.json" format="json"/>
 </editorsettings>
 <properties>
  <property name="BackgroundLayers" value="DarkForest/4.png,DarkForest/3.png,DarkForest/2.png,DarkForest/1.png"/>
  <property name="GroundBehindPlayer" type="bool" value="true"/>
  <property name="GroundParticleColor" type="color" value="#ff735951"/>
  <property name="Music" value="Greenpath.wav"/>
  <property name="UseGrassParticle" type="bool" value="false"/>
  <property name="UseGroundPadding" type="bool" value="false"/>
 </properties>
 <tileset firstgid="1" source="../../Sprites/BrownCave2/BrownCaveDecorations.tsx"/>
 <objectgroup id="2" name="AmbientParticleArea"/>
 <objectgroup id="15" name="Camera">
  <object id="259" x="2048" y="0" width="384" height="2688">
   <properties>
    <property name="Event" value="FollowPlayerLimited"/>
    <property name="LimitMaxCameraPositionX" type="float" value="3200"/>
    <property name="LimitMaxCameraPositionY" type="float" value="3712"/>
    <property name="LimitMinCameraPositionX" type="float" value="1280"/>
    <property name="LimitMinCameraPositionY" type="float" value="0"/>
    <property name="Target" value="Camera"/>
   </properties>
  </object>
  <object id="345" x="0" y="2688" width="2011.64" height="1152">
   <properties>
    <property name="Event" value="FollowPlayerLimited"/>
    <property name="LimitMaxCameraPositionX" type="float" value="3712"/>
    <property name="LimitMaxCameraPositionY" type="float" value="3712"/>
    <property name="LimitMinCameraPositionX" type="float" value="128"/>
    <property name="LimitMinCameraPositionY" type="float" value="0"/>
    <property name="Target" value="Camera"/>
   </properties>
  </object>
  <object id="355" x="2468.36" y="2688" width="1371.64" height="1152">
   <properties>
    <property name="Event" value="FollowPlayerLimited"/>
    <property name="LimitMaxCameraPositionX" type="float" value="3712"/>
    <property name="LimitMaxCameraPositionY" type="float" value="3712"/>
    <property name="LimitMinCameraPositionX" type="float" value="128"/>
    <property name="LimitMinCameraPositionY" type="float" value="0"/>
    <property name="Target" value="Camera"/>
   </properties>
  </object>
 </objectgroup>
 <objectgroup id="10" name="Triggers">
  <object id="245" x="2048" y="0" width="384" height="13">
   <properties>
    <property name="Destroy" type="bool" value="true"/>
    <property name="Event" value="ChangeScene"/>
    <property name="PlayerStartPositionId" type="int" value="2"/>
    <property name="Scene" value="Forest7/Forest7"/>
    <property name="Target" value="Game"/>
   </properties>
  </object>
  <object id="347" x="1536" y="3291.93" width="48" height="384">
   <properties>
    <property name="Destroy" type="bool" value="true"/>
    <property name="Event" value="ChangeScene"/>
    <property name="PlayerStartPositionId" type="int" value="0"/>
    <property name="Scene" value="Forest7/Forest7"/>
    <property name="Target" value="Game"/>
   </properties>
  </object>
 </objectgroup>
 <objectgroup draworder="index" id="3" name="Background1" parallaxx="0.95">
  <properties>
   <property name="TextureColorB" type="int" value="9"/>
   <property name="TextureColorG" type="int" value="32"/>
   <property name="TextureColorR" type="int" value="33"/>
   <property name="TextureFactor" type="float" value="0.4"/>
  </properties>
 </objectgroup>
 <objectgroup draworder="index" id="4" name="Background2">
  <properties>
   <property name="TextureColorB" type="int" value="14"/>
   <property name="TextureColorG" type="int" value="49"/>
   <property name="TextureColorR" type="int" value="51"/>
   <property name="TextureFactor" type="float" value="0.6"/>
  </properties>
 </objectgroup>
 <objectgroup draworder="index" id="5" name="Decorations">
  <object id="162" gid="16" x="849.333" y="3595.26" width="552.444" height="58.6667"/>
  <object id="163" gid="16" x="1361.33" y="3595.26" width="552.444" height="58.6667"/>
  <object id="165" gid="16" x="1873.33" y="3595.26" width="552.444" height="58.6667"/>
  <object id="192" gid="101" x="2775" y="3558.26" width="164" height="343"/>
  <object id="191" gid="2147483671" x="2914.76" y="3589.26" width="114.5" height="181.55"/>
  <object id="172" gid="23" x="2680.76" y="3562.26" width="114.5" height="181.55"/>
  <object id="166" gid="16" x="2385.33" y="3595.26" width="552.444" height="58.6667"/>
  <object id="328" gid="16" x="3409.33" y="3595.26" width="552.444" height="58.6667"/>
  <object id="167" gid="16" x="2897.33" y="3595.26" width="552.444" height="58.6667"/>
  <object id="160" gid="16" x="337.333" y="3595.26" width="552.444" height="58.6667"/>
  <object id="70" gid="22" x="231" y="3675.26" width="114.5" height="181"/>
  <object id="38" gid="25" x="128" y="3675.26" width="184.5" height="117.5"/>
  <object id="53" gid="25" x="256" y="3675.26" width="184.5" height="117.5"/>
  <object id="54" gid="25" x="384" y="3675.26" width="184.5" height="117.5"/>
  <object id="55" gid="25" x="512" y="3675.26" width="184.5" height="117.5"/>
  <object id="56" gid="25" x="640" y="3675.26" width="184.5" height="117.5"/>
  <object id="57" gid="25" x="768" y="3675.26" width="184.5" height="117.5"/>
  <object id="58" gid="25" x="896" y="3675.26" width="184.5" height="117.5"/>
  <object id="59" gid="25" x="1024" y="3675.26" width="184.5" height="117.5"/>
  <object id="60" gid="25" x="1152" y="3675.26" width="184.5" height="117.5"/>
  <object id="61" gid="25" x="1280" y="3675.26" width="184.5" height="117.5"/>
  <object id="62" gid="25" x="1408" y="3675.26" width="184.5" height="117.5"/>
  <object id="63" gid="25" x="1536" y="3675.26" width="184.5" height="117.5"/>
  <object id="71" gid="22" x="231" y="3547.26" width="114.5" height="181"/>
  <object id="72" gid="22" x="231" y="3419.26" width="114.5" height="181"/>
  <object id="74" gid="22" x="231" y="3294.26" width="114.5" height="181"/>
  <object id="76" gid="25" x="256" y="3163.26" width="184.5" height="117.5"/>
  <object id="93" gid="24" x="384" y="2779.26" width="187.5" height="120"/>
  <object id="94" gid="24" x="512" y="2779.26" width="187.5" height="120"/>
  <object id="95" gid="24" x="640" y="2779.26" width="187.5" height="120"/>
  <object id="96" gid="24" x="768" y="2779.26" width="187.5" height="120"/>
  <object id="97" gid="24" x="896" y="2779.93" width="187.5" height="120"/>
  <object id="98" gid="24" x="1024" y="2779.93" width="187.5" height="120"/>
  <object id="319" gid="23" x="3456" y="3675.93" width="114.5" height="181.55"/>
  <object id="103" gid="101" x="0" y="3840" width="3712" height="188.74"/>
  <object id="105" gid="14" x="430.886" y="3095.42" width="196.5" height="43"/>
  <object id="111" gid="72" x="441.604" y="3083.37" width="84.6939" height="75" rotation="127.055"/>
  <object id="106" gid="29" x="429.932" y="3159.2" width="205" height="68"/>
  <object id="108" gid="101" x="445.667" y="3106.01" width="169.667" height="17.6667"/>
  <object id="109" gid="64" x="584.292" y="3078.54" width="39.5" height="51.4041" rotation="90"/>
  <object id="110" gid="50" x="363.667" y="3047.59" width="124.632" height="123.216" rotation="90"/>
  <object id="112" gid="22" x="321.75" y="3228.76" width="114.5" height="181"/>
  <object id="326" gid="22" x="231" y="3163.26" width="114.5" height="181"/>
  <object id="113" gid="101" x="0" y="3660.35" width="256.394" height="880.42"/>
  <object id="116" gid="22" x="331" y="2847.59" width="114.5" height="181"/>
  <object id="118" gid="25" x="1664" y="3675.26" width="184.5" height="117.5"/>
  <object id="119" gid="25" x="1792" y="3675.26" width="184.5" height="117.5"/>
  <object id="120" gid="25" x="1920" y="3675.26" width="184.5" height="117.5"/>
  <object id="121" gid="25" x="2048" y="3675.26" width="184.5" height="117.5"/>
  <object id="122" gid="25" x="2176" y="3675.26" width="184.5" height="117.5"/>
  <object id="123" gid="25" x="2304" y="3675.26" width="184.5" height="117.5"/>
  <object id="124" gid="25" x="2432" y="3675.26" width="184.5" height="117.5"/>
  <object id="125" gid="25" x="2560" y="3675.26" width="184.5" height="117.5"/>
  <object id="126" gid="25" x="2688" y="3675.26" width="184.5" height="117.5"/>
  <object id="127" gid="25" x="2816" y="3675.26" width="184.5" height="117.5"/>
  <object id="128" gid="25" x="2944" y="3675.26" width="184.5" height="117.5"/>
  <object id="129" gid="25" x="3072" y="3675.26" width="184.5" height="117.5"/>
  <object id="150" gid="65" x="288.005" y="3103.15" width="111.764" height="136.122" rotation="119.64"/>
  <object id="151" gid="70" x="261.029" y="3137.47" width="84.7527" height="117" rotation="25.3583"/>
  <object id="153" gid="101" x="226" y="3667.26" width="64" height="64"/>
  <object id="155" gid="43" x="1024" y="3291.93" width="286.047" height="142.667"/>
  <object id="157" gid="101" x="0" y="2811.26" width="352" height="146.667"/>
  <object id="170" gid="25" x="3200" y="3675.26" width="184.5" height="117.5"/>
  <object id="171" gid="25" x="3328" y="3675.26" width="184.5" height="117.5"/>
  <object id="176" gid="23" x="2680.76" y="3434.26" width="114.5" height="181.55"/>
  <object id="178" gid="25" x="2714" y="3235.26" width="184.5" height="117.5"/>
  <object id="177" gid="23" x="2680.76" y="3306.26" width="114.5" height="181.55"/>
  <object id="181" gid="25" x="2842" y="3235.26" width="184.5" height="117.5"/>
  <object id="182" gid="2147483671" x="2914.76" y="3333.26" width="114.5" height="181.55"/>
  <object id="190" gid="2147483671" x="2914.76" y="3461.26" width="114.5" height="181.55"/>
  <object id="193" gid="65" x="2761.73" y="3283.81" width="97.998" height="111.825" rotation="339.465"/>
  <object id="194" gid="68" x="2848.34" y="3229.55" width="116.086" height="99" rotation="28.766"/>
  <object id="198" gid="51" x="426.073" y="2560" width="266" height="222" rotation="138.504"/>
  <object id="207" gid="23" x="2560" y="256" width="114.5" height="181.55"/>
  <object id="208" gid="23" x="2560" y="384" width="114.5" height="181.55"/>
  <object id="209" gid="23" x="2432" y="512" width="114.5" height="181.55"/>
  <object id="210" gid="23" x="2432" y="640" width="114.5" height="181.55"/>
  <object id="211" gid="23" x="2432" y="768" width="114.5" height="181.55"/>
  <object id="212" gid="23" x="2432" y="1024" width="114.5" height="181.55"/>
  <object id="213" gid="23" x="2432" y="896" width="114.5" height="181.55"/>
  <object id="214" gid="23" x="2432" y="1152" width="114.5" height="181.55"/>
  <object id="215" gid="23" x="2432" y="1280" width="114.5" height="181.55"/>
  <object id="216" gid="23" x="2432" y="1408" width="114.5" height="181.55"/>
  <object id="217" gid="23" x="2432" y="1536" width="114.5" height="181.55"/>
  <object id="221" gid="22" x="1792" y="128" width="114.5" height="181"/>
  <object id="222" gid="22" x="1792" y="256" width="114.5" height="181"/>
  <object id="223" gid="22" x="1792" y="384" width="114.5" height="181"/>
  <object id="224" gid="22" x="1936" y="512" width="114.5" height="181"/>
  <object id="225" gid="22" x="1936" y="640" width="114.5" height="181"/>
  <object id="227" gid="22" x="1936" y="768" width="114.5" height="181"/>
  <object id="228" gid="22" x="1936" y="896" width="114.5" height="181"/>
  <object id="229" gid="22" x="1936" y="1280" width="114.5" height="181"/>
  <object id="230" gid="22" x="1936" y="1152" width="114.5" height="181"/>
  <object id="231" gid="22" x="1936" y="1024" width="114.5" height="181"/>
  <object id="248" gid="23" x="2432" y="1664" width="114.5" height="181.55"/>
  <object id="249" gid="23" x="2432" y="1920" width="114.5" height="181.55"/>
  <object id="250" gid="23" x="2432" y="2048" width="114.5" height="181.55"/>
  <object id="251" gid="23" x="2432" y="1792" width="114.5" height="181.55"/>
  <object id="252" gid="22" x="1936" y="1408" width="114.5" height="181"/>
  <object id="253" gid="22" x="1936" y="1536" width="114.5" height="181"/>
  <object id="254" gid="22" x="1936" y="1664" width="114.5" height="181"/>
  <object id="255" gid="22" x="1936" y="1792" width="114.5" height="181"/>
  <object id="257" gid="22" x="1936" y="1920" width="114.5" height="181"/>
  <object id="258" gid="22" x="1936" y="2048" width="114.5" height="181"/>
  <object id="260" gid="101" x="0" y="2688" width="1960.48" height="2725.27"/>
  <object id="321" gid="23" x="3456" y="2779.93" width="114.5" height="181.55"/>
  <object id="261" gid="101" x="2528" y="2688" width="1312" height="2710.7"/>
  <object id="262" gid="23" x="2432" y="2176" width="114.5" height="181.55"/>
  <object id="263" gid="23" x="2432" y="2304" width="114.5" height="181.55"/>
  <object id="264" gid="23" x="2432" y="2432" width="114.5" height="181.55"/>
  <object id="265" gid="23" x="2432" y="2560" width="114.5" height="181.55"/>
  <object id="266" gid="23" x="2432" y="2688" width="114.5" height="181.55"/>
  <object id="267" gid="22" x="1936" y="2176" width="114.5" height="181"/>
  <object id="268" gid="22" x="1936" y="2304" width="114.5" height="181"/>
  <object id="269" gid="22" x="1936" y="2432" width="114.5" height="181"/>
  <object id="270" gid="22" x="1936" y="2560" width="114.5" height="181"/>
  <object id="271" gid="22" x="1936" y="2688" width="114.5" height="181"/>
  <object id="314" gid="23" x="3456" y="3035.93" width="114.5" height="181.55"/>
  <object id="315" gid="23" x="3456" y="3163.93" width="114.5" height="181.55"/>
  <object id="316" gid="23" x="3456" y="3291.93" width="114.5" height="181.55"/>
  <object id="317" gid="23" x="3456" y="3419.93" width="114.5" height="181.55"/>
  <object id="318" gid="23" x="3456" y="3547.93" width="114.5" height="181.55"/>
  <object id="320" gid="23" x="3456" y="2907.93" width="114.5" height="181.55"/>
  <object id="322" gid="101" x="3553.33" y="3840" width="286.667" height="1231.07"/>
  <object id="324" gid="22" x="231" y="2907.26" width="114.5" height="181"/>
  <object id="325" gid="22" x="231" y="3035.26" width="114.5" height="181"/>
  <object id="330" gid="24" x="1280" y="2779.93" width="187.5" height="120"/>
  <object id="331" gid="24" x="1408" y="2779.93" width="187.5" height="120"/>
  <object id="332" gid="24" x="1152" y="2779.93" width="187.5" height="120"/>
  <object id="333" gid="24" x="1536" y="2779.93" width="187.5" height="120"/>
  <object id="334" gid="24" x="1664" y="2779.93" width="187.5" height="120"/>
  <object id="335" gid="24" x="2688" y="2779.93" width="187.5" height="120"/>
  <object id="336" gid="24" x="2560" y="2779.93" width="187.5" height="120"/>
  <object id="337" gid="24" x="2816" y="2779.93" width="187.5" height="120"/>
  <object id="338" gid="24" x="2944" y="2779.93" width="187.5" height="120"/>
  <object id="339" gid="24" x="3072" y="2779.93" width="187.5" height="120"/>
  <object id="340" gid="24" x="3328" y="2779.93" width="187.5" height="120"/>
  <object id="341" gid="24" x="3200" y="2779.93" width="187.5" height="120"/>
  <object id="344" gid="22" x="1936" y="2779.93" width="114.5" height="181"/>
  <object id="350" gid="24" x="1792" y="2779.93" width="187.5" height="120"/>
  <object id="351" gid="24" x="2432" y="2779.93" width="187.5" height="120"/>
  <object id="342" gid="23" x="2432" y="2779.93" width="114.5" height="181.55"/>
 </objectgroup>
 <layer id="1" name="Camada de Blocos 1" width="30" height="50">
  <data encoding="csv">
0,0,0,0,0,0,0,0,0,0,0,0,0,0,0,0,0,0,0,0,0,0,0,0,0,0,0,0,0,0,
0,0,0,0,0,0,0,0,0,0,0,0,0,0,0,0,0,0,0,0,0,0,0,0,0,0,0,0,0,0,
0,0,0,0,0,0,0,0,0,0,0,0,0,0,0,0,0,0,0,0,0,0,0,0,0,0,0,0,0,0,
0,0,0,0,0,0,0,0,0,0,0,0,0,0,0,0,0,0,0,0,0,0,0,0,0,0,0,0,0,0,
0,0,0,0,0,0,0,0,0,0,0,0,0,0,0,0,0,0,0,0,0,0,0,0,0,0,0,0,0,0,
0,0,0,0,0,0,0,0,0,0,0,0,0,0,0,0,0,0,0,0,0,0,0,0,0,0,0,0,0,0,
0,0,0,0,0,0,0,0,0,0,0,0,0,0,0,0,0,0,0,0,0,0,0,0,0,0,0,0,0,0,
0,0,0,0,0,0,0,0,0,0,0,0,0,0,0,0,0,0,0,0,0,0,0,0,0,0,0,0,0,0,
0,0,0,0,0,0,0,0,0,0,0,0,0,0,0,0,0,0,0,0,0,0,0,0,0,0,0,0,0,0,
0,0,0,0,0,0,0,0,0,0,0,0,0,0,0,0,0,0,0,0,0,0,0,0,0,0,0,0,0,0,
0,0,0,0,0,0,0,0,0,0,0,0,0,0,0,0,0,0,0,0,0,0,0,0,0,0,0,0,0,0,
0,0,0,0,0,0,0,0,0,0,0,0,0,0,0,0,0,0,0,0,0,0,0,0,0,0,0,0,0,0,
0,0,0,0,0,0,0,0,0,0,0,0,0,0,0,0,0,0,0,0,0,0,0,0,0,0,0,0,0,0,
0,0,0,0,0,0,0,0,0,0,0,0,0,0,0,0,0,0,0,0,0,0,0,0,0,0,0,0,0,0,
0,0,0,0,0,0,0,0,0,0,0,0,0,0,0,0,0,0,0,0,0,0,0,0,0,0,0,0,0,0,
0,0,0,0,0,0,0,0,0,0,0,0,0,0,0,0,0,0,0,0,0,0,0,0,0,0,0,0,0,0,
0,0,0,0,0,0,0,0,0,0,0,0,0,0,0,0,0,0,0,0,0,0,0,0,0,0,0,0,0,0,
0,0,0,0,0,0,0,0,0,0,0,0,0,0,0,0,0,0,0,0,0,0,0,0,0,0,0,0,0,0,
0,0,0,0,0,0,0,0,0,0,0,0,0,0,0,0,0,0,0,0,0,0,0,0,0,0,0,0,0,0,
0,0,0,0,0,0,0,0,0,0,0,0,0,0,0,0,0,0,0,0,0,0,0,0,0,0,0,0,0,0,
0,0,0,0,0,0,0,0,0,0,0,0,0,0,0,0,0,0,0,0,0,0,0,0,0,0,0,0,0,0,
0,0,0,0,0,0,0,0,0,0,0,0,0,0,0,0,0,0,0,0,0,0,0,0,0,0,0,0,0,0,
0,0,0,0,0,0,0,0,0,0,0,0,0,0,0,0,0,0,0,0,0,0,0,0,0,0,0,0,0,0,
0,0,0,0,0,0,0,0,0,0,0,0,0,0,0,0,0,0,0,0,0,0,0,0,0,0,0,0,0,0,
0,0,0,0,0,0,0,0,0,0,0,0,0,0,0,0,0,0,0,0,0,0,0,0,0,0,0,0,0,0,
0,0,0,0,0,0,0,0,0,0,0,0,0,0,0,0,0,0,0,0,0,0,0,0,0,0,0,0,0,0,
0,0,0,0,0,0,0,0,0,0,0,0,0,0,0,0,0,0,0,0,0,0,0,0,0,0,0,0,0,0,
0,0,0,0,0,0,0,0,0,0,0,0,0,0,0,0,0,0,0,0,0,0,0,0,0,0,0,0,0,0,
0,0,0,0,0,0,0,0,0,0,0,0,0,0,0,0,0,0,0,0,0,0,0,0,0,0,0,0,0,0,
0,0,0,0,0,0,0,0,0,0,0,0,0,0,0,0,0,0,0,0,0,0,0,0,0,0,0,0,0,0,
0,0,0,0,0,0,0,0,0,0,0,0,0,0,0,0,0,0,0,0,0,0,0,0,0,0,0,0,0,0,
0,0,0,0,0,0,0,0,0,0,0,0,0,0,0,0,0,0,0,0,0,0,0,0,0,0,0,0,0,0,
0,0,0,0,0,0,0,0,0,0,0,0,0,0,0,0,0,0,0,0,0,0,0,0,0,0,0,0,0,0,
0,0,0,0,0,0,0,0,0,0,0,0,0,0,0,0,0,0,0,0,0,0,0,0,0,0,0,0,0,0,
0,0,0,0,0,0,0,0,0,0,0,0,0,0,0,0,0,0,0,0,0,0,0,0,0,0,0,0,0,0,
0,0,0,0,0,0,0,0,0,0,0,0,0,0,0,0,0,0,0,0,0,0,0,0,0,0,0,0,0,0,
0,0,0,0,0,0,0,0,0,0,0,0,0,0,0,0,0,0,0,0,0,0,0,0,0,0,0,0,0,0,
0,0,0,0,0,0,0,0,0,0,0,0,0,0,0,0,0,0,0,0,0,0,0,0,0,0,0,0,0,0,
0,0,0,0,0,0,0,0,0,0,0,0,0,0,0,0,0,0,0,0,0,0,0,0,0,0,0,0,0,0,
0,0,0,0,0,0,0,0,0,0,0,0,0,0,0,0,0,0,0,0,0,0,0,0,0,0,0,0,0,0,
0,0,0,0,0,0,0,0,0,0,0,0,0,0,0,0,0,0,0,0,0,0,0,0,0,0,0,0,0,0,
0,0,0,0,0,0,0,0,0,0,0,0,0,0,0,0,0,0,0,0,0,0,0,0,0,0,0,0,0,0,
0,0,0,0,0,0,0,0,0,0,0,0,0,0,0,0,0,0,0,0,0,0,0,0,0,0,0,0,0,0,
0,0,0,0,0,0,0,0,0,0,0,0,0,0,0,0,0,0,0,0,0,0,0,0,0,0,0,0,0,0,
0,0,0,0,0,0,0,0,0,0,0,0,0,0,0,0,0,0,0,0,0,0,0,0,0,0,0,0,0,0,
0,0,0,0,0,0,0,0,0,0,0,0,0,0,0,0,0,0,0,0,0,0,0,0,0,0,0,0,0,0,
0,0,0,0,0,0,0,0,0,0,0,0,0,0,0,0,0,0,0,0,0,0,0,0,0,0,0,0,0,0,
0,0,0,0,0,0,0,0,0,0,0,0,0,0,0,0,0,0,0,0,0,0,0,0,0,0,0,0,0,0,
0,0,0,0,0,0,0,0,0,0,0,0,0,0,0,0,0,0,0,0,0,0,0,0,0,0,0,0,0,0,
0,0,0,0,0,0,0,0,0,0,0,0,0,0,0,0,0,0,0,0,0,0,0,0,0,0,0,0,0,0
</data>
 </layer>
 <layer id="6" name="DynamicGrounds" width="30" height="50">
  <data encoding="csv">
0,0,0,0,0,0,0,0,0,0,0,0,0,0,0,0,0,0,0,0,0,0,0,0,0,0,0,0,0,0,
0,0,0,0,0,0,0,0,0,0,0,0,0,0,0,0,0,0,0,0,0,0,0,0,0,0,0,0,0,0,
0,0,0,0,0,0,0,0,0,0,0,0,0,0,0,0,0,0,0,0,0,0,0,0,0,0,0,0,0,0,
0,0,0,0,0,0,0,0,0,0,0,0,0,0,0,0,0,0,0,0,0,0,0,0,0,0,0,0,0,0,
0,0,0,0,0,0,0,0,0,0,0,0,0,0,0,0,0,0,0,0,0,0,0,0,0,0,0,0,0,0,
0,0,0,0,0,0,0,0,0,0,0,0,0,0,0,0,0,0,0,0,0,0,0,0,0,0,0,0,0,0,
0,0,0,0,0,0,0,0,0,0,0,0,0,0,0,0,0,0,0,0,0,0,0,0,0,0,0,0,0,0,
0,0,0,0,0,0,0,0,0,0,0,0,0,0,0,0,0,0,0,0,0,0,0,0,0,0,0,0,0,0,
0,0,0,0,0,0,0,0,0,0,0,0,0,0,0,0,0,0,0,0,0,0,0,0,0,0,0,0,0,0,
0,0,0,0,0,0,0,0,0,0,0,0,0,0,0,0,0,0,0,0,0,0,0,0,0,0,0,0,0,0,
0,0,0,0,0,0,0,0,0,0,0,0,0,0,0,0,0,0,0,0,0,0,0,0,0,0,0,0,0,0,
0,0,0,0,0,0,0,0,0,0,0,0,0,0,0,0,0,0,0,0,0,0,0,0,0,0,0,0,0,0,
0,0,0,0,0,0,0,0,0,0,0,0,0,0,0,0,0,0,0,0,0,0,0,0,0,0,0,0,0,0,
0,0,0,0,0,0,0,0,0,0,0,0,0,0,0,0,0,0,0,0,0,0,0,0,0,0,0,0,0,0,
0,0,0,0,0,0,0,0,0,0,0,0,0,0,0,0,0,0,0,0,0,0,0,0,0,0,0,0,0,0,
0,0,0,0,0,0,0,0,0,0,0,0,0,0,0,0,0,0,0,0,0,0,0,0,0,0,0,0,0,0,
0,0,0,0,0,0,0,0,0,0,0,0,0,0,0,0,0,0,0,0,0,0,0,0,0,0,0,0,0,0,
0,0,0,0,0,0,0,0,0,0,0,0,0,0,0,0,0,0,0,0,0,0,0,0,0,0,0,0,0,0,
0,0,0,0,0,0,0,0,0,0,0,0,0,0,0,0,0,0,0,0,0,0,0,0,0,0,0,0,0,0,
0,0,0,0,0,0,0,0,0,0,0,0,0,0,0,0,0,0,0,0,0,0,0,0,0,0,0,0,0,0,
0,0,0,0,0,0,0,0,0,0,0,0,0,0,0,0,0,0,0,0,0,0,0,0,0,0,0,0,0,0,
0,0,0,0,0,0,0,0,0,0,0,0,0,0,0,0,0,0,0,0,0,0,0,0,0,0,0,0,0,0,
0,0,0,0,0,0,0,0,0,0,0,0,0,0,0,0,0,0,0,0,0,0,0,0,0,0,0,0,0,0,
0,0,0,0,0,0,0,0,0,0,0,0,0,0,0,0,0,0,0,0,0,0,0,0,0,0,0,0,0,0,
0,0,0,0,0,0,0,0,0,0,0,0,0,0,0,0,0,0,0,0,0,0,0,0,0,0,0,0,0,0,
0,0,0,0,0,0,0,0,0,0,0,0,0,0,0,0,0,0,0,0,0,0,0,0,0,0,0,0,0,0,
0,0,0,0,0,0,0,0,0,0,0,0,0,0,0,0,0,0,0,0,0,0,0,0,0,0,0,0,0,0,
0,0,0,0,0,0,0,0,0,0,0,0,0,0,0,0,0,0,0,0,0,0,0,0,0,0,0,0,0,0,
0,0,0,0,0,0,0,0,0,0,0,0,0,0,0,0,0,0,0,0,0,0,0,0,0,0,0,0,0,0,
0,0,0,0,0,0,0,0,0,0,0,0,0,0,0,0,0,0,0,0,0,0,0,0,0,0,0,0,0,0,
0,0,0,0,0,0,0,0,0,0,0,0,0,0,0,0,0,0,0,0,0,0,0,0,0,0,0,0,0,0,
0,0,0,0,0,0,0,0,0,0,0,0,0,0,0,0,0,0,0,0,0,0,0,0,0,0,0,0,0,0,
0,0,0,0,0,0,0,0,0,0,0,0,0,0,0,0,0,0,0,0,0,0,0,0,0,0,0,0,0,0,
0,0,0,0,0,0,0,0,0,0,0,0,0,0,0,0,0,0,0,0,0,0,0,0,0,0,0,0,0,0,
0,0,0,0,0,0,0,0,0,0,0,0,0,0,0,0,0,0,0,0,0,0,0,0,0,0,0,0,0,0,
0,0,0,0,0,0,0,0,0,0,0,0,0,0,0,0,0,0,0,0,0,0,0,0,0,0,0,0,0,0,
0,0,0,0,0,0,0,0,0,0,0,0,0,0,0,0,0,0,0,0,0,0,0,0,0,0,0,0,0,0,
0,0,0,0,0,0,0,0,0,0,0,0,0,0,0,0,0,0,0,0,0,0,0,0,0,0,0,0,0,0,
0,0,0,0,0,0,0,0,0,0,0,0,0,0,0,0,0,0,0,0,0,0,0,0,0,0,0,0,0,0,
0,0,0,0,0,0,0,0,0,0,0,0,0,0,0,0,0,0,0,0,0,0,0,0,0,0,0,0,0,0,
0,0,0,0,0,0,0,0,0,0,0,0,0,0,0,0,0,0,0,0,0,0,0,0,0,0,0,0,0,0,
0,0,0,0,0,0,0,0,0,0,0,0,0,0,0,0,0,0,0,0,0,0,0,0,0,0,0,0,0,0,
0,0,0,0,0,0,0,0,0,0,0,0,0,0,0,0,0,0,0,0,0,0,0,0,0,0,0,0,0,0,
0,0,0,0,0,0,0,0,0,0,0,0,0,0,0,0,0,0,0,0,0,0,0,0,0,0,0,0,0,0,
0,0,0,0,0,0,0,0,0,0,0,0,0,0,0,0,0,0,0,0,0,0,0,0,0,0,0,0,0,0,
0,0,0,0,0,0,0,0,0,0,0,0,0,0,0,0,0,0,0,0,0,0,0,0,0,0,0,0,0,0,
0,0,0,0,0,0,0,0,0,0,0,0,0,0,0,0,0,0,0,0,0,0,0,0,0,0,0,0,0,0,
0,0,0,0,0,0,0,0,0,0,0,0,0,0,0,0,0,0,0,0,0,0,0,0,0,0,0,0,0,0,
0,0,0,0,0,0,0,0,0,0,0,0,0,0,0,0,0,0,0,0,0,0,0,0,0,0,0,0,0,0,
0,0,0,0,0,0,0,0,0,0,0,0,0,0,0,0,0,0,0,0,0,0,0,0,0,0,0,0,0,0
</data>
 </layer>
 <objectgroup draworder="index" id="24" name="DecorationsForeground">
  <object id="152" gid="50" x="198.793" y="3593.49" width="152.816" height="151.08" rotation="43.0066"/>
  <object id="232" gid="57" x="2072.52" y="-79.8125" width="375.99" height="207" rotation="113.596"/>
  <object id="233" gid="57" x="2012.72" y="98.7628" width="348.819" height="192.041" rotation="110.764"/>
  <object id="235" gid="54" x="2608.9" y="464.016" width="332.465" height="204" rotation="260.82"/>
  <object id="236" gid="57" x="2557.77" y="284.09" width="375.99" height="207" rotation="249.749"/>
  <object id="237" gid="101" x="1795" y="122" width="277" height="172"/>
  <object id="238" gid="101" x="1794.83" y="366.333" width="122.333" height="251.333"/>
  <object id="239" gid="101" x="1833.5" y="254.333" width="161" height="251.333"/>
  <object id="240" gid="101" x="2475.86" y="226.212" width="181" height="251.333"/>
  <object id="241" gid="101" x="2428.5" y="87" width="243" height="110"/>
  <object id="242" gid="101" x="2546.17" y="367.333" width="119.667" height="212.333"/>
 </objectgroup>
 <objectgroup draworder="index" id="7" name="Foreground1">
  <properties>
   <property name="TextureColorB" type="int" value="0"/>
   <property name="TextureColorG" type="int" value="0"/>
   <property name="TextureColorR" type="int" value="0"/>
   <property name="TextureFactor" type="float" value="0.1"/>
  </properties>
 </objectgroup>
 <objectgroup draworder="index" id="8" name="Foreground2" parallaxx="1.1">
  <properties>
   <property name="TextureColorB" type="int" value="0"/>
   <property name="TextureColorG" type="int" value="0"/>
   <property name="TextureColorR" type="int" value="0"/>
   <property name="TextureFactor" type="float" value="0.1"/>
  </properties>
 </objectgroup>
 <objectgroup id="16" name="Light"/>
 <objectgroup id="17" name="Brazier"/>
 <objectgroup id="18" name="Lava"/>
 <objectgroup id="19" name="LightningBarrier"/>
 <objectgroup id="9" name="HookPoints"/>
 <objectgroup id="20" name="Levers"/>
 <objectgroup id="21" name="SpawnPoint"/>
 <objectgroup id="11" name="Grounds">
  <object id="117" x="336" y="3547.67" width="3126.06" height="292.333"/>
  <object id="195" x="0" y="2764" width="336.667" height="1076"/>
  <object id="196" x="334.667" y="3057.33" width="284.667" height="89.3333"/>
  <object id="202" x="3464" y="2688" width="376" height="1152"/>
  <object id="244" x="2440" y="0" width="1400" height="2766"/>
  <object id="243" x="0" y="0" width="2042" height="2766"/>
  <object id="353" x="1029.33" y="3155.33" width="275.333" height="128"/>
  <object id="354" x="2692" y="3129.33" width="326.667" height="418.667"/>
 </objectgroup>
 <objectgroup id="12" name="Checkpoint"/>
 <objectgroup id="13" name="Player">
  <object id="246" name="Player" x="2240" y="63" width="32" height="32">
   <properties>
    <property name="StartPositionId" type="int" value="0"/>
   </properties>
  </object>
 </objectgroup>
 <objectgroup id="14" name="Enemies">
  <object id="346" name="Bat" x="1177.33" y="3328.93" width="32" height="32"/>
  <object id="352" name="FlyingGolem" x="1524.49" y="2948" width="32" height="32"/>
 </objectgroup>
 <objectgroup id="22" name="CameraBounds" visible="0" locked="1">
  <object id="36" x="0" y="128" width="3840" height="3712"/>
 </objectgroup>
</map>
