<?xml version="1.0" encoding="UTF-8"?>
<map version="1.10" tiledversion="1.11.2" orientation="orthogonal" renderorder="right-down" width="17" height="28" tilewidth="128" tileheight="128" infinite="0" nextlayerid="24" nextobjectid="133">
 <editorsettings>
  <export target="Forest12.json" format="json"/>
 </editorsettings>
 <properties>
  <property name="BackgroundLayers" value="DarkForest/4.png"/>
  <property name="GroundBehindPlayer" type="bool" value="false"/>
  <property name="GroundParticleColor" type="color" value="#ff3a9359"/>
  <property name="Music" value="Greenpath.wav"/>
  <property name="UseGrassParticle" type="bool" value="true"/>
  <property name="UseGroundPadding" type="bool" value="true"/>
 </properties>
 <tileset firstgid="1" source="../../Tilesets/Mossy/MossyTileSet.tsx"/>
 <tileset firstgid="50" source="../../Sprites/MossyBackgrounds3/MossyDecorations.tsx"/>
 <objectgroup id="2" name="AmbientParticleArea"/>
 <objectgroup id="15" name="Camera">
  <object id="73" x="0" y="1152" width="2176" height="2432">
   <properties>
    <property name="Event" value="FollowPlayerLimited"/>
    <property name="LimitMaxCameraPositionX" type="float" value="2048"/>
    <property name="LimitMaxCameraPositionY" type="float" value="3456"/>
    <property name="LimitMinCameraPositionX" type="float" value="128"/>
    <property name="LimitMinCameraPositionY" type="float" value="200"/>
    <property name="Target" value="Camera"/>
   </properties>
  </object>
  <object id="92" x="0" y="0" width="2176" height="1024">
   <properties>
    <property name="Event" value="FollowPlayerLimited"/>
    <property name="LimitMaxCameraPositionX" type="float" value="2048"/>
    <property name="LimitMaxCameraPositionY" type="float" value="1280"/>
    <property name="LimitMinCameraPositionX" type="float" value="128"/>
    <property name="LimitMinCameraPositionY" type="float" value="456"/>
    <property name="Target" value="Camera"/>
   </properties>
  </object>
 </objectgroup>
 <objectgroup id="10" name="Triggers">
  <object id="119" x="2128" y="2944" width="48" height="384">
   <properties>
    <property name="Destroy" type="bool" value="true"/>
    <property name="Event" value="ChangeScene"/>
    <property name="PlayerStartPositionId" type="int" value="2"/>
    <property name="Scene" value="Forest5/Forest5"/>
    <property name="Target" value="Game"/>
   </properties>
  </object>
  <object id="121" x="2128" y="896" width="48" height="128">
   <properties>
    <property name="Destroy" type="bool" value="true"/>
    <property name="Event" value="ChangeScene"/>
    <property name="PlayerStartPositionId" type="int" value="0"/>
    <property name="Scene" value="BossFrogger/BossFrogger"/>
    <property name="Target" value="Game"/>
   </properties>
  </object>
  <object id="122" x="2128" y="256" width="48" height="128">
   <properties>
    <property name="Destroy" type="bool" value="true"/>
    <property name="Event" value="ChangeScene"/>
    <property name="PlayerStartPositionId" type="int" value="5"/>
    <property name="Scene" value="BossFrogger/BossFrogger"/>
    <property name="Target" value="Game"/>
   </properties>
  </object>
  <object id="123" x="2128" y="512" width="48" height="128">
   <properties>
    <property name="Destroy" type="bool" value="true"/>
    <property name="Event" value="ChangeScene"/>
    <property name="PlayerStartPositionId" type="int" value="3"/>
    <property name="Scene" value="BossFrogger/BossFrogger"/>
    <property name="Target" value="Game"/>
   </properties>
  </object>
  <object id="124" x="2128" y="640" width="48" height="128">
   <properties>
    <property name="Destroy" type="bool" value="true"/>
    <property name="Event" value="ChangeScene"/>
    <property name="PlayerStartPositionId" type="int" value="2"/>
    <property name="Scene" value="BossFrogger/BossFrogger"/>
    <property name="Target" value="Game"/>
   </properties>
  </object>
  <object id="125" x="2128" y="768" width="48" height="128">
   <properties>
    <property name="Destroy" type="bool" value="true"/>
    <property name="Event" value="ChangeScene"/>
    <property name="PlayerStartPositionId" type="int" value="1"/>
    <property name="Scene" value="BossFrogger/BossFrogger"/>
    <property name="Target" value="Game"/>
   </properties>
  </object>
  <object id="126" x="2128" y="384" width="48" height="128">
   <properties>
    <property name="Destroy" type="bool" value="true"/>
    <property name="Event" value="ChangeScene"/>
    <property name="PlayerStartPositionId" type="int" value="4"/>
    <property name="Scene" value="BossFrogger/BossFrogger"/>
    <property name="Target" value="Game"/>
   </properties>
  </object>
 </objectgroup>
 <objectgroup draworder="index" id="3" name="Background1" parallaxx="0.95">
  <properties>
   <property name="TextureColorB" type="int" value="69"/>
   <property name="TextureColorG" type="int" value="65"/>
   <property name="TextureColorR" type="int" value="22"/>
   <property name="TextureFactor" type="float" value="0.3"/>
  </properties>
 </objectgroup>
 <objectgroup draworder="index" id="4" name="Background2">
  <properties>
   <property name="TextureColorB" type="int" value="107"/>
   <property name="TextureColorG" type="int" value="101"/>
   <property name="TextureColorR" type="int" value="22"/>
   <property name="TextureFactor" type="float" value="0.5"/>
  </properties>
 </objectgroup>
 <objectgroup draworder="index" id="5" name="Decorations">
  <object id="1" gid="2147483743" x="421" y="2997.94" width="277.011" height="132"/>
  <object id="38" gid="95" x="1479" y="2607.23" width="277.011" height="132"/>
  <object id="14" gid="93" x="268" y="2722" width="299.252" height="278.075" rotation="90"/>
  <object id="15" gid="93" x="268" y="2547.63" width="299.252" height="278.075" rotation="90"/>
  <object id="16" gid="93" x="268" y="2358.3" width="299.252" height="278.075" rotation="90"/>
  <object id="90" gid="2147483743" x="421" y="2229.94" width="277.011" height="132"/>
  <object id="17" gid="93" x="268" y="2174.3" width="299.252" height="278.075" rotation="90"/>
  <object id="18" gid="93" x="268" y="1999.63" width="299.252" height="278.075" rotation="90"/>
  <object id="19" gid="93" x="268" y="1488.96" width="299.252" height="278.075" rotation="90"/>
  <object id="91" gid="2147483743" x="421" y="1461.94" width="277.011" height="132"/>
  <object id="20" gid="93" x="268" y="1147.63" width="299.252" height="278.075" rotation="90"/>
  <object id="21" gid="93" x="268" y="974.296" width="299.252" height="278.075" rotation="90"/>
  <object id="22" gid="93" x="268" y="800.963" width="299.252" height="278.075" rotation="90"/>
  <object id="23" gid="93" x="268" y="628.963" width="299.252" height="278.075" rotation="90"/>
  <object id="24" gid="93" x="268" y="1315.63" width="299.252" height="278.075" rotation="90"/>
  <object id="25" gid="93" x="268" y="1650.3" width="299.252" height="278.075" rotation="90"/>
  <object id="26" gid="93" x="268" y="1822.3" width="299.252" height="278.075" rotation="90"/>
  <object id="32" gid="93" x="1920" y="1358.96" width="299.252" height="278.075" rotation="270"/>
  <object id="33" gid="93" x="1920" y="1530.96" width="299.252" height="278.075" rotation="270"/>
  <object id="36" gid="93" x="1920" y="1706.96" width="299.252" height="278.075" rotation="270"/>
  <object id="87" gid="95" x="1479" y="1839.23" width="277.011" height="132"/>
  <object id="37" gid="93" x="1920" y="1882.96" width="299.252" height="278.075" rotation="270"/>
  <object id="60" gid="93" x="1920" y="2214.96" width="299.252" height="278.075" rotation="270"/>
  <object id="61" gid="93" x="1920" y="2373.63" width="299.252" height="278.075" rotation="270"/>
  <object id="62" gid="93" x="1920" y="2525.63" width="299.252" height="278.075" rotation="270"/>
  <object id="63" gid="93" x="1920" y="2677.63" width="299.252" height="278.075" rotation="270"/>
  <object id="64" gid="93" x="1920" y="2049.63" width="299.252" height="278.075" rotation="270"/>
  <object id="65" gid="93" x="268" y="454.96" width="299.252" height="278.075" rotation="90"/>
  <object id="66" gid="93" x="268" y="287.96" width="299.252" height="278.075" rotation="90"/>
  <object id="67" gid="93" x="268" y="114.96" width="299.252" height="278.075" rotation="90"/>
 </objectgroup>
 <layer id="1" name="Camada de Blocos 1" width="17" height="28">
  <data encoding="csv">
1,2,2,2,2,2,2,2,2,2,2,2,2,2,2,2,3,
8,9,5,16,16,16,16,16,16,16,16,16,16,16,16,16,17,
8,9,10,0,0,0,0,0,0,0,0,0,0,0,0,0,0,
8,9,10,0,0,0,0,0,0,0,0,0,0,0,0,0,0,
8,9,10,0,0,0,0,0,0,0,0,0,0,0,0,0,0,
8,9,10,0,0,0,0,0,0,0,0,0,0,0,0,0,0,
8,9,10,0,0,0,0,0,0,0,0,0,0,0,0,0,0,
8,9,10,0,0,0,0,0,0,0,0,0,0,0,0,0,0,
8,9,10,0,0,0,0,22,23,23,23,23,23,23,32,2,3,
8,9,10,0,0,0,0,0,0,0,0,0,0,0,8,9,10,
8,9,10,0,0,0,0,0,0,0,0,0,0,0,8,9,10,
8,9,21,23,23,23,23,23,23,24,0,0,0,0,8,9,10,
8,9,10,0,0,0,0,0,0,0,0,0,0,0,8,9,10,
8,9,10,0,0,0,0,0,0,0,0,0,0,0,8,9,10,
8,9,10,0,0,0,0,22,23,23,23,23,23,23,14,9,10,
8,9,10,0,0,0,0,0,0,0,0,0,0,0,8,9,10,
8,9,10,0,0,0,0,0,0,0,0,0,0,0,8,9,10,
8,9,21,23,23,23,23,23,23,24,0,0,0,0,8,9,10,
8,9,10,0,0,0,0,0,0,0,0,0,0,0,8,9,10,
8,9,10,0,0,0,0,0,0,0,0,0,0,0,8,9,10,
8,9,10,0,0,0,0,22,23,23,23,23,23,23,14,9,10,
8,9,10,0,0,0,0,0,0,0,0,0,0,0,8,9,10,
8,9,10,0,0,0,0,0,0,0,0,0,0,0,8,9,10,
8,9,12,2,2,2,2,2,2,2,2,3,0,0,15,16,17,
8,9,9,9,9,9,9,9,9,9,9,10,0,0,0,0,0,
8,9,9,9,9,9,9,9,9,9,9,12,2,2,2,2,3,
8,9,9,9,9,9,9,9,9,9,9,9,9,9,9,9,10,
15,16,16,16,16,16,16,16,16,16,16,16,16,16,16,16,17
</data>
 </layer>
 <layer id="6" name="DynamicGrounds" width="17" height="28">
  <data encoding="csv">
0,0,0,0,0,0,0,0,0,0,0,0,0,0,0,0,0,
0,0,0,0,0,0,0,0,0,0,0,0,0,0,0,0,0,
0,0,0,0,0,0,0,0,0,0,0,0,0,0,0,0,0,
0,0,0,0,0,0,0,0,0,0,0,0,0,0,0,0,0,
0,0,0,0,0,0,0,0,0,0,0,0,0,0,0,0,0,
0,0,0,0,0,0,0,0,0,0,0,0,0,0,0,0,0,
0,0,0,0,0,0,0,0,0,0,0,0,0,0,0,0,0,
0,0,0,0,0,0,0,0,0,0,0,0,0,0,0,0,0,
0,0,0,0,0,0,0,0,0,0,0,0,0,0,0,0,0,
0,0,0,0,0,0,0,0,0,0,0,0,0,0,0,0,0,
0,0,0,0,0,0,0,0,0,0,0,0,0,0,0,0,0,
0,0,0,0,0,0,0,0,0,0,0,0,0,0,0,0,0,
0,0,0,0,0,0,0,0,0,0,0,0,0,0,0,0,0,
0,0,0,0,0,0,0,0,0,0,0,0,0,0,0,0,0,
0,0,0,0,0,0,0,0,0,0,0,0,0,0,0,0,0,
0,0,0,0,0,0,0,0,0,0,0,0,0,0,0,0,0,
0,0,0,0,0,0,0,0,0,0,0,0,0,0,0,0,0,
0,0,0,0,0,0,0,0,0,0,0,0,0,0,0,0,0,
0,0,0,0,0,0,0,0,0,0,0,0,0,0,0,0,0,
0,0,0,0,0,0,0,0,0,0,0,0,0,0,0,0,0,
0,0,0,0,0,0,0,0,0,0,0,0,0,0,0,0,0,
0,0,0,0,0,0,0,0,0,0,0,0,0,0,0,0,0,
0,0,0,0,0,0,0,0,0,0,0,0,0,0,0,0,0,
0,0,0,0,0,0,0,0,0,0,0,0,0,0,0,0,0,
0,0,0,0,0,0,0,0,0,0,0,0,0,0,0,0,0,
0,0,0,0,0,0,0,0,0,0,0,0,0,0,0,0,0,
0,0,0,0,0,0,0,0,0,0,0,0,0,0,0,0,0,
0,0,0,0,0,0,0,0,0,0,0,0,0,0,0,0,0
</data>
 </layer>
 <objectgroup draworder="index" id="23" name="DecorationsForeground"/>
 <objectgroup draworder="index" id="7" name="Foreground1">
  <properties>
   <property name="TextureColorB" type="int" value="0"/>
   <property name="TextureColorG" type="int" value="0"/>
   <property name="TextureColorR" type="int" value="0"/>
   <property name="TextureFactor" type="float" value="0.2"/>
  </properties>
 </objectgroup>
 <objectgroup draworder="index" id="8" name="Foreground2" parallaxx="1.1">
  <properties>
   <property name="TextureColorB" type="int" value="0"/>
   <property name="TextureColorG" type="int" value="0"/>
   <property name="TextureColorR" type="int" value="0"/>
   <property name="TextureFactor" type="float" value="0.2"/>
  </properties>
 </objectgroup>
 <objectgroup id="16" name="Light"/>
 <objectgroup id="17" name="Brazier"/>
 <objectgroup id="18" name="Lava"/>
 <objectgroup id="19" name="LightningBarrier"/>
 <objectgroup id="9" name="HookPoints"/>
 <objectgroup id="20" name="Levers"/>
 <objectgroup id="21" name="SpawnPoint"/>
 <objectgroup id="11" name="Grounds">
  <object id="8" x="1792" y="1024" width="384" height="2048"/>
  <object id="9" x="0" y="0" width="384" height="3584"/>
  <object id="45" x="1536" y="3200" width="640" height="384"/>
  <object id="46" x="384" y="2944" width="1152" height="640"/>
  <object id="47" x="896" y="2560" width="896" height="128"/>
  <object id="48" x="384" y="2176" width="896" height="128"/>
  <object id="49" x="896" y="1792" width="896" height="128"/>
  <object id="50" x="384" y="1408" width="896" height="128"/>
  <object id="51" x="896" y="1024" width="896" height="128"/>
  <object id="53" x="499.333" y="2864.58" width="172" height="81.4167"/>
  <object id="54" x="384" y="2304" width="112" height="640">
   <properties>
    <property name="Spike" type="bool" value="true"/>
   </properties>
  </object>
  <object id="57" x="384" y="1536" width="112" height="640">
   <properties>
    <property name="Spike" type="bool" value="true"/>
   </properties>
  </object>
  <object id="59" x="384" y="256" width="112" height="1152">
   <properties>
    <property name="Spike" type="bool" value="true"/>
   </properties>
  </object>
  <object id="68" x="384" y="0" width="1792" height="256"/>
  <object id="77" x="1685" y="1920" width="107" height="640">
   <properties>
    <property name="Spike" type="bool" value="true"/>
   </properties>
  </object>
  <object id="78" x="1685" y="1152" width="107" height="640">
   <properties>
    <property name="Spike" type="bool" value="true"/>
   </properties>
  </object>
  <object id="81" x="1503.75" y="2475.67" width="181" height="84"/>
  <object id="82" x="499.333" y="2096.58" width="172" height="81.4167"/>
  <object id="83" x="499.333" y="1328.58" width="172" height="81.4167"/>
  <object id="89" x="1503.75" y="1707.67" width="181" height="84"/>
 </objectgroup>
 <objectgroup id="12" name="Checkpoint"/>
 <objectgroup id="13" name="Player">
  <object id="120" name="Player" x="2096" y="3179" width="32" height="32">
   <properties>
    <property name="EnteringLevelSpeedX" type="float" value="-700"/>
    <property name="EnteringLevelSpeedY" type="float" value="0"/>
    <property name="StartPositionId" type="int" value="0"/>
   </properties>
  </object>
  <object id="127" name="Player" x="2096" y="1003" width="32" height="32">
   <properties>
    <property name="EnteringLevelSpeedX" type="float" value="-700"/>
    <property name="EnteringLevelSpeedY" type="float" value="0"/>
    <property name="StartPositionId" type="int" value="1"/>
   </properties>
  </object>
  <object id="128" name="Player" x="2096" y="875" width="32" height="32">
   <properties>
    <property name="EnteringLevelSpeedX" type="float" value="-700"/>
    <property name="EnteringLevelSpeedY" type="float" value="0"/>
    <property name="StartPositionId" type="int" value="2"/>
   </properties>
  </object>
  <object id="129" name="Player" x="2096" y="747" width="32" height="32">
   <properties>
    <property name="EnteringLevelSpeedX" type="float" value="-700"/>
    <property name="EnteringLevelSpeedY" type="float" value="0"/>
    <property name="StartPositionId" type="int" value="3"/>
   </properties>
  </object>
  <object id="130" name="Player" x="2096" y="619" width="32" height="32">
   <properties>
    <property name="EnteringLevelSpeedX" type="float" value="-700"/>
    <property name="EnteringLevelSpeedY" type="float" value="0"/>
    <property name="StartPositionId" type="int" value="4"/>
   </properties>
  </object>
  <object id="131" name="Player" x="2096" y="491" width="32" height="32">
   <properties>
    <property name="EnteringLevelSpeedX" type="float" value="-700"/>
    <property name="EnteringLevelSpeedY" type="float" value="0"/>
    <property name="StartPositionId" type="int" value="5"/>
   </properties>
  </object>
  <object id="132" name="Player" x="2096" y="363" width="32" height="32">
   <properties>
    <property name="EnteringLevelSpeedX" type="float" value="-700"/>
    <property name="EnteringLevelSpeedY" type="float" value="0"/>
    <property name="StartPositionId" type="int" value="6"/>
   </properties>
  </object>
 </objectgroup>
 <objectgroup id="14" name="Enemies">
  <object id="110" name="Mushroom" x="889.33" y="2931.39" width="32" height="32"/>
  <object id="111" name="Snake" x="1172" y="2543.39" width="32" height="32"/>
  <object id="112" name="OrangeSlime" x="974" y="2158.39" width="32" height="32"/>
  <object id="114" name="Enemy Simple" x="1126.6" y="1775.69" width="32" height="32"/>
  <object id="115" name="Flying Enemy" x="1280" y="1549" width="32" height="32"/>
  <object id="117" name="Mantis" x="765" y="1387" width="32" height="32"/>
  <object id="118" name="FlyingShooterEnemy" x="622.667" y="1102" width="32" height="32"/>
 </objectgroup>
 <objectgroup id="22" name="CameraBounds" locked="1">
  <object id="76" x="128" y="200" width="1920" height="3256"/>
 </objectgroup>
</map>
