<?xml version="1.0" encoding="UTF-8"?>
<map version="1.10" tiledversion="1.11.2" orientation="orthogonal" renderorder="right-down" width="100" height="50" tilewidth="64" tileheight="64" infinite="0" nextlayerid="17" nextobjectid="268">
 <editorsettings>
  <export target="Room7.json" format="json"/>
 </editorsettings>
 <properties>
  <property name="DecorationsPath" value="Sprites/BrownCave/BrownCaveDecorations"/>
 </properties>
 <tileset firstgid="1" source="../../Sprites/BrownCave/BrownCaveDecorations.tsx"/>
 <tileset firstgid="102" source="../../Sprites/BrownCavePlants2/BrownCavePlants.tsx"/>
 <objectgroup id="2" name="Camera" visible="0">
  <object id="122" x="26.9091" y="1545.94" width="5297.7" height="1240.91">
   <properties>
    <property name="Event" value="FollowPlayerLimited"/>
    <property name="LimitMaxCameraPositionX" type="float" value="70000"/>
    <property name="LimitMaxCameraPositionY" type="float" value="2726"/>
    <property name="LimitMinCameraPositionX" type="float" value="156"/>
    <property name="LimitMinCameraPositionY" type="float" value="0"/>
    <property name="Target" value="Camera"/>
   </properties>
  </object>
 </objectgroup>
 <objectgroup id="4" name="AmbientParticleArea" visible="0">
  <object id="247" x="62" y="1186" width="5332" height="1756">
   <properties>
    <property name="ColorB" type="int" value="10"/>
    <property name="ColorG" type="int" value="56"/>
    <property name="ColorR" type="int" value="61"/>
    <property name="EmitRate" type="float" value="15"/>
   </properties>
  </object>
 </objectgroup>
 <objectgroup draworder="index" id="5" name="Background1" opacity="0.62" parallaxx="0.95">
  <properties>
   <property name="TextureColorB" type="int" value="9"/>
   <property name="TextureColorG" type="int" value="32"/>
   <property name="TextureColorR" type="int" value="33"/>
   <property name="TextureFactor" type="float" value="0.4"/>
  </properties>
  <object id="129" name="rockcombination01" gid="47" x="2206.08" y="2648.67" width="263.935" height="161"/>
  <object id="175" gid="1073741883" x="264.9" y="2305" width="304" height="321"/>
  <object id="176" gid="58" x="209.95" y="2072" width="367" height="204"/>
  <object id="191" gid="58" x="987.074" y="1904.89" width="367" height="204" rotation="259.095"/>
  <object id="192" gid="58" x="1047.6" y="2136.77" width="367" height="204" rotation="257.823"/>
  <object id="193" gid="57" x="1116.41" y="2286.81" width="302" height="204" rotation="252.286"/>
  <object id="194" gid="58" x="1193.37" y="2478.97" width="367" height="204" rotation="251.25"/>
  <object id="195" gid="58" x="1009.2" y="2122.08" width="367" height="204" rotation="71.4851"/>
  <object id="99" name="rockcombination12" gid="58" x="959.85" y="2634" width="474.941" height="264"/>
  <object id="196" gid="58" x="899.697" y="1875.99" width="367" height="204" rotation="65.2737"/>
  <object id="197" gid="56" x="851.823" y="1640.26" width="341.13" height="181.477" rotation="70.006"/>
 </objectgroup>
 <objectgroup draworder="index" id="15" name="Background2" opacity="0.67">
  <properties>
   <property name="TextureColorB" type="int" value="14"/>
   <property name="TextureColorG" type="int" value="49"/>
   <property name="TextureColorR" type="int" value="51"/>
   <property name="TextureFactor" type="float" value="0.6"/>
  </properties>
  <object id="204" gid="57" x="3055.67" y="1886" width="356.667" height="240.927" rotation="90"/>
  <object id="205" gid="58" x="3114.87" y="2048.67" width="367" height="204" rotation="90"/>
  <object id="226" gid="55" x="2827.66" y="2482.26" width="158" height="145" rotation="270.607"/>
  <object id="240" gid="51" x="2979" y="1833" width="172.175" height="159.667"/>
  <object id="260" gid="106" x="545" y="2653" width="311.919" height="373">
   <properties>
    <property name="Animated" type="bool" value="true"/>
    <property name="Destructible" type="bool" value="true"/>
    <property name="FPS" type="float" value="12"/>
    <property name="NumFrames" type="int" value="20"/>
    <property name="Path" value="Sprites/BrownCavePlants2/Plant05/Plant05"/>
    <property name="WindBalance" type="bool" value="false"/>
   </properties>
  </object>
 </objectgroup>
 <objectgroup draworder="index" id="6" name="Decorations">
  <object id="85" name="floor10" gid="20" x="1528.42" y="2604" width="411" height="56"/>
  <object id="86" name="floor10" gid="20" x="1161.92" y="2604" width="411" height="56"/>
  <object id="69" name="floor10" gid="20" x="781.5" y="2604" width="411" height="56"/>
  <object id="5" name="platform02" gid="37" x="880.333" y="563.015" width="658.176" height="189.015"/>
  <object id="18" name="floor23" gid="33" x="874.5" y="445" width="197" height="74"/>
  <object id="19" name="floor23" gid="33" x="1026.5" y="447" width="197" height="74"/>
  <object id="20" name="floor23" gid="33" x="1187.5" y="449" width="197" height="74"/>
  <object id="21" name="floor23" gid="33" x="1351.5" y="449" width="197" height="74"/>
  <object id="40" name="floor08" gid="18" x="1442" y="590.167" width="116" height="185"/>
  <object id="37" name="floor08" gid="18" x="1438" y="730.333" width="116" height="185"/>
  <object id="41" name="floor08" gid="18" x="1436.67" y="890.167" width="116" height="185"/>
  <object id="42" name="floor08" gid="18" x="1438" y="1048.83" width="116" height="185"/>
  <object id="43" name="floor09" gid="19" x="874.333" y="569.333" width="126" height="191"/>
  <object id="44" name="floor09" gid="19" x="877" y="728.5" width="126" height="191"/>
  <object id="45" name="floor09" gid="19" x="877" y="881.833" width="126" height="191"/>
  <object id="46" name="floor09" gid="19" x="879.667" y="1044.5" width="126" height="191"/>
  <object id="51" name="rockcombination12" gid="58" x="1337.83" y="682" width="367" height="204" rotation="90"/>
  <object id="52" name="rockcombination12" gid="58" x="1091.17" y="808.667" width="367" height="204" rotation="270"/>
  <object id="53" name="rockcombination12" gid="58" x="1099.17" y="1067.33" width="367" height="204" rotation="270"/>
  <object id="55" name="rockcombination07" gid="53" x="1009" y="525" width="136" height="136"/>
  <object id="56" name="rockcombination07" gid="53" x="1074" y="527" width="136" height="136"/>
  <object id="57" name="rockcombination07" gid="53" x="1147" y="525" width="136" height="136"/>
  <object id="58" name="rockcombination07" gid="53" x="949" y="524" width="136" height="136"/>
  <object id="59" name="rockcombination07" gid="53" x="1221" y="527" width="136" height="136"/>
  <object id="60" name="rockcombination07" gid="53" x="1309" y="528" width="136" height="136"/>
  <object id="61" name="squareblack" gid="101" x="1054.67" y="1034.67" width="346.667" height="516"/>
  <object id="50" name="rockcombination12" gid="58" x="1329" y="414" width="367" height="204" rotation="90"/>
  <object id="261" gid="103" x="815" y="2582" width="96" height="84">
   <properties>
    <property name="Animated" type="bool" value="true"/>
    <property name="Destructible" type="bool" value="true"/>
    <property name="FPS" type="float" value="9"/>
    <property name="NumFrames" type="int" value="15"/>
    <property name="Path" value="Sprites/BrownCavePlants2/Plant02/Plant02"/>
    <property name="WindBalance" type="bool" value="false"/>
   </properties>
  </object>
  <object id="63" name="floor10" gid="20" x="415" y="2604" width="411" height="56"/>
  <object id="64" name="floor16" gid="26" x="414" y="2683" width="185" height="122"/>
  <object id="65" name="floor16" gid="26" x="578" y="2683" width="185" height="122"/>
  <object id="66" name="floor16" gid="26" x="736" y="2683" width="185" height="122"/>
  <object id="68" name="floor16" gid="26" x="885.5" y="2683" width="185" height="122"/>
  <object id="70" name="floor16" gid="26" x="1041.5" y="2683" width="185" height="122"/>
  <object id="78" name="floor10" gid="20" x="1526.75" y="2683" width="411" height="56"/>
  <object id="79" name="floor10" gid="20" x="1160.25" y="2683" width="411" height="56"/>
  <object id="80" name="floor16" gid="26" x="1159.25" y="2683" width="185" height="122"/>
  <object id="81" name="floor16" gid="26" x="1323.25" y="2683" width="185" height="122"/>
  <object id="82" name="floor16" gid="26" x="1481.25" y="2683" width="185" height="122"/>
  <object id="83" name="floor16" gid="26" x="1630.75" y="2683" width="185" height="122"/>
  <object id="84" name="floor16" gid="26" x="1786.75" y="2683" width="185" height="122"/>
  <object id="162" name="floor10" gid="20" x="3132.34" y="2604" width="411" height="56"/>
  <object id="163" name="floor16" gid="26" x="3085.17" y="2683" width="185" height="122"/>
  <object id="87" name="squareblack" gid="101" x="345" y="2921" width="5019.67" height="262"/>
  <object id="88" name="floor16" gid="26" x="329.5" y="2407" width="185" height="122" rotation="90"/>
  <object id="90" name="floor16" gid="26" x="329.5" y="2247" width="185" height="122" rotation="90"/>
  <object id="94" name="squareblack" gid="101" x="426.91" y="2045.93" width="221.954" height="22.8748"/>
  <object id="179" name="squareblack" gid="101" x="149.621" y="1699.83" width="228.758" height="491"/>
  <object id="177" gid="1073741881" x="188.85" y="1796" width="302" height="204"/>
  <object id="98" name="floor16" gid="26" x="249.8" y="1726.33" width="185" height="122" rotation="90"/>
  <object id="100" name="platform02" gid="43" x="1621" y="2286.61" width="197" height="122.608"/>
  <object id="101" name="platform01" gid="36" x="1147" y="2157" width="107" height="102"/>
  <object id="105" name="squareblack" gid="101" x="49.2121" y="2921.24" width="311.758" height="857.333"/>
  <object id="97" name="floor16" gid="26" x="249.803" y="1891.85" width="185" height="122" rotation="90"/>
  <object id="227" gid="15" x="432" y="2038" width="228.5" height="53"/>
  <object id="229" gid="34" x="461" y="2086.5" width="196" height="63"/>
  <object id="96" name="rockcombination09" gid="55" x="322" y="1983.67" width="196.814" height="180.62" rotation="90"/>
  <object id="91" name="floor16" gid="26" x="329.5" y="2089" width="185" height="122" rotation="90"/>
  <object id="106" name="squareblack" gid="101" x="50.2119" y="2077.36" width="228.758" height="869.667"/>
  <object id="111" name="floor16" gid="26" x="329.5" y="2473.67" width="185" height="122" rotation="90"/>
  <object id="113" name="squareblack" gid="101" x="334.242" y="2752.48" width="141.333" height="104.424"/>
  <object id="125" name="floor09" gid="19" x="2752" y="2560" width="126" height="191"/>
  <object id="127" name="floor09" gid="19" x="2752" y="2410.67" width="126" height="191"/>
  <object id="128" name="floor09" gid="19" x="2752" y="2274" width="126" height="191"/>
  <object id="137" name="floor10" gid="20" x="2278.92" y="2604" width="411" height="56"/>
  <object id="138" name="floor10" gid="20" x="1912.42" y="2604" width="411" height="56"/>
  <object id="139" name="floor16" gid="26" x="1909.75" y="2683" width="185" height="122"/>
  <object id="140" name="floor16" gid="26" x="2073.75" y="2683" width="185" height="122"/>
  <object id="141" name="floor16" gid="26" x="2231.75" y="2683" width="185" height="122"/>
  <object id="224" name="floor10" gid="20" x="2463.83" y="2604" width="411" height="56"/>
  <object id="225" name="floor09" gid="19" x="2752" y="2633.5" width="126" height="191"/>
  <object id="142" name="floor16" gid="26" x="2381.25" y="2683" width="185" height="122"/>
  <object id="143" name="floor16" gid="26" x="2537.25" y="2683" width="185" height="122"/>
  <object id="151" name="floor09" gid="19" x="2752" y="2115.83" width="126" height="191"/>
  <object id="265" gid="2147483750" x="2954" y="1787.5" width="52.5" height="68.3219">
   <properties>
    <property name="Animated" type="bool" value="true"/>
    <property name="Destructible" type="bool" value="true"/>
    <property name="FPS" type="float" value="0"/>
    <property name="NumFrames" type="int" value="15"/>
    <property name="Path" value="Sprites/BrownCavePlants2/Plant01/Plant01"/>
    <property name="WindBalance" type="bool" value="true"/>
   </properties>
  </object>
  <object id="264" gid="102" x="2913" y="1789.5" width="73" height="95">
   <properties>
    <property name="Animated" type="bool" value="true"/>
    <property name="Destructible" type="bool" value="true"/>
    <property name="FPS" type="float" value="0"/>
    <property name="NumFrames" type="int" value="15"/>
    <property name="Path" value="Sprites/BrownCavePlants2/Plant01/Plant01"/>
    <property name="WindBalance" type="bool" value="true"/>
   </properties>
  </object>
  <object id="263" gid="107" x="2788" y="1796.5" width="152" height="107">
   <properties>
    <property name="Animated" type="bool" value="true"/>
    <property name="Destructible" type="bool" value="true"/>
    <property name="FPS" type="float" value="10"/>
    <property name="NumFrames" type="int" value="15"/>
    <property name="Path" value="Sprites/BrownCavePlants2/Plant06/Plant06"/>
    <property name="WindBalance" type="bool" value="false"/>
   </properties>
  </object>
  <object id="152" name="floor09" gid="19" x="2750" y="1962.5" width="126" height="191"/>
  <object id="202" gid="2147483674" x="2816" y="1885" width="185" height="122"/>
  <object id="156" gid="18" x="3068" y="2286.33" width="116" height="185"/>
  <object id="157" gid="18" x="3068" y="2449.67" width="116" height="185"/>
  <object id="158" gid="18" x="3068" y="2613.67" width="116" height="185"/>
  <object id="161" gid="101" x="2856" y="2723" width="238" height="857"/>
  <object id="164" name="floor16" gid="26" x="3234.67" y="2683" width="185" height="122"/>
  <object id="165" name="floor16" gid="26" x="3390.67" y="2683" width="185" height="122"/>
  <object id="166" name="floor10" gid="20" x="3882.84" y="2604" width="411" height="56"/>
  <object id="167" name="floor10" gid="20" x="3516.34" y="2604" width="411" height="56"/>
  <object id="168" name="floor16" gid="26" x="3513.67" y="2683" width="185" height="122"/>
  <object id="169" name="floor16" gid="26" x="3677.67" y="2683" width="185" height="122"/>
  <object id="170" name="floor16" gid="26" x="3835.67" y="2683" width="185" height="122"/>
  <object id="171" name="floor16" gid="26" x="3985.17" y="2683" width="185" height="122"/>
  <object id="209" name="floor10" gid="20" x="4193.75" y="2604" width="411" height="56"/>
  <object id="172" name="floor16" gid="26" x="4141.17" y="2683" width="185" height="122"/>
  <object id="184" name="squareblack" gid="101" x="364.288" y="1554.5" width="1460.27" height="344.333"/>
  <object id="180" gid="1073741881" x="285.667" y="1724.67" width="302" height="204"/>
  <object id="181" gid="66" x="315.952" y="1655.37" width="92" height="76" rotation="112.79"/>
  <object id="182" gid="63" x="296.367" y="1630.67" width="78" height="74" rotation="98.104"/>
  <object id="185" gid="25" x="548.6" y="1659.67" width="186" height="120"/>
  <object id="186" gid="25" x="704.6" y="1657.33" width="186" height="120"/>
  <object id="187" gid="25" x="857.267" y="1656" width="186" height="120"/>
  <object id="188" gid="25" x="1011.53" y="1653.33" width="186" height="120"/>
  <object id="189" gid="1073741876" x="1145.87" y="1691.98" width="257.333" height="161.982"/>
  <object id="206" gid="81" x="2867.79" y="1972.2" width="106" height="146" rotation="324.789"/>
  <object id="210" name="floor16" gid="26" x="4296.08" y="2683" width="185" height="122"/>
  <object id="211" name="floor16" gid="26" x="4452.08" y="2683" width="185" height="122"/>
  <object id="212" name="floor10" gid="20" x="4944.25" y="2604" width="411" height="56"/>
  <object id="213" name="floor10" gid="20" x="4577.75" y="2604" width="411" height="56"/>
  <object id="214" name="floor16" gid="26" x="4575.08" y="2683" width="185" height="122"/>
  <object id="215" name="floor16" gid="26" x="4739.08" y="2683" width="185" height="122"/>
  <object id="216" name="floor16" gid="26" x="4897.08" y="2683" width="185" height="122"/>
  <object id="217" name="floor16" gid="26" x="5046.58" y="2683" width="185" height="122"/>
  <object id="218" name="floor16" gid="26" x="5202.58" y="2683" width="185" height="122"/>
  <object id="219" gid="59" x="4146" y="2761" width="304" height="321"/>
  <object id="220" gid="59" x="4302.67" y="2759" width="304" height="321"/>
  <object id="221" gid="59" x="4443" y="2743" width="304" height="321"/>
  <object id="223" name="floor16" gid="26" x="2684.17" y="2683" width="185" height="122"/>
  <object id="228" gid="51" x="203.652" y="2041.44" width="234" height="217" rotation="55.7791"/>
  <object id="230" gid="42" x="4242" y="2206.33" width="161" height="38"/>
  <object id="155" gid="18" x="3068" y="2119.67" width="116" height="185"/>
  <object id="266" gid="103" x="3030.5" y="1795" width="96" height="84">
   <properties>
    <property name="Animated" type="bool" value="true"/>
    <property name="Destructible" type="bool" value="true"/>
    <property name="FPS" type="float" value="8"/>
    <property name="NumFrames" type="int" value="15"/>
    <property name="Path" value="Sprites/BrownCavePlants2/Plant02/Plant02"/>
    <property name="WindBalance" type="bool" value="false"/>
   </properties>
  </object>
  <object id="245" gid="63" x="3091.65" y="1815.59" width="78" height="74" rotation="36.4537"/>
  <object id="243" name="floor09" gid="2147483667" x="3067.67" y="1974.5" width="126" height="191"/>
  <object id="203" gid="26" x="2967" y="1890" width="185" height="122"/>
  <object id="208" gid="81" x="2997.79" y="1876.86" width="106" height="146" rotation="54.1096"/>
 </objectgroup>
 <layer id="1" name="Camada de Blocos 1" width="100" height="50">
  <data encoding="csv">
0,0,0,0,0,0,0,0,0,0,0,0,0,0,0,0,0,0,0,0,0,0,0,0,0,0,0,0,0,0,0,0,0,0,0,0,0,0,0,0,0,0,0,0,0,0,0,0,0,0,0,0,0,0,0,0,0,0,0,0,0,0,0,0,0,0,0,0,0,0,0,0,0,0,0,0,0,0,0,0,0,0,0,0,0,0,0,0,0,0,0,0,0,0,0,0,0,0,0,0,
0,0,0,0,0,0,0,0,0,0,0,0,0,0,0,0,0,0,0,0,0,0,0,0,0,0,0,0,0,0,0,0,0,0,0,0,0,0,0,0,0,0,0,0,0,0,0,0,0,0,0,0,0,0,0,0,0,0,0,0,0,0,0,0,0,0,0,0,0,0,0,0,0,0,0,0,0,0,0,0,0,0,0,0,0,0,0,0,0,0,0,0,0,0,0,0,0,0,0,0,
0,0,0,0,0,0,0,0,0,0,0,0,0,0,0,0,0,0,0,0,0,0,0,0,0,0,0,0,0,0,0,0,0,0,0,0,0,0,0,0,0,0,0,0,0,0,0,0,0,0,0,0,0,0,0,0,0,0,0,0,0,0,0,0,0,0,0,0,0,0,0,0,0,0,0,0,0,0,0,0,0,0,0,0,0,0,0,0,0,0,0,0,0,0,0,0,0,0,0,0,
0,0,0,0,0,0,0,0,0,0,0,0,0,0,0,0,0,0,0,0,0,0,0,0,0,0,0,0,0,0,0,0,0,0,0,0,0,0,0,0,0,0,0,0,0,0,0,0,0,0,0,0,0,0,0,0,0,0,0,0,0,0,0,0,0,0,0,0,0,0,0,0,0,0,0,0,0,0,0,0,0,0,0,0,0,0,0,0,0,0,0,0,0,0,0,0,0,0,0,0,
0,0,0,0,0,0,0,0,0,0,0,0,0,0,0,0,0,0,0,0,0,0,0,0,0,0,0,0,0,0,0,0,0,0,0,0,0,0,0,0,0,0,0,0,0,0,0,0,0,0,0,0,0,0,0,0,0,0,0,0,0,0,0,0,0,0,0,0,0,0,0,0,0,0,0,0,0,0,0,0,0,0,0,0,0,0,0,0,0,0,0,0,0,0,0,0,0,0,0,0,
0,0,0,0,0,0,0,0,0,0,0,0,0,0,0,0,0,0,0,0,0,0,0,0,0,0,0,0,0,0,0,0,0,0,0,0,0,0,0,0,0,0,0,0,0,0,0,0,0,0,0,0,0,0,0,0,0,0,0,0,0,0,0,0,0,0,0,0,0,0,0,0,0,0,0,0,0,0,0,0,0,0,0,0,0,0,0,0,0,0,0,0,0,0,0,0,0,0,0,0,
0,0,0,0,0,0,0,0,0,0,0,0,0,0,0,0,0,0,0,0,0,0,0,0,0,0,0,0,0,0,0,0,0,0,0,0,0,0,0,0,0,0,0,0,0,0,0,0,0,0,0,0,0,0,0,0,0,0,0,0,0,0,0,0,0,0,0,0,0,0,0,0,0,0,0,0,0,0,0,0,0,0,0,0,0,0,0,0,0,0,0,0,0,0,0,0,0,0,0,0,
0,0,0,0,0,0,0,0,0,0,0,0,0,0,0,0,0,0,0,0,0,0,0,0,0,0,0,0,0,0,0,0,0,0,0,0,0,0,0,0,0,0,0,0,0,0,0,0,0,0,0,0,0,0,0,0,0,0,0,0,0,0,0,0,0,0,0,0,0,0,0,0,0,0,0,0,0,0,0,0,0,0,0,0,0,0,0,0,0,0,0,0,0,0,0,0,0,0,0,0,
0,0,0,0,0,0,0,0,0,0,0,0,0,0,0,0,0,0,0,0,0,0,0,0,0,0,0,0,0,0,0,0,0,0,0,0,0,0,0,0,0,0,0,0,0,0,0,0,0,0,0,0,0,0,0,0,0,0,0,0,0,0,0,0,0,0,0,0,0,0,0,0,0,0,0,0,0,0,0,0,0,0,0,0,0,0,0,0,0,0,0,0,0,0,0,0,0,0,0,0,
0,0,0,0,0,0,0,0,0,0,0,0,0,0,0,0,0,0,0,0,0,0,0,0,0,0,0,0,0,0,0,0,0,0,0,0,0,0,0,0,0,0,0,0,0,0,0,0,0,0,0,0,0,0,0,0,0,0,0,0,0,0,0,0,0,0,0,0,0,0,0,0,0,0,0,0,0,0,0,0,0,0,0,0,0,0,0,0,0,0,0,0,0,0,0,0,0,0,0,0,
0,0,0,0,0,0,0,0,0,0,0,0,0,0,0,0,0,0,0,0,0,0,0,0,0,0,0,0,0,0,0,0,0,0,0,0,0,0,0,0,0,0,0,0,0,0,0,0,0,0,0,0,0,0,0,0,0,0,0,0,0,0,0,0,0,0,0,0,0,0,0,0,0,0,0,0,0,0,0,0,0,0,0,0,0,0,0,0,0,0,0,0,0,0,0,0,0,0,0,0,
0,0,0,0,0,0,0,0,0,0,0,0,0,0,0,0,0,0,0,0,0,0,0,0,0,0,0,0,0,0,0,0,0,0,0,0,0,0,0,0,0,0,0,0,0,0,0,0,0,0,0,0,0,0,0,0,0,0,0,0,0,0,0,0,0,0,0,0,0,0,0,0,0,0,0,0,0,0,0,0,0,0,0,0,0,0,0,0,0,0,0,0,0,0,0,0,0,0,0,0,
0,0,0,0,0,0,0,0,0,0,0,0,0,0,0,0,0,0,0,0,0,0,0,0,0,0,0,0,0,0,0,0,0,0,0,0,0,0,0,0,0,0,0,0,0,0,0,0,0,0,0,0,0,0,0,0,0,0,0,0,0,0,0,0,0,0,0,0,0,0,0,0,0,0,0,0,0,0,0,0,0,0,0,0,0,0,0,0,0,0,0,0,0,0,0,0,0,0,0,0,
0,0,0,0,0,0,0,0,0,0,0,0,0,0,0,0,0,0,0,0,0,0,0,0,0,0,0,0,0,0,0,0,0,0,0,0,0,0,0,0,0,0,0,0,0,0,0,0,0,0,0,0,0,0,0,0,0,0,0,0,0,0,0,0,0,0,0,0,0,0,0,0,0,0,0,0,0,0,0,0,0,0,0,0,0,0,0,0,0,0,0,0,0,0,0,0,0,0,0,0,
0,0,0,0,0,0,0,0,0,0,0,0,0,0,0,0,0,0,0,0,0,0,0,0,0,0,0,0,0,0,0,0,0,0,0,0,0,0,0,0,0,0,0,0,0,0,0,0,0,0,0,0,0,0,0,0,0,0,0,0,0,0,0,0,0,0,0,0,0,0,0,0,0,0,0,0,0,0,0,0,0,0,0,0,0,0,0,0,0,0,0,0,0,0,0,0,0,0,0,0,
0,0,0,0,0,0,0,0,0,0,0,0,0,0,0,0,0,0,0,0,0,0,0,0,0,0,0,0,0,0,0,0,0,0,0,0,0,0,0,0,0,0,0,0,0,0,0,0,0,0,0,0,0,0,0,0,0,0,0,0,0,0,0,0,0,0,0,0,0,0,0,0,0,0,0,0,0,0,0,0,0,0,0,0,0,0,0,0,0,0,0,0,0,0,0,0,0,0,0,0,
0,0,0,0,0,0,0,0,0,0,0,0,0,0,0,0,0,0,0,0,0,0,0,0,0,0,0,0,0,0,0,0,0,0,0,0,0,0,0,0,0,0,0,0,0,0,0,0,0,0,0,0,0,0,0,0,0,0,0,0,0,0,0,0,0,0,0,0,0,0,0,0,0,0,0,0,0,0,0,0,0,0,0,0,0,0,0,0,0,0,0,0,0,0,0,0,0,0,0,0,
0,0,0,0,0,0,0,0,0,0,0,0,0,0,0,0,0,0,0,0,0,0,0,0,0,0,0,0,0,0,0,0,0,0,0,0,0,0,0,0,0,0,0,0,0,0,0,0,0,0,0,0,0,0,0,0,0,0,0,0,0,0,0,0,0,0,0,0,0,0,0,0,0,0,0,0,0,0,0,0,0,0,0,0,0,0,0,0,0,0,0,0,0,0,0,0,0,0,0,0,
0,0,0,0,0,0,0,0,0,0,0,0,0,0,0,0,0,0,0,0,0,0,0,0,0,0,0,0,0,0,0,0,0,0,0,0,0,0,0,0,0,0,0,0,0,0,0,0,0,0,0,0,0,0,0,0,0,0,0,0,0,0,0,0,0,0,0,0,0,0,0,0,0,0,0,0,0,0,0,0,0,0,0,0,0,0,0,0,0,0,0,0,0,0,0,0,0,0,0,0,
0,0,0,0,0,0,0,0,0,0,0,0,0,0,0,0,0,0,0,0,0,0,0,0,0,0,0,0,0,0,0,0,0,0,0,0,0,0,0,0,0,0,0,0,0,0,0,0,0,0,0,0,0,0,0,0,0,0,0,0,0,0,0,0,0,0,0,0,0,0,0,0,0,0,0,0,0,0,0,0,0,0,0,0,0,0,0,0,0,0,0,0,0,0,0,0,0,0,0,0,
0,0,0,0,0,0,0,0,0,0,0,0,0,0,0,0,0,0,0,0,0,0,0,0,0,0,0,0,0,0,0,0,0,0,0,0,0,0,0,0,0,0,0,0,0,0,0,0,0,0,0,0,0,0,0,0,0,0,0,0,0,0,0,0,0,0,0,0,0,0,0,0,0,0,0,0,0,0,0,0,0,0,0,0,0,0,0,0,0,0,0,0,0,0,0,0,0,0,0,0,
0,0,0,0,0,0,0,0,0,0,0,0,0,0,0,0,0,0,0,0,0,0,0,0,0,0,0,0,0,0,0,0,0,0,0,0,0,0,0,0,0,0,0,0,0,0,0,0,0,0,0,0,0,0,0,0,0,0,0,0,0,0,0,0,0,0,0,0,0,0,0,0,0,0,0,0,0,0,0,0,0,0,0,0,0,0,0,0,0,0,0,0,0,0,0,0,0,0,0,0,
0,0,0,0,0,0,0,0,0,0,0,0,0,0,0,0,0,0,0,0,0,0,0,0,0,0,0,0,0,0,0,0,0,0,0,0,0,0,0,0,0,0,0,0,0,0,0,0,0,0,0,0,0,0,0,0,0,0,0,0,0,0,0,0,0,0,0,0,0,0,0,0,0,0,0,0,0,0,0,0,0,0,0,0,0,0,0,0,0,0,0,0,0,0,0,0,0,0,0,0,
0,0,0,0,0,0,0,0,0,0,0,0,0,0,0,0,0,0,0,0,0,0,0,0,0,0,0,0,0,0,0,0,0,0,0,0,0,0,0,0,0,0,0,0,0,0,0,0,0,0,0,0,0,0,0,0,0,0,0,0,0,0,0,0,0,0,0,0,0,0,0,0,0,0,0,0,0,0,0,0,0,0,0,0,0,0,0,0,0,0,0,0,0,0,0,0,0,0,0,0,
0,0,0,0,0,0,0,0,0,0,0,0,0,0,0,0,0,0,0,0,0,0,0,0,0,0,0,0,0,0,0,0,0,0,0,0,0,0,0,0,0,0,0,0,0,0,0,0,0,0,0,0,0,0,0,0,0,0,0,0,0,0,0,0,0,0,0,0,0,0,0,0,0,0,0,0,0,0,0,0,0,0,0,0,0,0,0,0,0,0,0,0,0,0,0,0,0,0,0,0,
0,0,0,0,0,0,0,0,0,0,0,0,0,0,0,0,0,0,0,0,0,0,0,0,0,0,0,0,0,0,0,0,0,0,0,0,0,0,0,0,0,0,0,0,0,0,0,0,0,0,0,0,0,0,0,0,0,0,0,0,0,0,0,0,0,0,0,0,0,0,0,0,0,0,0,0,0,0,0,0,0,0,0,0,0,0,0,0,0,0,0,0,0,0,0,0,0,0,0,0,
0,0,0,0,0,0,0,0,0,0,0,0,0,0,0,0,0,0,0,0,0,0,0,0,0,0,0,0,0,0,0,0,0,0,0,0,0,0,0,0,0,0,0,0,0,0,0,0,0,0,0,0,0,0,0,0,0,0,0,0,0,0,0,0,0,0,0,0,0,0,0,0,0,0,0,0,0,0,0,0,0,0,0,0,0,0,0,0,0,0,0,0,0,0,0,0,0,0,0,0,
0,0,0,0,0,0,0,0,0,0,0,0,0,0,0,0,0,0,0,0,0,0,0,0,0,0,0,0,0,0,0,0,0,0,0,0,0,0,0,0,0,0,0,0,0,0,0,0,0,0,0,0,0,0,0,0,0,0,0,0,0,0,0,0,0,0,0,0,0,0,0,0,0,0,0,0,0,0,0,0,0,0,0,0,0,0,0,0,0,0,0,0,0,0,0,0,0,0,0,0,
0,0,0,0,0,0,0,0,0,0,0,0,0,0,0,0,0,0,0,0,0,0,0,0,0,0,0,0,0,0,0,0,0,0,0,0,0,0,0,0,0,0,0,0,0,0,0,0,0,0,0,0,0,0,0,0,0,0,0,0,0,0,0,0,0,0,0,0,0,0,0,0,0,0,0,0,0,0,0,0,0,0,0,0,0,0,0,0,0,0,0,0,0,0,0,0,0,0,0,0,
0,0,0,0,0,0,0,0,0,0,0,0,0,0,0,0,0,0,0,0,0,0,0,0,0,0,0,0,0,0,0,0,0,0,0,0,0,0,0,0,0,0,0,0,0,0,0,0,0,0,0,0,0,0,0,0,0,0,0,0,0,0,0,0,0,0,0,0,0,0,0,0,0,0,0,0,0,0,0,0,0,0,0,0,0,0,0,0,0,0,0,0,0,0,0,0,0,0,0,0,
0,0,0,0,0,0,0,0,0,0,0,0,0,0,0,0,0,0,0,0,0,0,0,0,0,0,0,0,0,0,0,0,0,0,0,0,0,0,0,0,0,0,0,0,0,0,0,0,0,0,0,0,0,0,0,0,0,0,0,0,0,0,0,0,0,0,0,0,0,0,0,0,0,0,0,0,0,0,0,0,0,0,0,0,0,0,0,0,0,0,0,0,0,0,0,0,0,0,0,0,
0,0,0,0,0,0,0,0,0,0,0,0,0,0,0,0,0,0,0,0,0,0,0,0,0,0,0,0,0,0,0,0,0,0,0,0,0,0,0,0,0,0,0,0,0,0,0,0,0,0,0,0,0,0,0,0,0,0,0,0,0,0,0,0,0,0,0,0,0,0,0,0,0,0,0,0,0,0,0,0,0,0,0,0,0,0,0,0,0,0,0,0,0,0,0,0,0,0,0,0,
0,0,0,0,0,0,0,0,0,0,0,0,0,0,0,0,0,0,0,0,0,0,0,0,0,0,0,0,0,0,0,0,0,0,0,0,0,0,0,0,0,0,0,0,0,0,0,0,0,0,0,0,0,0,0,0,0,0,0,0,0,0,0,0,0,0,0,0,0,0,0,0,0,0,0,0,0,0,0,0,0,0,0,0,0,0,0,0,0,0,0,0,0,0,0,0,0,0,0,0,
0,0,0,0,0,0,0,0,0,0,0,0,0,0,0,0,0,0,0,0,0,0,0,0,0,0,0,0,0,0,0,0,0,0,0,0,0,0,0,0,0,0,0,0,0,0,0,0,0,0,0,0,0,0,0,0,0,0,0,0,0,0,0,0,0,0,0,0,0,0,0,0,0,0,0,0,0,0,0,0,0,0,0,0,0,0,0,0,0,0,0,0,0,0,0,0,0,0,0,0,
0,0,0,0,0,0,0,0,0,0,0,0,0,0,0,0,0,0,0,0,0,0,0,0,0,0,0,0,0,0,0,0,0,0,0,0,0,0,0,0,0,0,0,0,0,0,0,0,0,0,0,0,0,0,0,0,0,0,0,0,0,0,0,0,0,0,0,0,0,0,0,0,0,0,0,0,0,0,0,0,0,0,0,0,0,0,0,0,0,0,0,0,0,0,0,0,0,0,0,0,
0,0,0,0,0,0,0,0,0,0,0,0,0,0,0,0,0,0,0,0,0,0,0,0,0,0,0,0,0,0,0,0,0,0,0,0,0,0,0,0,0,0,0,0,0,0,0,0,0,0,0,0,0,0,0,0,0,0,0,0,0,0,0,0,0,0,0,0,0,0,0,0,0,0,0,0,0,0,0,0,0,0,0,0,0,0,0,0,0,0,0,0,0,0,0,0,0,0,0,0,
0,0,0,0,0,0,0,0,0,0,0,0,0,0,0,0,0,0,0,0,0,0,0,0,0,0,0,0,0,0,0,0,0,0,0,0,0,0,0,0,0,0,0,0,0,0,0,0,0,0,0,0,0,0,0,0,0,0,0,0,0,0,0,0,0,0,0,0,0,0,0,0,0,0,0,0,0,0,0,0,0,0,0,0,0,0,0,0,0,0,0,0,0,0,0,0,0,0,0,0,
0,0,0,0,0,0,0,0,0,0,0,0,0,0,0,0,0,0,0,0,0,0,0,0,0,0,0,0,0,0,0,0,0,0,0,0,0,0,0,0,0,0,0,0,0,0,0,0,0,0,0,0,0,0,0,0,0,0,0,0,0,0,0,0,0,0,0,0,0,0,0,0,0,0,0,0,0,0,0,0,0,0,0,0,0,0,0,0,0,0,0,0,0,0,0,0,0,0,0,0,
0,0,0,0,0,0,0,0,0,0,0,0,0,0,0,0,0,0,0,0,0,0,0,0,0,0,0,0,0,0,0,0,0,0,0,0,0,0,0,0,0,0,0,0,0,0,0,0,0,0,0,0,0,0,0,0,0,0,0,0,0,0,0,0,0,0,0,0,0,0,0,0,0,0,0,0,0,0,0,0,0,0,0,0,0,0,0,0,0,0,0,0,0,0,0,0,0,0,0,0,
0,0,0,0,0,0,0,0,0,0,0,0,0,0,0,0,0,0,0,0,0,0,0,0,0,0,0,0,0,0,0,0,0,0,0,0,0,0,0,0,0,0,0,0,0,0,0,0,0,0,0,0,0,0,0,0,0,0,0,0,0,0,0,0,0,0,0,0,0,0,0,0,0,0,0,0,0,0,0,0,0,0,0,0,0,0,0,0,0,0,0,0,0,0,0,0,0,0,0,0,
0,0,0,0,0,0,0,0,0,0,0,0,0,0,0,0,0,0,0,0,0,0,0,0,0,0,0,0,0,0,0,0,0,0,0,0,0,0,0,0,0,0,0,0,0,0,0,0,0,0,0,0,0,0,0,0,0,0,0,0,0,0,0,0,0,0,0,0,0,0,0,0,0,0,0,0,0,0,0,0,0,0,0,0,0,0,0,0,0,0,0,0,0,0,0,0,0,0,0,0,
0,0,0,0,0,0,0,0,0,0,0,0,0,0,0,0,0,0,0,0,0,0,0,0,0,0,0,0,0,0,0,0,0,0,0,0,0,0,0,0,0,0,0,0,0,0,0,0,0,0,0,0,0,0,0,0,0,0,0,0,0,0,0,0,0,0,0,0,0,0,0,0,0,0,0,0,0,0,0,0,0,0,0,0,0,0,0,0,0,0,0,0,0,0,0,0,0,0,0,0,
0,0,0,0,0,0,0,0,0,0,0,0,0,0,0,0,0,0,0,0,0,0,0,0,0,0,0,0,0,0,0,0,0,0,0,0,0,0,0,0,0,0,0,0,0,0,0,0,0,0,0,0,0,0,0,0,0,0,0,0,0,0,0,0,0,0,0,0,0,0,0,0,0,0,0,0,0,0,0,0,0,0,0,0,0,0,0,0,0,0,0,0,0,0,0,0,0,0,0,0,
0,0,0,0,0,0,0,0,0,0,0,0,0,0,0,0,0,0,0,0,0,0,0,0,0,0,0,0,0,0,0,0,0,0,0,0,0,0,0,0,0,0,0,0,0,0,0,0,0,0,0,0,0,0,0,0,0,0,0,0,0,0,0,0,0,0,0,0,0,0,0,0,0,0,0,0,0,0,0,0,0,0,0,0,0,0,0,0,0,0,0,0,0,0,0,0,0,0,0,0,
0,0,0,0,0,0,0,0,0,0,0,0,0,0,0,0,0,0,0,0,0,0,0,0,0,0,0,0,0,0,0,0,0,0,0,0,0,0,0,0,0,0,0,0,0,0,0,0,0,0,0,0,0,0,0,0,0,0,0,0,0,0,0,0,0,0,0,0,0,0,0,0,0,0,0,0,0,0,0,0,0,0,0,0,0,0,0,0,0,0,0,0,0,0,0,0,0,0,0,0,
0,0,0,0,0,0,0,0,0,0,0,0,0,0,0,0,0,0,0,0,0,0,0,0,0,0,0,0,0,0,0,0,0,0,0,0,0,0,0,0,0,0,0,0,0,0,0,0,0,0,0,0,0,0,0,0,0,0,0,0,0,0,0,0,0,0,0,0,0,0,0,0,0,0,0,0,0,0,0,0,0,0,0,0,0,0,0,0,0,0,0,0,0,0,0,0,0,0,0,0,
0,0,0,0,0,0,0,0,0,0,0,0,0,0,0,0,0,0,0,0,0,0,0,0,0,0,0,0,0,0,0,0,0,0,0,0,0,0,0,0,0,0,0,0,0,0,0,0,0,0,0,0,0,0,0,0,0,0,0,0,0,0,0,0,0,0,0,0,0,0,0,0,0,0,0,0,0,0,0,0,0,0,0,0,0,0,0,0,0,0,0,0,0,0,0,0,0,0,0,0,
0,0,0,0,0,0,0,0,0,0,0,0,0,0,0,0,0,0,0,0,0,0,0,0,0,0,0,0,0,0,0,0,0,0,0,0,0,0,0,0,0,0,0,0,0,0,0,0,0,0,0,0,0,0,0,0,0,0,0,0,0,0,0,0,0,0,0,0,0,0,0,0,0,0,0,0,0,0,0,0,0,0,0,0,0,0,0,0,0,0,0,0,0,0,0,0,0,0,0,0,
0,0,0,0,0,0,0,0,0,0,0,0,0,0,0,0,0,0,0,0,0,0,0,0,0,0,0,0,0,0,0,0,0,0,0,0,0,0,0,0,0,0,0,0,0,0,0,0,0,0,0,0,0,0,0,0,0,0,0,0,0,0,0,0,0,0,0,0,0,0,0,0,0,0,0,0,0,0,0,0,0,0,0,0,0,0,0,0,0,0,0,0,0,0,0,0,0,0,0,0,
0,0,0,0,0,0,0,0,0,0,0,0,0,0,0,0,0,0,0,0,0,0,0,0,0,0,0,0,0,0,0,0,0,0,0,0,0,0,0,0,0,0,0,0,0,0,0,0,0,0,0,0,0,0,0,0,0,0,0,0,0,0,0,0,0,0,0,0,0,0,0,0,0,0,0,0,0,0,0,0,0,0,0,0,0,0,0,0,0,0,0,0,0,0,0,0,0,0,0,0
</data>
 </layer>
 <layer id="11" name="DynamicGrounds" width="100" height="50">
  <data encoding="csv">
0,0,0,0,0,0,0,0,0,0,0,0,0,0,0,0,0,0,0,0,0,0,0,0,0,0,0,0,0,0,0,0,0,0,0,0,0,0,0,0,0,0,0,0,0,0,0,0,0,0,0,0,0,0,0,0,0,0,0,0,0,0,0,0,0,0,0,0,0,0,0,0,0,0,0,0,0,0,0,0,0,0,0,0,0,0,0,0,0,0,0,0,0,0,0,0,0,0,0,0,
0,0,0,0,0,0,0,0,0,0,0,0,0,0,0,0,0,0,0,0,0,0,0,0,0,0,0,0,0,0,0,0,0,0,0,0,0,0,0,0,0,0,0,0,0,0,0,0,0,0,0,0,0,0,0,0,0,0,0,0,0,0,0,0,0,0,0,0,0,0,0,0,0,0,0,0,0,0,0,0,0,0,0,0,0,0,0,0,0,0,0,0,0,0,0,0,0,0,0,0,
0,0,0,0,0,0,0,0,0,0,0,0,0,0,0,0,0,0,0,0,0,0,0,0,0,0,0,0,0,0,0,0,0,0,0,0,0,0,0,0,0,0,0,0,0,0,0,0,0,0,0,0,0,0,0,0,0,0,0,0,0,0,0,0,0,0,0,0,0,0,0,0,0,0,0,0,0,0,0,0,0,0,0,0,0,0,0,0,0,0,0,0,0,0,0,0,0,0,0,0,
0,0,0,0,0,0,0,0,0,0,0,0,0,0,0,0,0,0,0,0,0,0,0,0,0,0,0,0,0,0,0,0,0,0,0,0,0,0,0,0,0,0,0,0,0,0,0,0,0,0,0,0,0,0,0,0,0,0,0,0,0,0,0,0,0,0,0,0,0,0,0,0,0,0,0,0,0,0,0,0,0,0,0,0,0,0,0,0,0,0,0,0,0,0,0,0,0,0,0,0,
0,0,0,0,0,0,0,0,0,0,0,0,0,0,0,0,0,0,0,0,0,0,0,0,0,0,0,0,0,0,0,0,0,0,0,0,0,0,0,0,0,0,0,0,0,0,0,0,0,0,0,0,0,0,0,0,0,0,0,0,0,0,0,0,0,0,0,0,0,0,0,0,0,0,0,0,0,0,0,0,0,0,0,0,0,0,0,0,0,0,0,0,0,0,0,0,0,0,0,0,
0,0,0,0,0,0,0,0,0,0,0,0,0,0,0,0,0,0,0,0,0,0,0,0,0,0,0,0,0,0,0,0,0,0,0,0,0,0,0,0,0,0,0,0,0,0,0,0,0,0,0,0,0,0,0,0,0,0,0,0,0,0,0,0,0,0,0,0,0,0,0,0,0,0,0,0,0,0,0,0,0,0,0,0,0,0,0,0,0,0,0,0,0,0,0,0,0,0,0,0,
0,0,0,0,0,0,0,0,0,0,0,0,0,0,0,0,0,0,0,0,0,0,0,0,0,0,0,0,0,0,0,0,0,0,0,0,0,0,0,0,0,0,0,0,0,0,0,0,0,0,0,0,0,0,0,0,0,0,0,0,0,0,0,0,0,0,0,0,0,0,0,0,0,0,0,0,0,0,0,0,0,0,0,0,0,0,0,0,0,0,0,0,0,0,0,0,0,0,0,0,
0,0,0,0,0,0,0,0,0,0,0,0,0,0,0,0,0,0,0,0,0,0,0,0,0,0,0,0,0,0,0,0,0,0,0,0,0,0,0,0,0,0,0,0,0,0,0,0,0,0,0,0,0,0,0,0,0,0,0,0,0,0,0,0,0,0,0,0,0,0,0,0,0,0,0,0,0,0,0,0,0,0,0,0,0,0,0,0,0,0,0,0,0,0,0,0,0,0,0,0,
0,0,0,0,0,0,0,0,0,0,0,0,0,0,0,0,0,0,0,0,0,0,0,0,0,0,0,0,0,0,0,0,0,0,0,0,0,0,0,0,0,0,0,0,0,0,0,0,0,0,0,0,0,0,0,0,0,0,0,0,0,0,0,0,0,0,0,0,0,0,0,0,0,0,0,0,0,0,0,0,0,0,0,0,0,0,0,0,0,0,0,0,0,0,0,0,0,0,0,0,
0,0,0,0,0,0,0,0,0,0,0,0,0,0,0,0,0,0,0,0,0,0,0,0,0,0,0,0,0,0,0,0,0,0,0,0,0,0,0,0,0,0,0,0,0,0,0,0,0,0,0,0,0,0,0,0,0,0,0,0,0,0,0,0,0,0,0,0,0,0,0,0,0,0,0,0,0,0,0,0,0,0,0,0,0,0,0,0,0,0,0,0,0,0,0,0,0,0,0,0,
0,0,0,0,0,0,0,0,0,0,0,0,0,0,0,0,0,0,0,0,0,0,0,0,0,0,0,0,0,0,0,0,0,0,0,0,0,0,0,0,0,0,0,0,0,0,0,0,0,0,0,0,0,0,0,0,0,0,0,0,0,0,0,0,0,0,0,0,0,0,0,0,0,0,0,0,0,0,0,0,0,0,0,0,0,0,0,0,0,0,0,0,0,0,0,0,0,0,0,0,
0,0,0,0,0,0,0,0,0,0,0,0,0,0,0,0,0,0,0,0,0,0,0,0,0,0,0,0,0,0,0,0,0,0,0,0,0,0,0,0,0,0,0,0,0,0,0,0,0,0,0,0,0,0,0,0,0,0,0,0,0,0,0,0,0,0,0,0,0,0,0,0,0,0,0,0,0,0,0,0,0,0,0,0,0,0,0,0,0,0,0,0,0,0,0,0,0,0,0,0,
0,0,0,0,0,0,0,0,0,0,0,0,0,0,0,0,0,0,0,0,0,0,0,0,0,0,0,0,0,0,0,0,0,0,0,0,0,0,0,0,0,0,0,0,0,0,0,0,0,0,0,0,0,0,0,0,0,0,0,0,0,0,0,0,0,0,0,0,0,0,0,0,0,0,0,0,0,0,0,0,0,0,0,0,0,0,0,0,0,0,0,0,0,0,0,0,0,0,0,0,
0,0,0,0,0,0,0,0,0,0,0,0,0,0,0,0,0,0,0,0,0,0,0,0,0,0,0,0,0,0,0,0,0,0,0,0,0,0,0,0,0,0,0,0,0,0,0,0,0,0,0,0,0,0,0,0,0,0,0,0,0,0,0,0,0,0,0,0,0,0,0,0,0,0,0,0,0,0,0,0,0,0,0,0,0,0,0,0,0,0,0,0,0,0,0,0,0,0,0,0,
0,0,0,0,0,0,0,0,0,0,0,0,0,0,0,0,0,0,0,0,0,0,0,0,0,0,0,0,0,0,0,0,0,0,0,0,0,0,0,0,0,0,0,0,0,0,0,0,0,0,0,0,0,0,0,0,0,0,0,0,0,0,0,0,0,0,0,0,0,0,0,0,0,0,0,0,0,0,0,0,0,0,0,0,0,0,0,0,0,0,0,0,0,0,0,0,0,0,0,0,
0,0,0,0,0,0,0,0,0,0,0,0,0,0,0,0,0,0,0,0,0,0,0,0,0,0,0,0,0,0,0,0,0,0,0,0,0,0,0,0,0,0,0,0,0,0,0,0,0,0,0,0,0,0,0,0,0,0,0,0,0,0,0,0,0,0,0,0,0,0,0,0,0,0,0,0,0,0,0,0,0,0,0,0,0,0,0,0,0,0,0,0,0,0,0,0,0,0,0,0,
0,0,0,0,0,0,0,0,0,0,0,0,0,0,0,0,0,0,0,0,0,0,0,0,0,0,0,0,0,0,0,0,0,0,0,0,0,0,0,0,0,0,0,0,0,0,0,0,0,0,0,0,0,0,0,0,0,0,0,0,0,0,0,0,0,0,0,0,0,0,0,0,0,0,0,0,0,0,0,0,0,0,0,0,0,0,0,0,0,0,0,0,0,0,0,0,0,0,0,0,
0,0,0,0,0,0,0,0,0,0,0,0,0,0,0,0,0,0,0,0,0,0,0,0,0,0,0,0,0,0,0,0,0,0,0,0,0,0,0,0,0,0,0,0,0,0,0,0,0,0,0,0,0,0,0,0,0,0,0,0,0,0,0,0,0,0,0,0,0,0,0,0,0,0,0,0,0,0,0,0,0,0,0,0,0,0,0,0,0,0,0,0,0,0,0,0,0,0,0,0,
0,0,0,0,0,0,0,0,0,0,0,0,0,0,0,0,0,0,0,0,0,0,0,0,0,0,0,0,0,0,0,0,0,0,0,0,0,0,0,0,0,0,0,0,0,0,0,0,0,0,0,0,0,0,0,0,0,0,0,0,0,0,0,0,0,0,0,0,0,0,0,0,0,0,0,0,0,0,0,0,0,0,0,0,0,0,0,0,0,0,0,0,0,0,0,0,0,0,0,0,
0,0,0,0,0,0,0,0,0,0,0,0,0,0,0,0,0,0,0,0,0,0,0,0,0,0,0,0,0,0,0,0,0,0,0,0,0,0,0,0,0,0,0,0,0,0,0,0,0,0,0,0,0,0,0,0,0,0,0,0,0,0,0,0,0,0,0,0,0,0,0,0,0,0,0,0,0,0,0,0,0,0,0,0,0,0,0,0,0,0,0,0,0,0,0,0,0,0,0,0,
0,0,0,0,0,0,0,0,0,0,0,0,0,0,0,0,0,0,0,0,0,0,0,0,0,0,0,0,0,0,0,0,0,0,0,0,0,0,0,0,0,0,0,0,0,0,0,0,0,0,0,0,0,0,0,0,0,0,0,0,0,0,0,0,0,0,0,0,0,0,0,0,0,0,0,0,0,0,0,0,0,0,0,0,0,0,0,0,0,0,0,0,0,0,0,0,0,0,0,0,
0,0,0,0,0,0,0,0,0,0,0,0,0,0,0,0,0,0,0,0,0,0,0,0,0,0,0,0,0,0,0,0,0,0,0,0,0,0,0,0,0,0,0,0,0,0,0,0,0,0,0,0,0,0,0,0,0,0,0,0,0,0,0,0,0,0,0,0,0,0,0,0,0,0,0,0,0,0,0,0,0,0,0,0,0,0,0,0,0,0,0,0,0,0,0,0,0,0,0,0,
0,0,0,0,0,0,0,0,0,0,0,0,0,0,0,0,0,0,0,0,0,0,0,0,0,0,0,0,0,0,0,0,0,0,0,0,0,0,0,0,0,0,0,0,0,0,0,0,0,0,0,0,0,0,0,0,0,0,0,0,0,0,0,0,0,0,0,0,0,0,0,0,0,0,0,0,0,0,0,0,0,0,0,0,0,0,0,0,0,0,0,0,0,0,0,0,0,0,0,0,
0,0,0,0,0,0,0,0,0,0,0,0,0,0,0,0,0,0,0,0,0,0,0,0,0,0,0,0,0,0,0,0,0,0,0,0,0,0,0,0,0,0,0,0,0,0,0,0,0,0,0,0,0,0,0,0,0,0,0,0,0,0,0,0,0,0,0,0,0,0,0,0,0,0,0,0,0,0,0,0,0,0,0,0,0,0,0,0,0,0,0,0,0,0,0,0,0,0,0,0,
0,0,0,0,0,0,0,0,0,0,0,0,0,0,0,0,0,0,0,0,0,0,0,0,0,0,0,0,0,0,0,0,0,0,0,0,0,0,0,0,0,0,0,0,0,0,0,0,0,0,0,0,0,0,0,0,0,0,0,0,0,0,0,0,0,0,0,0,0,0,0,0,0,0,0,0,0,0,0,0,0,0,0,0,0,0,0,0,0,0,0,0,0,0,0,0,0,0,0,0,
0,0,0,0,0,0,0,0,0,0,0,0,0,0,0,0,0,0,0,0,0,0,0,0,0,0,0,0,0,0,0,0,0,0,0,0,0,0,0,0,0,0,0,0,0,0,0,0,0,0,0,0,0,0,0,0,0,0,0,0,0,0,0,0,0,0,0,0,0,0,0,0,0,0,0,0,0,0,0,0,0,0,0,0,0,0,0,0,0,0,0,0,0,0,0,0,0,0,0,0,
0,0,0,0,0,0,0,0,0,0,0,0,0,0,0,0,0,0,0,0,0,0,0,0,0,0,0,0,0,0,0,0,0,0,0,0,0,0,0,0,0,0,0,0,0,0,0,0,0,0,0,0,0,0,0,0,0,0,0,0,0,0,0,0,0,0,0,0,0,0,0,0,0,0,0,0,0,0,0,0,0,0,0,0,0,0,0,0,0,0,0,0,0,0,0,0,0,0,0,0,
0,0,0,0,0,0,0,0,0,0,0,0,0,0,0,0,0,0,0,0,0,0,0,0,0,0,0,0,0,0,0,0,0,0,0,0,0,0,0,0,0,0,0,0,0,0,0,0,0,0,0,0,0,0,0,0,0,0,0,0,0,0,0,0,0,0,0,0,0,0,0,0,0,0,0,0,0,0,0,0,0,0,0,0,0,0,0,0,0,0,0,0,0,0,0,0,0,0,0,0,
0,0,0,0,0,0,0,0,0,0,0,0,0,0,0,0,0,0,0,0,0,0,0,0,0,0,0,0,0,0,0,0,0,0,0,0,0,0,0,0,0,0,0,0,0,0,0,0,0,0,0,0,0,0,0,0,0,0,0,0,0,0,0,0,0,0,0,0,0,0,0,0,0,0,0,0,0,0,0,0,0,0,0,0,0,0,0,0,0,0,0,0,0,0,0,0,0,0,0,0,
0,0,0,0,0,0,0,0,0,0,0,0,0,0,0,0,0,0,0,0,0,0,0,0,0,0,0,0,0,0,0,0,0,0,0,0,0,0,0,0,0,0,0,0,0,0,0,0,0,0,0,0,0,0,0,0,0,0,0,0,0,0,0,0,0,0,0,0,0,0,0,0,0,0,0,0,0,0,0,0,0,0,0,0,0,0,0,0,0,0,0,0,0,0,0,0,0,0,0,0,
0,0,0,0,0,0,0,0,0,0,0,0,0,0,0,0,0,0,0,0,0,0,0,0,0,0,0,0,0,0,0,0,0,0,0,0,0,0,0,0,0,0,0,0,0,0,0,0,0,0,0,0,0,0,0,0,0,0,0,0,0,0,0,0,0,0,0,0,0,0,0,0,0,0,0,0,0,0,0,0,0,0,0,0,0,0,0,0,0,0,0,0,0,0,0,0,0,0,0,0,
0,0,0,0,0,0,0,0,0,0,0,0,0,0,0,0,0,0,0,0,0,0,0,0,0,0,0,0,0,0,0,0,0,0,0,0,0,0,0,0,0,0,0,0,0,0,0,0,0,0,0,0,0,0,0,0,0,0,0,0,0,0,0,0,0,0,0,0,0,0,0,0,0,0,0,0,0,0,0,0,0,0,0,0,0,0,0,0,0,0,0,0,0,0,0,0,0,0,0,0,
0,0,0,0,0,0,0,0,0,0,0,0,0,0,0,0,0,0,0,0,0,0,0,0,0,0,0,0,0,0,0,0,0,0,0,0,0,0,0,0,0,0,0,0,0,0,0,0,0,0,0,0,0,0,0,0,0,0,0,0,0,0,0,0,0,0,0,0,0,0,0,0,0,0,0,0,0,0,0,0,0,0,0,0,0,0,0,0,0,0,0,0,0,0,0,0,0,0,0,0,
0,0,0,0,0,0,0,0,0,0,0,0,0,0,0,0,0,0,0,0,0,0,0,0,0,0,0,0,0,0,0,0,0,0,0,0,0,0,0,0,0,0,0,0,0,0,0,0,0,0,0,0,0,0,0,0,0,0,0,0,0,0,0,0,0,0,0,0,0,0,0,0,0,0,0,0,0,0,0,0,0,0,0,0,0,0,0,0,0,0,0,0,0,0,0,0,0,0,0,0,
0,0,0,0,0,0,0,0,0,0,0,0,0,0,0,0,0,0,0,0,0,0,0,0,0,0,0,0,0,0,0,0,0,0,0,0,0,0,0,0,0,0,0,0,0,0,0,0,0,0,0,0,0,0,0,0,0,0,0,0,0,0,0,0,0,0,0,0,0,0,0,0,0,0,0,0,0,0,0,0,0,0,0,0,0,0,0,0,0,0,0,0,0,0,0,0,0,0,0,0,
0,0,0,0,0,0,0,0,0,0,0,0,0,0,0,0,0,0,0,0,0,0,0,0,0,0,0,0,0,0,0,0,0,0,0,0,0,0,0,0,0,0,0,0,0,0,0,0,0,0,0,0,0,0,0,0,0,0,0,0,0,0,0,0,0,0,0,0,0,0,0,0,0,0,0,0,0,0,0,0,0,0,0,0,0,0,0,0,0,0,0,0,0,0,0,0,0,0,0,0,
0,0,0,0,0,0,0,0,0,0,0,0,0,0,0,0,0,0,0,0,0,0,0,0,0,0,0,0,0,0,0,0,0,0,0,0,0,0,0,0,0,0,0,0,0,0,0,0,0,0,0,0,0,0,0,0,0,0,0,0,0,0,0,0,0,0,0,0,0,0,0,0,0,0,0,0,0,0,0,0,0,0,0,0,0,0,0,0,0,0,0,0,0,0,0,0,0,0,0,0,
0,0,0,0,0,0,0,0,0,0,0,0,0,0,0,0,0,0,0,0,0,0,0,0,0,0,0,0,0,0,0,0,0,0,0,0,0,0,0,0,0,0,0,0,0,0,0,0,0,0,0,0,0,0,0,0,0,0,0,0,0,0,0,0,0,0,0,0,0,0,0,0,0,0,0,0,0,0,0,0,0,0,0,0,0,0,0,0,0,0,0,0,0,0,0,0,0,0,0,0,
0,0,0,0,0,0,0,0,0,0,0,0,0,0,0,0,0,0,0,0,0,0,0,0,0,0,0,0,0,0,0,0,0,0,0,0,0,0,0,0,0,0,0,0,0,0,0,0,0,0,0,0,0,0,0,0,0,0,0,0,0,0,0,0,0,0,0,0,0,0,0,0,0,0,0,0,0,0,0,0,0,0,0,0,0,0,0,0,0,0,0,0,0,0,0,0,0,0,0,0,
0,0,0,0,0,0,0,0,0,0,0,0,0,0,0,0,0,0,0,0,0,0,0,0,0,0,0,0,0,0,0,0,0,0,0,0,0,0,0,0,0,0,0,0,0,0,0,0,0,0,0,0,0,0,0,0,0,0,0,0,0,0,0,0,0,0,0,0,0,0,0,0,0,0,0,0,0,0,0,0,0,0,0,0,0,0,0,0,0,0,0,0,0,0,0,0,0,0,0,0,
0,0,0,0,0,0,0,0,0,0,0,0,0,0,0,0,0,0,0,0,0,0,0,0,0,0,0,0,0,0,0,0,0,0,0,0,0,0,0,0,0,0,0,0,0,0,0,0,0,0,0,0,0,0,0,0,0,0,0,0,0,0,0,0,0,0,0,0,0,0,0,0,0,0,0,0,0,0,0,0,0,0,0,0,0,0,0,0,0,0,0,0,0,0,0,0,0,0,0,0,
0,0,0,0,0,0,0,0,0,0,0,0,0,0,0,0,0,0,0,0,0,0,0,0,0,0,0,0,0,0,0,0,0,0,0,0,0,0,0,0,0,0,0,0,0,0,0,0,0,0,0,0,0,0,0,0,0,0,0,0,0,0,0,0,0,0,0,0,0,0,0,0,0,0,0,0,0,0,0,0,0,0,0,0,0,0,0,0,0,0,0,0,0,0,0,0,0,0,0,0,
0,0,0,0,0,0,0,0,0,0,0,0,0,0,0,0,0,0,0,0,0,0,0,0,0,0,0,0,0,0,0,0,0,0,0,0,0,0,0,0,0,0,0,0,0,0,0,0,0,0,0,0,0,0,0,0,0,0,0,0,0,0,0,0,0,0,0,0,0,0,0,0,0,0,0,0,0,0,0,0,0,0,0,0,0,0,0,0,0,0,0,0,0,0,0,0,0,0,0,0,
0,0,0,0,0,0,0,0,0,0,0,0,0,0,0,0,0,0,0,0,0,0,0,0,0,0,0,0,0,0,0,0,0,0,0,0,0,0,0,0,0,0,0,0,0,0,0,0,0,0,0,0,0,0,0,0,0,0,0,0,0,0,0,0,0,0,0,0,0,0,0,0,0,0,0,0,0,0,0,0,0,0,0,0,0,0,0,0,0,0,0,0,0,0,0,0,0,0,0,0,
0,0,0,0,0,0,0,0,0,0,0,0,0,0,0,0,0,0,0,0,0,0,0,0,0,0,0,0,0,0,0,0,0,0,0,0,0,0,0,0,0,0,0,0,0,0,0,0,0,0,0,0,0,0,0,0,0,0,0,0,0,0,0,0,0,0,0,0,0,0,0,0,0,0,0,0,0,0,0,0,0,0,0,0,0,0,0,0,0,0,0,0,0,0,0,0,0,0,0,0,
0,0,0,0,0,0,0,0,0,0,0,0,0,0,0,0,0,0,0,0,0,0,0,0,0,0,0,0,0,0,0,0,0,0,0,0,0,0,0,0,0,0,0,0,0,0,0,0,0,0,0,0,0,0,0,0,0,0,0,0,0,0,0,0,0,0,0,0,0,0,0,0,0,0,0,0,0,0,0,0,0,0,0,0,0,0,0,0,0,0,0,0,0,0,0,0,0,0,0,0,
0,0,0,0,0,0,0,0,0,0,0,0,0,0,0,0,0,0,0,0,0,0,0,0,0,0,0,0,0,0,0,0,0,0,0,0,0,0,0,0,0,0,0,0,0,0,0,0,0,0,0,0,0,0,0,0,0,0,0,0,0,0,0,0,0,0,0,0,0,0,0,0,0,0,0,0,0,0,0,0,0,0,0,0,0,0,0,0,0,0,0,0,0,0,0,0,0,0,0,0,
0,0,0,0,0,0,0,0,0,0,0,0,0,0,0,0,0,0,0,0,0,0,0,0,0,0,0,0,0,0,0,0,0,0,0,0,0,0,0,0,0,0,0,0,0,0,0,0,0,0,0,0,0,0,0,0,0,0,0,0,0,0,0,0,0,0,0,0,0,0,0,0,0,0,0,0,0,0,0,0,0,0,0,0,0,0,0,0,0,0,0,0,0,0,0,0,0,0,0,0,
0,0,0,0,0,0,0,0,0,0,0,0,0,0,0,0,0,0,0,0,0,0,0,0,0,0,0,0,0,0,0,0,0,0,0,0,0,0,0,0,0,0,0,0,0,0,0,0,0,0,0,0,0,0,0,0,0,0,0,0,0,0,0,0,0,0,0,0,0,0,0,0,0,0,0,0,0,0,0,0,0,0,0,0,0,0,0,0,0,0,0,0,0,0,0,0,0,0,0,0,
0,0,0,0,0,0,0,0,0,0,0,0,0,0,0,0,0,0,0,0,0,0,0,0,0,0,0,0,0,0,0,0,0,0,0,0,0,0,0,0,0,0,0,0,0,0,0,0,0,0,0,0,0,0,0,0,0,0,0,0,0,0,0,0,0,0,0,0,0,0,0,0,0,0,0,0,0,0,0,0,0,0,0,0,0,0,0,0,0,0,0,0,0,0,0,0,0,0,0,0
</data>
 </layer>
 <objectgroup draworder="index" id="7" name="Foreground1">
  <properties>
   <property name="TextureColorB" type="int" value="0"/>
   <property name="TextureColorG" type="int" value="0"/>
   <property name="TextureColorR" type="int" value="0"/>
   <property name="TextureFactor" type="float" value="0.1"/>
  </properties>
  <object id="121" name="rockcombination11" gid="57" x="273" y="2687.33" width="302" height="204"/>
  <object id="262" gid="103" x="2698.67" y="2501.17" width="102.667" height="89.8333">
   <properties>
    <property name="Animated" type="bool" value="true"/>
    <property name="FPS" type="float" value="10"/>
    <property name="NumFrames" type="int" value="15"/>
    <property name="Path" value="Sprites/BrownCavePlants2/Plant02/Plant02"/>
   </properties>
  </object>
  <object id="173" gid="3" x="2623.94" y="2729.57" width="669" height="320.053"/>
 </objectgroup>
 <objectgroup draworder="index" id="8" name="Foreground2" parallaxx="1.1">
  <properties>
   <property name="TextureColorB" type="int" value="0"/>
   <property name="TextureColorG" type="int" value="0"/>
   <property name="TextureColorR" type="int" value="0"/>
   <property name="TextureFactor" type="float" value="0.1"/>
  </properties>
  <object id="108" name="bigrock09" gid="10" x="746.867" y="2684.46" width="77" height="232.791"/>
  <object id="109" name="rockcombination11" gid="57" x="965.212" y="2765.64" width="427.609" height="288.848"/>
  <object id="183" gid="1073741883" x="595.4" y="1791" width="304" height="321"/>
  <object id="200" gid="1073741883" x="1611.39" y="1806.58" width="379.763" height="401"/>
  <object id="146" name="rockcombination13" gid="59" x="1794.67" y="2735.33" width="304" height="321"/>
  <object id="267" gid="2147483750" x="4297.87" y="2714.06" width="215.975" height="281.064">
   <properties>
    <property name="Animated" type="bool" value="true"/>
    <property name="Destructible" type="bool" value="false"/>
    <property name="FPS" type="float" value="0"/>
    <property name="NumFrames" type="int" value="15"/>
    <property name="Path" value="Sprites/BrownCavePlants2/Plant01/Plant01"/>
    <property name="WindBalance" type="bool" value="true"/>
   </properties>
  </object>
 </objectgroup>
 <objectgroup id="9" name="HookPoints"/>
 <objectgroup id="10" name="Triggers">
  <object id="250" x="518.091" y="722.606" width="340" height="484">
   <properties>
    <property name="Destroy" type="bool" value="true"/>
    <property name="Event" value="ChangeScene"/>
    <property name="PlayerStartPositionId" type="int" value="0"/>
    <property name="Scene" value="Room4"/>
    <property name="Target" value="Game"/>
   </properties>
  </object>
  <object id="254" name="Light" x="3316.06" y="2230.55" width="596" height="346">
   <properties>
    <property name="AmbientColorB" type="float" value="1"/>
    <property name="AmbientColorG" type="float" value="1"/>
    <property name="AmbientColorR" type="float" value="1"/>
    <property name="AmbientIntensity" type="float" value="0.2"/>
    <property name="Destroy" type="bool" value="false"/>
    <property name="Event" value="ChangeAmbientLight"/>
    <property name="Target" value="Renderer"/>
   </properties>
  </object>
  <object id="255" name="Light" x="1211.52" y="40.1515" width="280" height="346">
   <properties>
    <property name="AmbientColorB" type="float" value="1"/>
    <property name="AmbientColorG" type="float" value="1"/>
    <property name="AmbientColorR" type="float" value="1"/>
    <property name="AmbientIntensity" type="float" value="1"/>
    <property name="Destroy" type="bool" value="false"/>
    <property name="Event" value="ChangeAmbientLight"/>
    <property name="Target" value="Renderer"/>
   </properties>
  </object>
 </objectgroup>
 <objectgroup id="16" name="Brazier">
  <object id="258" x="1925.7" y="2435.39" width="128" height="128">
   <properties>
    <property name="BrazierOn" type="bool" value="true"/>
   </properties>
  </object>
 </objectgroup>
 <objectgroup id="13" name="Checkpoint" locked="1">
  <object id="3" name="Checkpoint" x="3392.09" y="2371.76" width="416" height="192"/>
 </objectgroup>
 <objectgroup id="12" name="Grounds">
  <object id="2" x="892.606" y="386.121" width="651.667" height="631.273"/>
  <object id="115" x="57.5758" y="1212.36" width="300.152" height="1696.73"/>
  <object id="116" x="339.394" y="2559.39" width="5015.15" height="352.727"/>
  <object id="117" x="357.333" y="1997.5" width="80" height="570.5"/>
  <object id="118" x="438" y="1997.5" width="206.667" height="86.1667"/>
  <object id="119" x="1156" y="2062.67" width="89.3333" height="81.3333"/>
  <object id="120" x="1633.33" y="2170.67" width="172" height="101.333"/>
  <object id="174" x="2769.52" y="1776.85" width="402.181" height="786.606"/>
  <object id="198" x="360.667" y="1216" width="1431.33" height="331.333"/>
  <object id="199" x="364" y="1556" width="1204" height="94"/>
  <object id="201" x="357.333" y="1651.33" width="112.667" height="85.3333"/>
  <object id="222" x="4217.33" y="2462.67" width="448.667" height="98.6667">
   <properties>
    <property name="Spike" type="bool" value="true"/>
   </properties>
  </object>
  <object id="231" x="4244.67" y="2171.33" width="150.667" height="31.3333"/>
 </objectgroup>
 <objectgroup id="14" name="Player">
  <object id="1" x="3594.7" y="2513.27" width="31.0303" height="31.0303">
   <properties>
    <property name="StartPositionId" type="int" value="0"/>
   </properties>
  </object>
 </objectgroup>
 <objectgroup id="3" name="Enemies">
  <object id="251" name="Bat" x="1708.33" y="2319.33" width="32" height="32"/>
  <object id="256" name="FlyingGolem" x="2581.82" y="1536" width="32" height="32"/>
  <object id="257" name="Snake" x="2113.33" y="2532" width="32" height="32"/>
  <object id="259" name="LaserShooter" x="2754.33" y="1868.17" width="32" height="32">
   <properties>
    <property name="ContinuousShooting" type="bool" value="true"/>
    <property name="Cooldown" type="float" value="0"/>
    <property name="Direction" type="int" value="2"/>
    <property name="ShootDuration" type="float" value="1.5"/>
   </properties>
  </object>
 </objectgroup>
</map>
