<?xml version="1.0" encoding="UTF-8"?>
<map version="1.10" tiledversion="1.11.2" orientation="orthogonal" renderorder="right-down" width="40" height="13" tilewidth="128" tileheight="128" infinite="0" nextlayerid="24" nextobjectid="30">
 <editorsettings>
  <export target="Forest10.json" format="json"/>
 </editorsettings>
 <properties>
  <property name="BackgroundLayers" value="DarkForest/4.png"/>
  <property name="GroundBehindPlayer" type="bool" value="false"/>
  <property name="GroundParticleColor" type="color" value="#ff3a9359"/>
  <property name="Music" value="Greenpath.wav"/>
  <property name="UseGrassParticle" type="bool" value="true"/>
  <property name="UseGroundPadding" type="bool" value="true"/>
 </properties>
 <tileset firstgid="1" source="../../Tilesets/Mossy/MossyTileSet.tsx"/>
 <objectgroup id="2" name="AmbientParticleArea" visible="0"/>
 <objectgroup id="15" name="Camera" visible="0">
  <object id="14" x="0" y="0" width="5120" height="1664">
   <properties>
    <property name="Event" value="FollowPlayerLimited"/>
    <property name="LimitMaxCameraPositionX" type="float" value="4992"/>
    <property name="LimitMaxCameraPositionY" type="float" value="1536"/>
    <property name="LimitMinCameraPositionX" type="float" value="128"/>
    <property name="LimitMinCameraPositionY" type="float" value="128"/>
    <property name="Target" value="Camera"/>
   </properties>
  </object>
 </objectgroup>
 <objectgroup id="10" name="Triggers" visible="0">
  <object id="24" x="0" y="128" width="48" height="512">
   <properties>
    <property name="Destroy" type="bool" value="true"/>
    <property name="Event" value="ChangeScene"/>
    <property name="PlayerStartPositionId" type="int" value="5"/>
    <property name="Scene" value="Forest8/Forest8"/>
    <property name="Target" value="Game"/>
   </properties>
  </object>
  <object id="26" x="3584" y="1636" width="384" height="28">
   <properties>
    <property name="Destroy" type="bool" value="true"/>
    <property name="Event" value="ChangeScene"/>
    <property name="PlayerStartPositionId" type="int" value="1"/>
    <property name="Scene" value="Forest7/Forest7"/>
    <property name="Target" value="Game"/>
   </properties>
  </object>
 </objectgroup>
 <objectgroup draworder="index" id="3" name="Background1" visible="0" parallaxx="0.95">
  <properties>
   <property name="TextureColorB" type="int" value="69"/>
   <property name="TextureColorG" type="int" value="65"/>
   <property name="TextureColorR" type="int" value="22"/>
   <property name="TextureFactor" type="float" value="0.3"/>
  </properties>
 </objectgroup>
 <objectgroup draworder="index" id="4" name="Background2" visible="0">
  <properties>
   <property name="TextureColorB" type="int" value="107"/>
   <property name="TextureColorG" type="int" value="101"/>
   <property name="TextureColorR" type="int" value="22"/>
   <property name="TextureFactor" type="float" value="0.5"/>
  </properties>
 </objectgroup>
 <objectgroup draworder="index" id="5" name="Decorations"/>
 <layer id="1" name="Camada de Blocos 1" width="40" height="13">
  <data encoding="csv">
1,2,2,2,2,2,2,2,2,2,2,2,2,2,2,2,2,2,2,2,2,2,2,2,2,2,2,2,2,2,2,2,2,3,0,1,2,2,2,3,
15,16,16,16,16,16,16,16,16,16,16,16,16,16,16,16,16,16,16,16,16,16,16,16,16,16,16,16,16,16,16,16,16,17,0,15,16,16,6,10,
0,0,0,0,0,0,0,0,0,0,0,0,0,0,0,0,0,0,0,0,0,0,0,0,0,0,0,0,0,0,0,0,0,0,0,0,0,0,8,10,
0,0,0,0,0,0,0,0,0,0,0,0,0,0,0,0,0,0,0,0,0,0,0,0,0,0,0,0,0,0,0,0,0,0,4,0,0,0,8,10,
1,2,2,3,0,0,0,0,0,0,0,0,0,0,0,0,0,0,0,0,0,0,0,0,0,0,0,0,0,0,0,0,0,1,37,0,0,0,8,10,
8,9,9,10,0,0,0,0,0,0,0,0,0,0,0,0,0,0,0,0,0,0,0,0,0,0,0,0,0,0,0,0,0,15,17,0,0,0,8,10,
8,9,9,10,0,0,0,0,0,0,0,0,0,0,0,0,0,0,0,0,0,0,0,0,0,0,0,0,0,0,0,0,0,0,0,0,0,0,8,10,
8,9,9,10,0,0,0,0,0,0,0,0,0,0,0,0,0,0,0,0,0,0,0,0,0,0,0,0,0,0,0,0,0,0,0,0,0,0,8,10,
8,9,9,10,0,0,0,0,0,0,0,4,0,0,0,0,0,0,0,0,0,4,0,0,0,0,0,0,0,0,0,0,0,0,0,0,0,0,8,10,
8,9,9,10,0,0,0,0,0,0,0,18,0,0,0,0,0,0,0,0,0,18,0,0,0,0,0,0,0,0,0,0,0,0,0,0,0,0,8,10,
8,9,9,10,0,0,0,0,0,0,0,0,0,0,0,0,0,0,0,0,0,0,0,0,0,0,0,0,0,0,0,0,0,0,0,0,0,0,8,10,
8,9,9,12,2,2,2,2,2,2,2,2,2,2,2,2,2,2,2,2,2,2,2,2,2,2,2,2,3,0,1,2,2,2,2,2,2,2,13,10,
15,16,16,16,16,16,16,16,16,16,16,16,16,16,16,16,16,16,16,16,16,16,16,16,16,16,16,16,17,0,15,16,16,16,16,16,16,16,16,17
</data>
 </layer>
 <layer id="6" name="DynamicGrounds" width="40" height="13" visible="0">
  <data encoding="csv">
0,0,0,0,0,0,0,0,0,0,0,0,0,0,0,0,0,0,0,0,0,0,0,0,0,0,0,0,0,0,0,0,0,0,0,0,0,0,0,0,
0,0,0,0,0,0,0,0,0,0,0,0,0,0,0,0,0,0,0,0,0,0,0,0,0,0,0,0,0,0,0,0,0,0,0,0,0,0,0,0,
0,0,0,0,0,0,0,0,0,0,0,0,0,0,0,0,0,0,0,0,0,0,0,0,0,0,0,0,0,0,0,0,0,0,0,0,0,0,0,0,
0,0,0,0,0,0,0,0,0,0,0,0,0,0,0,0,0,0,0,0,0,0,0,0,0,0,0,0,0,0,0,0,0,0,0,0,0,0,0,0,
0,0,0,0,0,0,0,0,0,0,0,0,0,0,0,0,0,0,0,0,0,0,0,0,0,0,0,0,0,0,0,0,0,0,0,0,0,0,0,0,
0,0,0,0,0,0,0,0,0,0,0,0,0,0,0,0,0,0,0,0,0,0,0,0,0,0,0,0,0,0,0,0,0,0,0,0,0,0,0,0,
0,0,0,0,0,0,0,0,0,0,0,0,0,0,0,0,0,0,0,0,0,0,0,0,0,0,0,0,0,0,0,0,0,0,0,0,0,0,0,0,
0,0,0,0,0,0,0,0,0,0,0,0,0,0,0,0,0,0,0,0,0,0,0,0,0,0,0,0,0,0,0,0,0,0,0,0,0,0,0,0,
0,0,0,0,0,0,0,0,0,0,0,0,0,0,0,0,0,0,0,0,0,0,0,0,0,0,0,0,0,0,0,0,0,0,0,0,0,0,0,0,
0,0,0,0,0,0,0,0,0,0,0,0,0,0,0,0,0,0,0,0,0,0,0,0,0,0,0,0,0,0,0,0,0,0,0,0,0,0,0,0,
0,0,0,0,0,0,0,0,0,0,0,0,0,0,0,0,0,0,0,0,0,0,0,0,0,0,0,0,0,0,0,0,0,0,0,0,0,0,0,0,
0,0,0,0,0,0,0,0,0,0,0,0,0,0,0,0,0,0,0,0,0,0,0,0,0,0,0,0,0,0,0,0,0,0,0,0,0,0,0,0,
0,0,0,0,0,0,0,0,0,0,0,0,0,0,0,0,0,0,0,0,0,0,0,0,0,0,0,0,0,0,0,0,0,0,0,0,0,0,0,0
</data>
 </layer>
 <objectgroup draworder="index" id="23" name="DecorationsForeground" visible="0"/>
 <objectgroup draworder="index" id="7" name="Foreground1" visible="0">
  <properties>
   <property name="TextureColorB" type="int" value="0"/>
   <property name="TextureColorG" type="int" value="0"/>
   <property name="TextureColorR" type="int" value="0"/>
   <property name="TextureFactor" type="float" value="0.2"/>
  </properties>
 </objectgroup>
 <objectgroup draworder="index" id="8" name="Foreground2" visible="0" parallaxx="1.1">
  <properties>
   <property name="TextureColorB" type="int" value="0"/>
   <property name="TextureColorG" type="int" value="0"/>
   <property name="TextureColorR" type="int" value="0"/>
   <property name="TextureFactor" type="float" value="0.2"/>
  </properties>
 </objectgroup>
 <objectgroup id="16" name="Light" visible="0"/>
 <objectgroup id="17" name="Brazier" visible="0"/>
 <objectgroup id="18" name="Lava" visible="0"/>
 <objectgroup id="19" name="LightningBarrier" visible="0"/>
 <objectgroup id="9" name="HookPoints" visible="0">
  <object id="1" x="3838" y="836" width="32" height="32"/>
  <object id="2" x="1022" y="836" width="32" height="32"/>
 </objectgroup>
 <objectgroup id="20" name="Levers" visible="0"/>
 <objectgroup id="21" name="SpawnPoint" visible="0"/>
 <objectgroup id="11" name="Grounds" visible="0">
  <object id="5" x="0" y="512" width="512" height="1152"/>
  <object id="6" x="512" y="1408" width="3200" height="256"/>
  <object id="7" x="0" y="0" width="4352" height="256"/>
  <object id="8" x="4480" y="0" width="384" height="256"/>
  <object id="9" x="4864" y="0" width="256" height="1664"/>
  <object id="10" x="3840" y="1408" width="1024" height="256"/>
  <object id="11" x="4224" y="512" width="128" height="256"/>
  <object id="16" x="4352" y="384" width="128" height="384"/>
  <object id="19" x="1408" y="1024" width="128" height="256"/>
  <object id="29" x="2688" y="1024" width="128" height="256"/>
 </objectgroup>
 <objectgroup id="12" name="Checkpoint" visible="0"/>
 <objectgroup id="13" name="Player" visible="0">
  <object id="25" name="Player" x="80" y="493" width="32" height="32">
   <properties>
    <property name="EnteringLevelSpeedX" type="float" value="700"/>
    <property name="EnteringLevelSpeedY" type="float" value="0"/>
    <property name="StartPositionId" type="int" value="0"/>
   </properties>
  </object>
  <object id="28" x="3776" y="1534" width="32" height="32">
   <properties>
    <property name="EnteringLevelSpeedX" type="float" value="700"/>
    <property name="EnteringLevelSpeedY" type="float" value="-1200"/>
    <property name="EnteringOffset" type="float" value="64"/>
    <property name="StartPositionId" type="int" value="1"/>
   </properties>
  </object>
 </objectgroup>
 <objectgroup id="14" name="Enemies" visible="0">
  <object id="17" name="DragonFly" x="2180.36" y="1139.64" width="32" height="32"/>
  <object id="21" name="FlyingSpawnerEnemy" x="3182.91" y="1054.36" width="32" height="32"/>
 </objectgroup>
 <objectgroup id="22" name="CameraBounds">
  <object id="15" x="128" y="128" width="4864" height="1408"/>
 </objectgroup>
</map>
