<?xml version="1.0" encoding="UTF-8"?>
<map version="1.10" tiledversion="1.11.2" orientation="orthogonal" renderorder="right-down" width="70" height="21" tilewidth="128" tileheight="128" infinite="0" nextlayerid="23" nextobjectid="61">
 <editorsettings>
  <export target="Forest5.json" format="json"/>
 </editorsettings>
 <properties>
  <property name="BackgroundLayers" value="DarkForest/4.png"/>
  <property name="GroundBehindPlayer" type="bool" value="false"/>
  <property name="GroundParticleColor" type="color" value="#ff3a9359"/>
  <property name="Music" value="Greenpath.wav"/>
  <property name="UseGrassParticle" type="bool" value="true"/>
  <property name="UseGroundPadding" type="bool" value="true"/>
 </properties>
 <tileset firstgid="1" source="../../Tilesets/Mossy/MossyTileSet.tsx"/>
 <tileset firstgid="50" source="../../Sprites/MossyBackgrounds3/MossyDecorations.tsx"/>
 <objectgroup id="2" name="AmbientParticleArea"/>
 <objectgroup id="15" name="Camera">
  <object id="3" x="8064" y="256" width="896" height="718">
   <properties>
    <property name="Event" value="FollowPlayerLimited"/>
    <property name="LimitMaxCameraPositionX" type="float" value="4784"/>
    <property name="LimitMaxCameraPositionY" type="float" value="70000"/>
    <property name="LimitMinCameraPositionX" type="float" value="2864"/>
    <property name="LimitMinCameraPositionY" type="float" value="512"/>
    <property name="Target" value="Camera"/>
   </properties>
  </object>
  <object id="12" x="6912" y="0" width="1126" height="1024">
   <properties>
    <property name="Event" value="FollowPlayerLimited"/>
    <property name="LimitMaxCameraPositionX" type="float" value="4784"/>
    <property name="LimitMaxCameraPositionY" type="float" value="70000"/>
    <property name="LimitMinCameraPositionX" type="float" value="2864"/>
    <property name="LimitMinCameraPositionY" type="float" value="384"/>
    <property name="Target" value="Camera"/>
   </properties>
  </object>
  <object id="24" x="5687.88" y="1056" width="2888.12" height="1264">
   <properties>
    <property name="Event" value="FollowPlayerLimited"/>
    <property name="LimitMaxCameraPositionX" type="float" value="4736"/>
    <property name="LimitMaxCameraPositionY" type="float" value="2176"/>
    <property name="LimitMinCameraPositionX" type="float" value="0"/>
    <property name="LimitMinCameraPositionY" type="float" value="384"/>
    <property name="Target" value="Camera"/>
   </properties>
  </object>
 </objectgroup>
 <objectgroup id="10" name="Triggers">
  <object id="1" x="8704" y="640" width="128" height="384">
   <properties>
    <property name="Destroy" type="bool" value="true"/>
    <property name="Event" value="ChangeScene"/>
    <property name="PlayerStartPositionId" type="int" value="1"/>
    <property name="Scene" value="Forest3/Forest3"/>
    <property name="Target" value="Game"/>
   </properties>
  </object>
  <object id="13" x="7552" y="141" width="384" height="128">
   <properties>
    <property name="Destroy" type="bool" value="true"/>
    <property name="Event" value="ChangeScene"/>
    <property name="PlayerStartPositionId" type="int" value="1"/>
    <property name="Scene" value="Forest4/Forest4"/>
    <property name="Target" value="Game"/>
   </properties>
  </object>
 </objectgroup>
 <objectgroup id="3" name="Background1" parallaxx="0.95">
  <properties>
   <property name="TextureColorB" type="int" value="69"/>
   <property name="TextureColorG" type="int" value="65"/>
   <property name="TextureColorR" type="int" value="22"/>
   <property name="TextureFactor" type="float" value="0.3"/>
  </properties>
 </objectgroup>
 <objectgroup id="4" name="Background2">
  <properties>
   <property name="TextureColorB" type="int" value="107"/>
   <property name="TextureColorG" type="int" value="101"/>
   <property name="TextureColorR" type="int" value="22"/>
   <property name="TextureFactor" type="float" value="0.5"/>
  </properties>
 </objectgroup>
 <objectgroup draworder="index" id="5" name="Decorations">
  <object id="48" gid="1073741916" x="7365.67" y="1555.33" width="417.333" height="280.948"/>
  <object id="44" gid="1073741917" x="7330.94" y="1550.88" width="231.015" height="214.667"/>
  <object id="47" gid="3221225564" x="6561.58" y="1593.36" width="475.857" height="320.346" rotation="355.198"/>
  <object id="45" gid="1073741915" x="6923.65" y="1595.74" width="651.613" height="283.905" rotation="354.679"/>
  <object id="46" gid="1073741917" x="6726.33" y="1570.33" width="318.863" height="296.297"/>
  <object id="57" gid="91" x="2045.03" y="916.491" width="741.327" height="322.993" rotation="90"/>
  <object id="58" gid="93" x="2409.01" y="359.061" width="349.794" height="325.04" rotation="180"/>
  <object id="59" gid="93" x="2169.97" y="978.624" width="141.909" height="131.866"/>
  <object id="60" gid="93" x="2203.05" y="1569.4" width="141.909" height="131.866" rotation="180"/>
 </objectgroup>
 <layer id="1" name="Camada de Blocos 1" width="70" height="21">
  <data encoding="csv">
0,0,0,0,0,0,0,0,0,0,0,0,0,0,0,0,0,0,0,0,0,0,0,0,0,0,0,0,0,0,0,0,0,0,0,0,0,0,0,0,0,0,0,0,0,0,0,0,0,0,0,0,0,0,0,0,0,0,0,0,0,0,0,0,0,0,0,0,0,0,
0,0,0,0,0,0,0,0,0,0,0,0,0,0,0,0,0,0,0,0,0,0,0,0,0,0,0,0,0,0,0,0,0,0,0,0,0,0,0,0,0,0,0,0,0,0,0,0,0,0,0,0,0,0,0,0,0,0,0,0,0,0,0,0,0,0,0,0,0,0,
1,2,2,2,2,2,2,2,2,2,2,2,2,2,2,2,2,2,2,2,2,2,2,2,2,2,2,2,2,2,2,2,2,2,2,2,2,2,2,2,2,3,0,0,0,0,0,0,0,0,0,1,2,2,2,2,2,2,2,3,0,1,2,2,2,2,2,2,2,3,
8,5,16,16,16,16,16,16,16,16,16,16,16,16,16,16,16,16,16,16,16,16,16,16,16,16,16,16,16,16,16,16,16,16,16,16,16,16,16,16,6,10,0,0,0,0,0,0,0,0,0,8,9,9,5,16,16,16,16,17,0,15,16,6,9,9,9,9,9,10,
8,10,0,0,0,0,0,0,0,0,0,0,0,0,0,0,0,0,0,0,0,0,0,0,0,0,0,0,0,0,0,0,0,0,0,0,0,0,0,0,8,10,0,0,0,0,0,0,0,0,0,8,9,9,10,0,0,0,0,0,0,0,0,8,9,9,9,9,9,10,
8,10,0,0,0,0,0,0,0,0,0,0,0,0,0,0,0,0,0,0,0,0,0,0,0,0,0,0,0,0,0,0,0,0,0,0,0,0,0,0,8,10,0,0,0,0,0,0,0,0,0,8,9,9,10,0,22,23,23,23,23,35,0,15,16,16,16,16,16,17,
8,10,0,0,0,0,0,0,0,0,0,0,0,0,0,0,0,0,0,0,0,0,0,0,0,0,0,0,0,0,0,0,0,0,0,0,0,0,0,0,8,10,0,0,0,0,0,0,0,0,0,8,9,9,10,0,0,0,0,0,0,11,0,0,0,0,0,0,0,0,
8,10,0,0,0,0,0,0,0,0,0,0,0,0,0,0,0,0,0,0,0,0,0,22,24,0,22,23,24,0,4,0,0,0,0,0,0,0,0,0,8,10,0,0,0,0,0,0,0,0,0,8,9,9,12,2,2,2,2,3,0,47,23,23,23,23,32,2,2,3,
8,10,0,0,0,0,0,0,0,0,0,0,0,0,0,0,0,0,0,0,0,0,0,0,0,0,0,0,0,0,11,0,0,0,0,0,0,0,0,0,8,10,0,0,0,0,0,0,0,0,0,8,9,9,9,9,9,9,9,10,0,0,0,0,0,0,8,9,9,10,
8,10,0,0,0,0,0,0,0,0,0,0,0,0,0,0,0,0,0,0,0,0,0,0,0,0,0,0,0,0,11,0,0,0,0,0,0,0,0,0,8,10,0,0,1,2,2,2,2,2,2,13,9,9,9,9,9,9,9,12,31,23,23,23,24,0,8,9,9,10,
8,10,0,0,0,1,3,0,0,0,0,0,0,0,0,0,0,0,0,0,0,0,0,0,0,0,0,0,0,0,11,0,0,0,0,0,0,0,0,0,8,10,0,0,8,5,16,16,16,16,16,16,16,16,16,16,16,16,16,16,17,0,0,0,0,0,8,9,9,10,
8,10,0,0,0,8,10,0,0,0,0,0,0,0,0,0,0,0,0,0,0,0,0,0,0,0,0,0,0,0,11,0,0,0,0,0,0,0,0,0,8,12,2,2,13,10,0,0,0,0,0,0,0,0,0,0,0,0,0,0,0,0,0,1,2,2,13,9,9,10,
8,10,0,0,0,8,10,0,0,0,0,0,0,0,0,0,0,0,0,0,0,0,0,0,0,0,0,0,0,0,11,0,0,0,0,0,0,0,0,0,15,16,16,16,16,17,0,0,1,3,0,0,0,0,0,0,0,0,0,0,0,0,1,13,9,9,9,9,9,10,
8,10,0,0,0,8,10,0,0,0,0,0,0,0,0,0,0,0,0,0,0,0,0,0,0,0,0,0,0,0,11,0,0,0,0,0,0,0,0,0,0,0,0,0,0,0,0,0,8,10,0,0,0,0,0,0,0,0,0,0,0,0,8,9,9,9,9,9,9,10,
15,17,0,0,0,8,10,0,0,0,0,0,0,0,0,0,0,25,0,0,0,0,0,0,0,0,0,0,0,0,18,0,0,22,23,24,0,0,0,0,0,0,0,0,0,0,1,2,13,12,2,2,2,2,2,2,2,2,2,2,2,2,13,9,9,9,9,9,9,10,
0,0,0,0,0,8,10,0,0,0,0,0,0,0,0,0,0,0,0,0,0,0,0,0,0,0,0,0,0,0,0,0,0,0,0,0,0,0,0,0,0,0,0,0,0,0,8,9,9,9,9,9,9,9,9,9,9,9,9,9,9,9,9,9,9,9,9,9,9,10,
1,2,2,2,2,13,12,2,2,2,2,2,2,2,2,2,2,2,2,2,2,2,2,2,2,2,2,2,2,2,2,2,2,2,2,2,2,2,2,2,2,2,2,2,2,2,13,9,9,9,9,9,9,9,9,9,9,9,9,9,9,9,9,9,9,9,9,9,9,10,
15,16,16,16,16,16,16,16,16,16,16,16,16,16,16,16,16,16,16,16,16,16,16,16,16,16,16,16,16,16,16,16,16,16,16,16,16,16,16,16,16,16,16,16,16,16,16,16,16,16,16,16,16,16,16,16,16,16,16,16,16,16,16,16,16,16,16,16,16,17,
0,0,0,0,0,0,0,0,0,0,0,0,0,0,0,0,0,0,0,0,0,0,0,0,0,0,0,0,0,0,0,0,0,0,0,0,0,0,0,0,0,0,0,0,0,0,0,0,0,0,0,0,0,0,0,0,0,0,0,0,0,0,0,0,0,0,0,0,0,0,
0,0,0,0,0,0,0,0,0,0,0,0,0,0,0,0,0,0,0,0,0,0,0,0,0,0,0,0,0,0,0,0,0,0,0,0,0,0,0,0,0,0,0,0,0,0,0,0,0,0,0,0,0,0,0,0,0,0,0,0,0,0,0,0,0,0,0,0,0,0,
0,0,0,0,0,0,0,0,0,0,0,0,0,0,0,0,0,0,0,0,0,0,0,0,0,0,0,0,0,0,0,0,0,0,0,0,0,0,0,0,0,0,0,0,0,0,0,0,0,0,0,0,0,0,0,0,0,0,0,0,0,0,0,0,0,0,0,0,0,0
</data>
 </layer>
 <layer id="6" name="DynamicGrounds" width="70" height="21">
  <data encoding="csv">
0,0,0,0,0,0,0,0,0,0,0,0,0,0,0,0,0,0,0,0,0,0,0,0,0,0,0,0,0,0,0,0,0,0,0,0,0,0,0,0,0,0,0,0,0,0,0,0,0,0,0,0,0,0,0,0,0,0,0,0,0,0,0,0,0,0,0,0,0,0,
0,0,0,0,0,0,0,0,0,0,0,0,0,0,0,0,0,0,0,0,0,0,0,0,0,0,0,0,0,0,0,0,0,0,0,0,0,0,0,0,0,0,0,0,0,0,0,0,0,0,0,0,0,0,0,0,0,0,0,0,0,0,0,0,0,0,0,0,0,0,
0,0,0,0,0,0,0,0,0,0,0,0,0,0,0,0,0,0,0,0,0,0,0,0,0,0,0,0,0,0,0,0,0,0,0,0,0,0,0,0,0,0,0,0,0,0,0,0,0,0,0,0,0,0,0,0,0,0,0,0,0,0,0,0,0,0,0,0,0,0,
0,0,0,0,0,0,0,0,0,0,0,0,0,0,0,0,0,0,0,0,0,0,0,0,0,0,0,0,0,0,0,0,0,0,0,0,0,0,0,0,0,0,0,0,0,0,0,0,0,0,0,0,0,0,0,0,0,0,0,0,0,0,0,0,0,0,0,0,0,0,
0,0,0,0,0,0,0,0,0,0,0,0,0,0,0,0,0,0,0,0,0,0,0,0,0,0,0,0,0,0,0,0,0,0,0,0,0,0,0,0,0,0,0,0,0,0,0,0,0,0,0,0,0,0,0,0,0,0,0,0,0,0,0,0,0,0,0,0,0,0,
0,0,0,0,0,0,0,0,0,0,0,0,0,0,0,0,0,0,0,0,0,0,0,0,0,0,0,0,0,0,0,0,0,0,0,0,0,0,0,0,0,0,0,0,0,0,0,0,0,0,0,0,0,0,0,0,0,0,0,0,0,0,0,0,0,0,0,0,0,0,
0,0,0,0,0,0,0,0,0,0,0,0,0,0,0,0,0,0,0,0,0,0,0,0,0,0,0,0,0,0,0,0,0,0,0,0,0,0,0,0,0,0,0,0,0,0,0,0,0,0,0,0,0,0,0,0,0,0,0,0,0,0,0,0,0,0,0,0,0,0,
0,0,0,0,0,0,0,0,0,0,0,0,0,0,0,0,0,0,0,0,0,0,0,0,0,0,0,0,0,0,0,0,0,0,0,0,0,0,0,0,0,0,0,0,0,0,0,0,0,0,0,0,0,0,0,0,0,0,0,0,0,0,0,0,0,0,0,0,0,0,
0,0,0,0,0,0,0,0,0,0,0,0,0,0,0,0,0,0,0,0,0,0,0,0,0,0,0,0,0,0,0,0,0,0,0,0,0,0,0,0,0,0,0,0,0,0,0,0,0,0,0,0,0,0,0,0,0,0,0,0,0,0,0,0,0,0,0,0,0,0,
0,0,0,0,0,0,0,0,0,0,0,0,0,0,0,0,0,0,0,0,0,0,0,0,0,0,0,0,0,0,0,0,0,0,0,0,0,0,0,0,0,0,0,0,0,0,0,0,0,0,0,0,0,0,0,0,0,0,0,0,0,0,0,0,0,0,0,0,0,0,
0,0,0,0,0,0,0,0,0,0,0,0,0,0,0,0,0,0,0,0,0,0,0,0,0,0,0,0,0,0,0,0,0,0,0,0,0,0,0,0,0,0,0,0,0,0,0,0,0,0,0,0,0,0,0,0,0,0,0,0,0,0,0,0,0,0,0,0,0,0,
0,0,0,0,0,0,0,0,0,0,0,0,0,0,0,0,0,0,0,0,0,0,0,0,0,0,0,0,0,0,0,0,0,0,0,0,0,0,0,0,0,0,0,0,0,0,0,0,0,0,0,0,0,0,0,0,0,0,0,0,0,0,0,0,0,0,0,0,0,0,
0,0,0,0,0,0,0,0,0,0,0,0,0,0,0,0,0,0,0,0,0,0,0,0,0,0,0,0,0,0,0,0,0,0,0,0,0,0,0,0,0,0,0,0,0,0,0,0,0,0,0,0,0,0,0,0,0,0,0,0,0,0,0,0,0,0,0,0,0,0,
0,0,0,0,0,0,0,0,0,0,0,0,0,0,0,0,0,0,0,0,0,0,0,0,0,0,0,0,0,0,0,0,0,0,0,0,0,0,0,0,0,0,0,0,0,0,0,0,0,0,0,0,0,0,0,0,0,0,0,0,0,0,0,0,0,0,0,0,0,0,
0,0,0,0,0,0,0,0,0,0,0,0,0,0,0,0,0,0,0,0,0,0,0,0,0,0,0,0,0,0,0,0,0,0,0,0,0,0,0,0,0,0,0,0,0,0,0,0,0,0,0,0,0,0,0,0,0,0,0,0,0,0,0,0,0,0,0,0,0,0,
0,0,0,0,0,0,0,0,0,0,0,0,0,0,0,0,0,0,0,0,0,0,0,0,0,0,0,0,0,0,0,0,0,0,0,0,0,0,0,0,0,0,0,0,0,0,0,0,0,0,0,0,0,0,0,0,0,0,0,0,0,0,0,0,0,0,0,0,0,0,
0,0,0,0,0,0,0,0,0,0,0,0,0,0,0,0,0,0,0,0,0,0,0,0,0,0,0,0,0,0,0,0,0,0,0,0,0,0,0,0,0,0,0,0,0,0,0,0,0,0,0,0,0,0,0,0,0,0,0,0,0,0,0,0,0,0,0,0,0,0,
0,0,0,0,0,0,0,0,0,0,0,0,0,0,0,0,0,0,0,0,0,0,0,0,0,0,0,0,0,0,0,0,0,0,0,0,0,0,0,0,0,0,0,0,0,0,0,0,0,0,0,0,0,0,0,0,0,0,0,0,0,0,0,0,0,0,0,0,0,0,
0,0,0,0,0,0,0,0,0,0,0,0,0,0,0,0,0,0,0,0,0,0,0,0,0,0,0,0,0,0,0,0,0,0,0,0,0,0,0,0,0,0,0,0,0,0,0,0,0,0,0,0,0,0,0,0,0,0,0,0,0,0,0,0,0,0,0,0,0,0,
0,0,0,0,0,0,0,0,0,0,0,0,0,0,0,0,0,0,0,0,0,0,0,0,0,0,0,0,0,0,0,0,0,0,0,0,0,0,0,0,0,0,0,0,0,0,0,0,0,0,0,0,0,0,0,0,0,0,0,0,0,0,0,0,0,0,0,0,0,0,
0,0,0,0,0,0,0,0,0,0,0,0,0,0,0,0,0,0,0,0,0,0,0,0,0,0,0,0,0,0,0,0,0,0,0,0,0,0,0,0,0,0,0,0,0,0,0,0,0,0,0,0,0,0,0,0,0,0,0,0,0,0,0,0,0,0,0,0,0,0
</data>
 </layer>
 <objectgroup id="7" name="Foreground1">
  <properties>
   <property name="TextureColorB" type="int" value="0"/>
   <property name="TextureColorG" type="int" value="0"/>
   <property name="TextureColorR" type="int" value="0"/>
   <property name="TextureFactor" type="float" value="0.2"/>
  </properties>
 </objectgroup>
 <objectgroup id="8" name="Foreground2" parallaxx="1.1">
  <properties>
   <property name="TextureColorB" type="int" value="0"/>
   <property name="TextureColorG" type="int" value="0"/>
   <property name="TextureColorR" type="int" value="0"/>
   <property name="TextureFactor" type="float" value="0.2"/>
  </properties>
 </objectgroup>
 <objectgroup id="16" name="Light"/>
 <objectgroup id="17" name="Brazier"/>
 <objectgroup id="18" name="Lava"/>
 <objectgroup id="19" name="LightningBarrier"/>
 <objectgroup id="9" name="HookPoints"/>
 <objectgroup id="20" name="Levers"/>
 <objectgroup id="21" name="SpawnPoint"/>
 <objectgroup id="11" name="Grounds">
  <object id="4" x="8064" y="256" width="896" height="512"/>
  <object id="5" x="7936" y="896" width="512" height="128"/>
  <object id="7" x="8448" y="896" width="512" height="1408"/>
  <object id="8" x="7808" y="256" width="256" height="256"/>
  <object id="9" x="7040" y="256" width="640" height="256"/>
  <object id="10" x="7808" y="640" width="128" height="384"/>
  <object id="11" x="7168" y="640" width="640" height="128"/>
  <object id="17" x="6528" y="256" width="512" height="1152"/>
  <object id="19" x="7040" y="896" width="640" height="512"/>
  <object id="20" x="7680" y="1152" width="640" height="128"/>
  <object id="21" x="8064" y="1408" width="384" height="896"/>
  <object id="22" x="7936" y="1536" width="128" height="768"/>
  <object id="23" x="6400" y="1792" width="1536" height="512"/>
  <object id="40" x="6962.7" y="1407.95" width="212" height="33">
   <properties>
    <property name="Spike" type="bool" value="true"/>
   </properties>
  </object>
  <object id="41" x="6601.7" y="1412.95" width="364" height="97">
   <properties>
    <property name="Spike" type="bool" value="true"/>
   </properties>
  </object>
  <object id="42" x="7171.7" y="1406.95" width="346" height="99">
   <properties>
    <property name="Spike" type="bool" value="true"/>
   </properties>
  </object>
  <object id="43" x="7680" y="1280" width="128" height="128"/>
  <object id="49" x="7564.5" y="1405.5" width="113" height="99">
   <properties>
    <property name="Spike" type="bool" value="true"/>
   </properties>
  </object>
  <object id="50" x="7679.5" y="1409.5" width="51" height="60">
   <properties>
    <property name="Spike" type="bool" value="true"/>
   </properties>
  </object>
  <object id="51" x="6144" y="1536" width="256" height="768"/>
  <object id="52" x="5888" y="1152" width="640" height="256"/>
  <object id="53" x="5632" y="1152" width="256" height="512"/>
 </objectgroup>
 <objectgroup id="12" name="Checkpoint"/>
 <objectgroup id="13" name="Player">
  <object id="2" name="Player" x="8672" y="875" width="32" height="32">
   <properties>
    <property name="EnteringLevelSpeedX" type="float" value="-700"/>
    <property name="EnteringLevelSpeedY" type="float" value="0"/>
    <property name="StartPositionId" type="int" value="0"/>
   </properties>
  </object>
  <object id="14" name="Player" x="7744" y="319" width="32" height="32">
   <properties>
    <property name="StartPositionId" type="int" value="1"/>
   </properties>
  </object>
 </objectgroup>
 <objectgroup id="14" name="Enemies">
  <object id="26" name="Enemy Simple" x="7313.27" y="878.36" width="32" height="32"/>
  <object id="27" name="Enemy Simple" x="7885.27" y="1133.03" width="32" height="32"/>
  <object id="28" name="Mantis" x="6475.33" y="1777.39" width="32" height="32"/>
  <object id="54" name="Mushroom" x="5369.33" y="2035.39" width="32" height="32"/>
 </objectgroup>
 <objectgroup id="22" name="CameraBounds" visible="0">
  <object id="29" x="4048" y="384" width="4819.27" height="2176"/>
 </objectgroup>
</map>
