<?xml version="1.0" encoding="UTF-8"?>
<map version="1.10" tiledversion="1.11.2" orientation="orthogonal" renderorder="right-down" width="34" height="13" tilewidth="128" tileheight="128" infinite="0" nextlayerid="24" nextobjectid="124">
 <editorsettings>
  <export target="BossFrogger.json" format="json"/>
 </editorsettings>
 <properties>
  <property name="BackgroundLayers" value="DarkForest/4.png"/>
  <property name="GroundBehindPlayer" type="bool" value="false"/>
  <property name="GroundParticleColor" type="color" value="#ff3a9359"/>
  <property name="Music" value="Greenpath.wav"/>
  <property name="UseGrassParticle" type="bool" value="true"/>
  <property name="UseGroundPadding" type="bool" value="true"/>
 </properties>
 <tileset firstgid="1" source="../../Tilesets/Mossy/MossyTileSet.tsx"/>
 <tileset firstgid="50" source="../../Sprites/MossyBackgrounds3/MossyDecorations.tsx"/>
 <tileset firstgid="101" source="../../Sprites/MossyPlants2/MossyPlants.tsx"/>
 <objectgroup id="2" name="AmbientParticleArea"/>
 <objectgroup id="15" name="Camera" visible="0">
  <object id="10" x="1408" y="0" width="1792" height="1536">
   <properties>
    <property name="Condition" value="!FroggerDefeated"/>
    <property name="Event" value="FollowPlayerLimited"/>
    <property name="LimitMaxCameraPositionX" type="float" value="3264"/>
    <property name="LimitMaxCameraPositionY" type="float" value="1280"/>
    <property name="LimitMinCameraPositionX" type="float" value="1344"/>
    <property name="LimitMinCameraPositionY" type="float" value="200"/>
    <property name="Target" value="Camera"/>
   </properties>
  </object>
  <object id="16" x="0" y="0" width="1355.76" height="1536">
   <properties>
    <property name="Event" value="FollowPlayerLimited"/>
    <property name="LimitMaxCameraPositionX" type="float" value="4224"/>
    <property name="LimitMaxCameraPositionY" type="float" value="1280"/>
    <property name="LimitMinCameraPositionX" type="float" value="128"/>
    <property name="LimitMinCameraPositionY" type="float" value="200"/>
    <property name="Target" value="Camera"/>
   </properties>
  </object>
  <object id="21" x="3258.3" y="0" width="965.697" height="1536">
   <properties>
    <property name="Event" value="FollowPlayerLimited"/>
    <property name="LimitMaxCameraPositionX" type="float" value="4224"/>
    <property name="LimitMaxCameraPositionY" type="float" value="1280"/>
    <property name="LimitMinCameraPositionX" type="float" value="128"/>
    <property name="LimitMinCameraPositionY" type="float" value="200"/>
    <property name="Target" value="Camera"/>
   </properties>
  </object>
 </objectgroup>
 <objectgroup draworder="index" id="10" name="Triggers" visible="0">
  <object id="5" name="Boss Battle" x="1408" y="256" width="1792" height="768">
   <properties>
    <property name="Condition" value="!FroggerDefeated"/>
    <property name="Enemies" value="9"/>
    <property name="Event" value="SetIsDecreasingAfterKillingEnemies"/>
    <property name="Grounds" value="3,4"/>
    <property name="Target" value="DynamicGround"/>
   </properties>
  </object>
  <object id="7" x="1792" y="256" width="1280" height="768">
   <properties>
    <property name="Condition" value="!FroggerDefeated"/>
    <property name="Destroy" type="bool" value="true"/>
    <property name="Enemies" value="9"/>
    <property name="Event" value="SpotPlayer"/>
    <property name="Target" value="Enemy"/>
   </properties>
  </object>
  <object id="8" name="Close Wall" x="1792" y="256" width="512" height="768">
   <properties>
    <property name="Condition" value="!FroggerDefeated"/>
    <property name="Destroy" type="bool" value="true"/>
    <property name="Event" value="SetIsGrowing"/>
    <property name="Grounds" value="3,4"/>
    <property name="Target" value="DynamicGround"/>
   </properties>
  </object>
  <object id="11" x="380.333" y="871.667" width="384" height="156">
   <properties>
    <property name="Event" value="ShowTutorial"/>
    <property name="Target" value="HUD"/>
    <property name="TutorialText" value="PRESSIONE &lt;OpenStore&gt; PARA DESCANSAR"/>
   </properties>
  </object>
  <object id="33" x="0" y="896" width="48" height="128">
   <properties>
    <property name="Destroy" type="bool" value="true"/>
    <property name="Event" value="ChangeScene"/>
    <property name="PlayerStartPositionId" type="int" value="1"/>
    <property name="Scene" value="Forest12/Forest12"/>
    <property name="Target" value="Game"/>
   </properties>
  </object>
  <object id="35" x="0" y="768" width="48" height="128">
   <properties>
    <property name="Destroy" type="bool" value="true"/>
    <property name="Event" value="ChangeScene"/>
    <property name="PlayerStartPositionId" type="int" value="2"/>
    <property name="Scene" value="Forest12/Forest12"/>
    <property name="Target" value="Game"/>
   </properties>
  </object>
  <object id="36" x="0" y="640" width="48" height="128">
   <properties>
    <property name="Destroy" type="bool" value="true"/>
    <property name="Event" value="ChangeScene"/>
    <property name="PlayerStartPositionId" type="int" value="3"/>
    <property name="Scene" value="Forest12/Forest12"/>
    <property name="Target" value="Game"/>
   </properties>
  </object>
  <object id="37" x="0" y="512" width="48" height="128">
   <properties>
    <property name="Destroy" type="bool" value="true"/>
    <property name="Event" value="ChangeScene"/>
    <property name="PlayerStartPositionId" type="int" value="4"/>
    <property name="Scene" value="Forest12/Forest12"/>
    <property name="Target" value="Game"/>
   </properties>
  </object>
  <object id="38" x="0" y="384" width="48" height="128">
   <properties>
    <property name="Destroy" type="bool" value="true"/>
    <property name="Event" value="ChangeScene"/>
    <property name="PlayerStartPositionId" type="int" value="5"/>
    <property name="Scene" value="Forest12/Forest12"/>
    <property name="Target" value="Game"/>
   </properties>
  </object>
  <object id="39" x="0" y="256" width="48" height="128">
   <properties>
    <property name="Destroy" type="bool" value="true"/>
    <property name="Event" value="ChangeScene"/>
    <property name="PlayerStartPositionId" type="int" value="6"/>
    <property name="Scene" value="Forest12/Forest12"/>
    <property name="Target" value="Game"/>
   </properties>
  </object>
  <object id="46" x="4304" y="768" width="48" height="384">
   <properties>
    <property name="Destroy" type="bool" value="true"/>
    <property name="Event" value="ChangeScene"/>
    <property name="PlayerStartPositionId" type="int" value="3"/>
    <property name="Scene" value="Forest4/Forest4"/>
    <property name="Target" value="Game"/>
   </properties>
  </object>
 </objectgroup>
 <objectgroup draworder="index" id="3" name="Background1" parallaxx="0.95">
  <properties>
   <property name="TextureColorB" type="int" value="69"/>
   <property name="TextureColorG" type="int" value="65"/>
   <property name="TextureColorR" type="int" value="22"/>
   <property name="TextureFactor" type="float" value="0.3"/>
  </properties>
  <object id="97" gid="99" x="2937.32" y="691.099" width="169.068" height="549.963" rotation="325.247"/>
  <object id="99" gid="1073741882" x="2302.93" y="511.822" width="172.866" height="252.997" rotation="90"/>
  <object id="49" gid="55" x="2482.65" y="1273.14" width="945.372" height="952.97"/>
  <object id="51" gid="2147483761" x="2439.64" y="1055.39" width="410.545" height="410.545">
   <properties>
    <property name="Animated" type="bool" value="true"/>
    <property name="FPS" type="float" value="11"/>
    <property name="NumFrames" type="int" value="30"/>
    <property name="Path" value="Sprites/MossyPlants2/Plant13/Plant13"/>
   </properties>
  </object>
  <object id="54" gid="66" x="1589.3" y="1079.03" width="218.543" height="604.258">
   <properties>
    <property name="WindBalance" type="bool" value="true"/>
   </properties>
  </object>
  <object id="55" gid="51" x="1799.38" y="1248.47" width="520" height="1136.36"/>
  <object id="58" gid="98" x="2881.46" y="865.785" width="211.257" height="677.124"/>
  <object id="57" gid="95" x="2674.46" y="1120.81" width="675.738" height="322"/>
  <object id="61" gid="103" x="2653.26" y="1151.81" width="183" height="183">
   <properties>
    <property name="Animated" type="bool" value="true"/>
    <property name="FPS" type="float" value="7"/>
    <property name="NumFrames" type="int" value="18"/>
    <property name="Path" value="Sprites/MossyPlants2/Plant03/Plant03"/>
    <property name="WindBalance" type="bool" value="false"/>
   </properties>
  </object>
  <object id="70" gid="52" x="759.803" y="1153.71" width="736.346" height="558.841"/>
  <object id="71" gid="66" x="1428.81" y="1084.07" width="271.127" height="749.647">
   <properties>
    <property name="WindBalance" type="bool" value="true"/>
   </properties>
  </object>
  <object id="73" gid="73" x="921.955" y="1088.78" width="200.362" height="197"/>
  <object id="74" gid="94" x="1073.93" y="1081.07" width="567.581" height="326.391"/>
  <object id="72" gid="73" x="1166.89" y="1104.4" width="200.362" height="197"/>
  <object id="75" gid="82" x="709.502" y="1061.07" width="146.333" height="115.386"/>
  <object id="89" gid="77" x="65.5168" y="1072.23" width="657.558" height="252.481"/>
  <object id="90" gid="74" x="453.433" y="1083.72" width="246.3" height="198.337"/>
  <object id="91" gid="111" x="639.013" y="1073.63" width="116" height="116">
   <properties>
    <property name="Animated" type="bool" value="true"/>
    <property name="Destructible" type="bool" value="true"/>
    <property name="FPS" type="float" value="30"/>
    <property name="NumFrames" type="int" value="20"/>
    <property name="Path" value="Sprites/Plants/PlantJump2/PlantJump2"/>
   </properties>
  </object>
  <object id="92" gid="1073741882" x="551.967" y="508.822" width="153.866" height="246.356" rotation="90"/>
  <object id="93" gid="2147483709" x="736.613" y="193.011" width="77.7415" height="240.31" rotation="180">
   <properties>
    <property name="Destructible" type="bool" value="false"/>
    <property name="WindBalance" type="bool" value="true"/>
   </properties>
  </object>
  <object id="94" gid="61" x="791.913" y="196.011" width="85.0748" height="262.978" rotation="180">
   <properties>
    <property name="Destructible" type="bool" value="true"/>
    <property name="WindBalance" type="bool" value="true"/>
   </properties>
  </object>
  <object id="95" gid="61" x="868.063" y="186.511" width="85.0748" height="262.978" rotation="180">
   <properties>
    <property name="Destructible" type="bool" value="true"/>
    <property name="WindBalance" type="bool" value="true"/>
   </properties>
  </object>
  <object id="123" gid="77" x="1966.66" y="1053.2" width="458.345" height="165.598"/>
 </objectgroup>
 <objectgroup draworder="index" id="4" name="Background2">
  <properties>
   <property name="TextureColorB" type="int" value="107"/>
   <property name="TextureColorG" type="int" value="101"/>
   <property name="TextureColorR" type="int" value="22"/>
   <property name="TextureFactor" type="float" value="0.5"/>
  </properties>
  <object id="66" gid="96" x="3845.13" y="1438.81" width="502.273" height="430"/>
 </objectgroup>
 <objectgroup draworder="index" id="5" name="Decorations">
  <object id="107" gid="103" x="3716.55" y="1053.63" width="72.8283" height="72.8283">
   <properties>
    <property name="Animated" type="bool" value="true"/>
    <property name="Destructible" type="bool" value="true"/>
    <property name="FPS" type="float" value="30"/>
    <property name="NumFrames" type="int" value="90"/>
    <property name="Path" value="Sprites/Plants/Plant3/Plant3"/>
   </properties>
  </object>
  <object id="108" gid="102" x="3656.88" y="1061.56" width="92.376" height="92.376">
   <properties>
    <property name="Animated" type="bool" value="true"/>
    <property name="Destructible" type="bool" value="false"/>
    <property name="FPS" type="float" value="30"/>
    <property name="NumFrames" type="int" value="90"/>
    <property name="Path" value="Sprites/Plants/Plant2/Plant2"/>
   </properties>
  </object>
  <object id="109" gid="101" x="3931.31" y="1068.81" width="118.906" height="118.906">
   <properties>
    <property name="Animated" type="bool" value="true"/>
    <property name="Destructible" type="bool" value="true"/>
    <property name="FPS" type="float" value="30"/>
    <property name="NumFrames" type="int" value="90"/>
    <property name="Path" value="Sprites/Plants/Plant1/Plant1"/>
   </properties>
  </object>
  <object id="62" gid="113" x="2762.54" y="1102.84" width="384" height="384">
   <properties>
    <property name="Animated" type="bool" value="true"/>
    <property name="FPS" type="float" value="16"/>
    <property name="NumFrames" type="int" value="30"/>
    <property name="Path" value="Sprites/MossyPlants2/Plant13/Plant13"/>
   </properties>
  </object>
  <object id="113" gid="103" x="2435.59" y="1065.59" width="128.828" height="128.828">
   <properties>
    <property name="Animated" type="bool" value="true"/>
    <property name="Destructible" type="bool" value="false"/>
    <property name="FPS" type="float" value="30"/>
    <property name="NumFrames" type="int" value="90"/>
    <property name="Path" value="Sprites/Plants/Plant3/Plant3"/>
   </properties>
  </object>
 </objectgroup>
 <layer id="1" name="Camada de Blocos 1" width="34" height="13">
  <data encoding="csv">
1,2,2,2,2,2,2,2,2,2,2,2,2,2,2,2,2,2,2,2,2,2,2,2,2,2,2,2,2,2,2,2,2,3,
15,16,16,16,16,16,16,16,16,16,16,16,16,16,16,16,16,16,16,16,16,16,16,16,16,16,16,16,16,16,6,9,9,10,
0,0,0,0,0,0,0,0,0,0,0,0,0,0,0,0,0,0,0,0,0,0,0,0,0,0,0,0,0,0,8,9,9,10,
0,0,0,0,0,0,0,0,0,0,0,0,0,0,0,0,0,0,0,0,0,0,0,0,0,0,0,0,0,0,8,9,9,10,
0,0,0,0,0,0,0,0,0,0,0,0,0,0,0,0,0,0,0,0,0,0,0,0,0,0,0,0,0,0,8,9,9,10,
0,0,0,0,0,0,0,0,0,0,0,0,0,0,0,0,0,0,0,0,0,0,0,0,0,0,0,0,0,0,8,9,9,10,
0,0,0,0,0,0,0,0,0,0,0,0,0,0,0,0,0,0,0,0,0,0,0,0,0,0,0,0,0,0,15,16,16,17,
0,0,0,0,0,0,0,0,0,0,0,0,0,0,0,0,0,0,0,0,0,0,0,0,0,0,0,0,0,0,0,0,0,0,
1,2,2,2,2,2,2,2,2,2,2,2,2,2,2,2,2,2,2,2,2,2,2,2,2,2,2,2,2,2,2,2,2,3,
8,9,9,9,9,9,9,9,9,9,9,9,9,9,9,9,9,9,9,9,9,9,9,9,9,9,9,9,9,9,9,9,9,10,
8,9,9,9,9,9,9,9,9,9,9,9,9,9,9,9,9,9,9,9,9,9,9,9,9,9,9,9,9,9,9,9,9,10,
15,16,16,16,16,16,16,16,16,16,16,16,16,16,16,16,16,16,16,16,16,16,16,16,16,16,16,16,16,16,16,16,16,17,
0,0,0,0,0,0,0,0,0,0,0,0,0,0,0,0,0,0,0,0,0,0,0,0,0,0,0,0,0,0,0,0,0,0
</data>
 </layer>
 <layer id="6" name="DynamicGrounds" width="34" height="13">
  <data encoding="csv">
0,0,0,0,0,0,0,0,0,0,0,0,0,0,0,0,0,0,0,0,0,0,0,0,0,0,0,0,0,0,0,0,0,0,
0,0,0,0,0,0,0,0,0,6,5,0,0,0,0,0,0,0,0,0,0,0,0,0,0,6,5,0,0,0,0,0,0,0,
0,0,0,0,0,0,0,0,0,8,10,0,0,0,0,0,0,0,0,0,0,0,0,0,0,8,10,0,0,0,0,0,0,0,
0,0,0,0,0,0,0,0,0,8,10,0,0,0,0,0,0,0,0,0,0,0,0,0,0,8,10,0,0,0,0,0,0,0,
0,0,0,0,0,0,0,0,0,8,10,0,0,0,0,0,0,0,0,0,0,0,0,0,0,8,10,0,0,0,0,0,0,0,
0,0,0,0,0,0,0,0,0,8,10,0,0,0,0,0,0,0,0,0,0,0,0,0,0,8,10,0,0,0,0,0,0,0,
0,0,0,0,0,0,0,0,0,8,10,0,0,0,0,0,0,0,0,0,0,0,0,0,0,8,10,0,0,0,0,0,0,0,
0,0,0,0,0,0,0,0,0,8,10,0,0,0,0,0,0,0,0,0,0,0,0,0,0,8,10,0,0,0,0,0,0,0,
0,0,0,0,0,0,0,0,0,13,12,0,0,0,0,0,0,0,0,0,0,0,0,0,0,13,12,0,0,0,0,0,0,0,
0,0,0,0,0,0,0,0,0,0,0,0,0,0,0,0,0,0,0,0,0,0,0,0,0,0,0,0,0,0,0,0,0,0,
0,0,0,0,0,0,0,0,0,0,0,0,0,0,0,0,0,0,0,0,0,0,0,0,0,0,0,0,0,0,0,0,0,0,
0,0,0,0,0,0,0,0,0,0,0,0,0,0,0,0,0,0,0,0,0,0,0,0,0,0,0,0,0,0,0,0,0,0,
0,0,0,0,0,0,0,0,0,0,0,0,0,0,0,0,0,0,0,0,0,0,0,0,0,0,0,0,0,0,0,0,0,0
</data>
 </layer>
 <objectgroup draworder="index" id="23" name="DecorationsForeground">
  <object id="76" gid="107" x="1238.75" y="199.022" width="214.557" height="214.557" rotation="180">
   <properties>
    <property name="Animated" type="bool" value="true"/>
    <property name="Destructible" type="bool" value="true"/>
    <property name="FPS" type="float" value="30"/>
    <property name="NumFrames" type="int" value="60"/>
    <property name="Path" value="Sprites/Plants/Plant7/Plant7"/>
   </properties>
  </object>
  <object id="77" gid="2147483755" x="1151.43" y="171.579" width="214.557" height="214.557" rotation="180">
   <properties>
    <property name="Animated" type="bool" value="true"/>
    <property name="Destructible" type="bool" value="true"/>
    <property name="FPS" type="float" value="30"/>
    <property name="NumFrames" type="int" value="60"/>
    <property name="Path" value="Sprites/Plants/Plant7/Plant7"/>
   </properties>
  </object>
  <object id="78" gid="1073741928" x="1035.42" y="349.959" width="148.028" height="144.701">
   <properties>
    <property name="Animated" type="bool" value="true"/>
    <property name="Destructible" type="bool" value="false"/>
    <property name="FPS" type="float" value="30"/>
    <property name="NumFrames" type="int" value="60"/>
    <property name="Path" value="Sprites/Plants/Plant4/Plant4"/>
   </properties>
  </object>
  <object id="79" gid="1073741901" x="1011.88" y="389.321" width="588.125" height="235.221"/>
  <object id="100" gid="1073741901" x="2241.97" y="294.389" width="338.094" height="135.221"/>
  <object id="102" gid="107" x="3934.11" y="270.967" width="214.557" height="214.557" rotation="180">
   <properties>
    <property name="Animated" type="bool" value="true"/>
    <property name="Destructible" type="bool" value="true"/>
    <property name="FPS" type="float" value="30"/>
    <property name="NumFrames" type="int" value="60"/>
    <property name="Path" value="Sprites/Plants/Plant7/Plant7"/>
   </properties>
  </object>
  <object id="103" gid="1073741890" x="3512.31" y="864.622" width="218.836" height="605.066"/>
  <object id="104" gid="2147483755" x="3846.79" y="243.524" width="214.557" height="214.557" rotation="180">
   <properties>
    <property name="Animated" type="bool" value="true"/>
    <property name="Destructible" type="bool" value="true"/>
    <property name="FPS" type="float" value="30"/>
    <property name="NumFrames" type="int" value="60"/>
    <property name="Path" value="Sprites/Plants/Plant7/Plant7"/>
   </properties>
  </object>
  <object id="105" gid="1073741928" x="3730.78" y="421.904" width="148.028" height="144.701">
   <properties>
    <property name="Animated" type="bool" value="true"/>
    <property name="Destructible" type="bool" value="false"/>
    <property name="FPS" type="float" value="30"/>
    <property name="NumFrames" type="int" value="60"/>
    <property name="Path" value="Sprites/Plants/Plant4/Plant4"/>
   </properties>
  </object>
  <object id="106" gid="1073741901" x="3431.7" y="375.757" width="548.731" height="219.466"/>
  <object id="110" gid="75" x="3543.95" y="1243.89" width="451.502" height="203.138"/>
  <object id="120" gid="75" x="448.083" y="1241.11" width="451.502" height="203.138"/>
  <object id="121" gid="77" x="702.433" y="1363.29" width="635.485" height="229.598"/>
 </objectgroup>
 <objectgroup draworder="index" id="7" name="Foreground1">
  <properties>
   <property name="TextureColorB" type="int" value="0"/>
   <property name="TextureColorG" type="int" value="0"/>
   <property name="TextureColorR" type="int" value="0"/>
   <property name="TextureFactor" type="float" value="0.2"/>
  </properties>
  <object id="122" gid="1073741927" x="2603.59" y="311.586" width="128.828" height="128.828">
   <properties>
    <property name="Animated" type="bool" value="true"/>
    <property name="Destructible" type="bool" value="false"/>
    <property name="FPS" type="float" value="30"/>
    <property name="NumFrames" type="int" value="90"/>
    <property name="Path" value="Sprites/Plants/Plant3/Plant3"/>
   </properties>
  </object>
 </objectgroup>
 <objectgroup draworder="index" id="8" name="Foreground2" parallaxx="1.1">
  <properties>
   <property name="TextureColorB" type="int" value="0"/>
   <property name="TextureColorG" type="int" value="0"/>
   <property name="TextureColorR" type="int" value="0"/>
   <property name="TextureFactor" type="float" value="0.2"/>
  </properties>
  <object id="81" gid="102" x="1939.44" y="1188.4" width="215.95" height="215.95" rotation="28.3286">
   <properties>
    <property name="Animated" type="bool" value="true"/>
    <property name="Destructible" type="bool" value="false"/>
    <property name="FPS" type="float" value="30"/>
    <property name="NumFrames" type="int" value="90"/>
    <property name="Path" value="Sprites/Plants/Plant2/Plant2"/>
   </properties>
  </object>
  <object id="82" gid="102" x="1958.68" y="1242.06" width="215.95" height="215.95" rotation="28.3286">
   <properties>
    <property name="Animated" type="bool" value="true"/>
    <property name="Destructible" type="bool" value="false"/>
    <property name="FPS" type="float" value="30"/>
    <property name="NumFrames" type="int" value="90"/>
    <property name="Path" value="Sprites/Plants/Plant2/Plant2"/>
   </properties>
  </object>
  <object id="112" gid="96" x="1286.32" y="1420.09" width="502.273" height="430"/>
  <object id="83" gid="75" x="1461" y="1303.13" width="632.29" height="284.478"/>
  <object id="86" gid="1073741890" x="263.776" y="756.52" width="218.836" height="605.066"/>
  <object id="87" gid="1073741890" x="175.57" y="595.99" width="153.503" height="424.424"/>
  <object id="96" gid="100" x="1005.62" y="1167.78" width="168.504" height="1034.65" rotation="351.369"/>
  <object id="101" gid="1073741899" x="3298.5" y="292.37" width="390.885" height="175.865"/>
  <object id="64" gid="65" x="3027.54" y="156.805" width="156.333" height="478.979" rotation="180">
   <properties>
    <property name="WindBalance" type="bool" value="true"/>
   </properties>
  </object>
  <object id="111" gid="2147483713" x="1989.11" y="154.45" width="156.333" height="478.979" rotation="180">
   <properties>
    <property name="WindBalance" type="bool" value="true"/>
   </properties>
  </object>
  <object id="84" gid="77" x="2504" y="1303.69" width="635.485" height="229.598"/>
  <object id="63" gid="53" x="91.2635" y="1508.14" width="539" height="505"/>
  <object id="80" gid="75" x="2181.65" y="1227.51" width="451.502" height="203.138"/>
  <object id="85" gid="77" x="3100.08" y="1273.38" width="635.485" height="229.598"/>
 </objectgroup>
 <objectgroup id="16" name="Light" visible="0"/>
 <objectgroup id="17" name="Brazier" visible="0"/>
 <objectgroup id="18" name="Lava" visible="0"/>
 <objectgroup id="19" name="LightningBarrier" visible="0"/>
 <objectgroup id="9" name="HookPoints" visible="0"/>
 <objectgroup id="20" name="Levers" visible="0"/>
 <objectgroup id="21" name="SpawnPoint" visible="0"/>
 <objectgroup id="11" name="Grounds" visible="0">
  <object id="1" x="0" y="1024" width="4352" height="512"/>
  <object id="2" x="0" y="0" width="3840" height="256"/>
  <object id="3" name="DynamicGround" x="1152" y="128" width="256" height="1024">
   <properties>
    <property name="GrowSpeedX" type="float" value="0"/>
    <property name="GrowSpeedY" type="float" value="1000"/>
    <property name="GrowthDirection" type="int" value="0"/>
    <property name="MinHeight" type="float" value="0"/>
    <property name="MinWidth" type="float" value="256"/>
    <property name="StartHeight" type="float" value="0"/>
    <property name="StartWidth" type="float" value="256"/>
   </properties>
  </object>
  <object id="4" name="DynamicGround" x="3200" y="128" width="256" height="1024">
   <properties>
    <property name="GrowSpeedX" type="float" value="0"/>
    <property name="GrowSpeedY" type="float" value="1000"/>
    <property name="GrowthDirection" type="int" value="0"/>
    <property name="MinHeight" type="float" value="0"/>
    <property name="MinWidth" type="float" value="256"/>
    <property name="StartHeight" type="float" value="0"/>
    <property name="StartWidth" type="float" value="256"/>
   </properties>
  </object>
  <object id="13" x="3840" y="0" width="512" height="896"/>
 </objectgroup>
 <objectgroup id="12" name="Checkpoint" visible="0">
  <object id="12" name="Checkpoint" x="366.333" y="850.667" width="416" height="192"/>
 </objectgroup>
 <objectgroup id="13" name="Player" visible="0">
  <object id="40" name="Player" x="80" y="1005" width="32" height="32">
   <properties>
    <property name="EnteringLevelSpeedX" type="float" value="700"/>
    <property name="EnteringLevelSpeedY" type="float" value="0"/>
    <property name="StartPositionId" type="int" value="0"/>
   </properties>
  </object>
  <object id="41" name="Player" x="80" y="877" width="32" height="32">
   <properties>
    <property name="EnteringLevelSpeedX" type="float" value="700"/>
    <property name="EnteringLevelSpeedY" type="float" value="0"/>
    <property name="StartPositionId" type="int" value="1"/>
   </properties>
  </object>
  <object id="42" name="Player" x="80" y="749" width="32" height="32">
   <properties>
    <property name="EnteringLevelSpeedX" type="float" value="700"/>
    <property name="EnteringLevelSpeedY" type="float" value="0"/>
    <property name="StartPositionId" type="int" value="2"/>
   </properties>
  </object>
  <object id="43" name="Player" x="80" y="621" width="32" height="32">
   <properties>
    <property name="EnteringLevelSpeedX" type="float" value="700"/>
    <property name="EnteringLevelSpeedY" type="float" value="0"/>
    <property name="StartPositionId" type="int" value="3"/>
   </properties>
  </object>
  <object id="44" name="Player" x="80" y="493" width="32" height="32">
   <properties>
    <property name="EnteringLevelSpeedX" type="float" value="700"/>
    <property name="EnteringLevelSpeedY" type="float" value="0"/>
    <property name="StartPositionId" type="int" value="4"/>
   </properties>
  </object>
  <object id="45" name="Player" x="80" y="365" width="32" height="32">
   <properties>
    <property name="EnteringLevelSpeedX" type="float" value="700"/>
    <property name="EnteringLevelSpeedY" type="float" value="0"/>
    <property name="StartPositionId" type="int" value="5"/>
   </properties>
  </object>
  <object id="48" name="Player" x="4272" y="1003" width="32" height="32">
   <properties>
    <property name="EnteringLevelSpeedX" type="float" value="-700"/>
    <property name="EnteringLevelSpeedY" type="float" value="0"/>
    <property name="StartPositionId" type="int" value="6"/>
   </properties>
  </object>
 </objectgroup>
 <objectgroup id="14" name="Enemies" visible="0">
  <object id="9" name="Frogger" x="2407.78" y="999.859" width="37.766" height="38.766">
   <properties>
    <property name="Condition" value="!FroggerDefeated"/>
    <property name="MaxPosX" type="float" value="3200"/>
    <property name="MaxPosY" type="float" value="1024"/>
    <property name="MinPosX" type="float" value="1408"/>
    <property name="MinPosY" type="float" value="256"/>
   </properties>
  </object>
 </objectgroup>
 <objectgroup id="22" name="CameraBounds" visible="0" locked="1">
  <object id="18" x="128" y="200" width="4096" height="1080"/>
 </objectgroup>
</map>
