<?xml version="1.0" encoding="UTF-8"?>
<map version="1.10" tiledversion="1.11.2" orientation="orthogonal" renderorder="right-down" width="30" height="30" tilewidth="128" tileheight="128" infinite="0" nextlayerid="23" nextobjectid="47">
 <editorsettings>
  <export target="Forest2.json" format="json"/>
 </editorsettings>
 <properties>
  <property name="BackgroundLayers" value="DarkForest/4.png"/>
  <property name="GroundBehindPlayer" type="bool" value="false"/>
  <property name="GroundParticleColor" type="color" value="#ff3a9359"/>
  <property name="Music" value="Greenpath.wav"/>
  <property name="UseGrassParticle" type="bool" value="true"/>
  <property name="UseGroundPadding" type="bool" value="true"/>
 </properties>
 <tileset firstgid="1" source="../../Tilesets/Mossy/MossyTileSet.tsx"/>
 <tileset firstgid="50" source="../../Sprites/MossyBackgrounds3/MossyDecorations.tsx"/>
 <objectgroup id="2" name="AmbientParticleArea"/>
 <objectgroup id="15" name="Camera" visible="0">
  <object id="31" x="768" y="2388" width="3072" height="1452">
   <properties>
    <property name="Event" value="FollowPlayerLimited"/>
    <property name="LimitMaxCameraPositionX" type="float" value="3584"/>
    <property name="LimitMaxCameraPositionY" type="float" value="3584"/>
    <property name="LimitMinCameraPositionX" type="float" value="768"/>
    <property name="LimitMinCameraPositionY" type="float" value="640"/>
    <property name="Target" value="Camera"/>
   </properties>
  </object>
  <object id="41" x="768" y="512" width="3072" height="948.97">
   <properties>
    <property name="Event" value="FollowPlayerLimited"/>
    <property name="LimitMaxCameraPositionX" type="float" value="3584"/>
    <property name="LimitMaxCameraPositionY" type="float" value="1720"/>
    <property name="LimitMinCameraPositionX" type="float" value="768"/>
    <property name="LimitMinCameraPositionY" type="float" value="640"/>
    <property name="Target" value="Camera"/>
   </properties>
  </object>
  <object id="42" x="768" y="1536" width="3072" height="768">
   <properties>
    <property name="Event" value="FollowPlayerLimited"/>
    <property name="LimitMaxCameraPositionX" type="float" value="3584"/>
    <property name="LimitMaxCameraPositionY" type="float" value="2560"/>
    <property name="LimitMinCameraPositionX" type="float" value="768"/>
    <property name="LimitMinCameraPositionY" type="float" value="640"/>
    <property name="Target" value="Camera"/>
   </properties>
  </object>
 </objectgroup>
 <objectgroup id="10" name="Triggers">
  <object id="2" x="2203" y="1253" width="384" height="156">
   <properties>
    <property name="Event" value="ShowTutorial"/>
    <property name="Target" value="HUD"/>
    <property name="TutorialText" value="PRESSIONE &lt;OpenStore&gt; PARA DESCANSAR"/>
   </properties>
  </object>
  <object id="29" x="1152" y="3684" width="384" height="156">
   <properties>
    <property name="Destroy" type="bool" value="true"/>
    <property name="Event" value="ChangeScene"/>
    <property name="PlayerStartPositionId" type="int" value="1"/>
    <property name="Scene" value="Room3/Room3"/>
    <property name="Target" value="Game"/>
   </properties>
  </object>
  <object id="35" x="1920" y="384" width="384" height="141">
   <properties>
    <property name="Destroy" type="bool" value="true"/>
    <property name="Event" value="ChangeScene"/>
    <property name="PlayerStartPositionId" type="int" value="0"/>
    <property name="Scene" value="Forest3/Forest3"/>
    <property name="Target" value="Game"/>
   </properties>
  </object>
 </objectgroup>
 <objectgroup draworder="index" id="3" name="Background1" parallaxx="0.95">
  <properties>
   <property name="TextureColorB" type="int" value="69"/>
   <property name="TextureColorG" type="int" value="65"/>
   <property name="TextureColorR" type="int" value="22"/>
   <property name="TextureFactor" type="float" value="0.3"/>
  </properties>
 </objectgroup>
 <objectgroup draworder="index" id="4" name="Background2">
  <properties>
   <property name="TextureColorB" type="int" value="107"/>
   <property name="TextureColorG" type="int" value="101"/>
   <property name="TextureColorR" type="int" value="22"/>
   <property name="TextureFactor" type="float" value="0.5"/>
  </properties>
 </objectgroup>
 <objectgroup draworder="index" id="5" name="Decorations"/>
 <layer id="1" name="Camada de Blocos 1" width="30" height="30">
  <data encoding="csv">
0,0,0,0,0,0,0,0,0,0,0,0,0,0,0,0,0,0,0,0,0,0,0,0,0,0,0,0,0,0,
0,0,0,0,0,0,0,0,0,0,0,0,0,0,0,0,0,0,0,0,0,0,0,0,0,0,0,0,0,0,
0,0,0,0,0,0,0,0,0,0,0,0,0,0,0,0,0,0,0,0,0,0,0,0,0,0,0,0,0,0,
0,0,0,0,0,0,0,0,0,0,0,0,0,0,0,0,0,0,0,0,0,0,0,0,0,0,0,0,0,0,
0,0,0,1,2,2,2,2,2,2,2,2,2,2,2,3,0,1,2,2,2,2,2,2,2,2,2,2,3,0,
0,0,0,8,9,9,5,16,16,16,16,16,16,16,16,17,0,15,16,16,16,16,16,16,16,16,16,6,10,0,
0,0,0,8,9,9,10,0,0,0,0,0,0,0,0,0,0,0,0,0,0,0,0,0,0,0,0,8,10,0,
0,0,0,8,9,9,10,0,0,0,0,0,0,0,0,22,23,23,23,23,23,23,35,0,0,0,0,8,10,0,
0,0,0,8,9,9,10,0,0,0,0,0,0,0,0,0,0,0,0,0,0,0,11,0,0,0,0,8,10,0,
0,0,0,8,9,9,10,0,0,0,0,0,0,0,0,0,0,0,0,0,0,0,47,23,24,0,0,8,10,0,
0,0,0,8,9,9,10,0,0,0,0,0,0,0,0,0,0,0,0,0,0,0,0,0,0,0,0,8,10,0,
0,0,0,8,9,9,10,0,0,0,0,0,0,1,2,2,2,2,2,2,2,2,2,2,2,2,2,13,10,0,
0,0,0,8,9,9,10,0,0,0,0,0,0,8,9,9,9,9,9,9,9,9,9,9,9,9,9,9,10,0,
0,0,0,8,9,9,10,0,0,0,0,0,0,15,16,16,16,16,16,16,16,16,16,16,16,16,16,6,10,0,
0,0,0,8,9,9,10,0,0,0,0,0,0,0,0,0,0,0,0,0,0,0,0,0,0,0,0,8,10,0,
0,0,0,8,9,9,10,0,0,0,0,0,0,0,0,0,0,0,0,0,0,0,0,0,0,0,0,8,10,0,
0,0,0,8,9,9,10,0,0,0,0,0,0,0,0,0,0,0,0,0,0,0,0,0,0,0,0,8,10,0,
0,0,0,8,9,9,10,0,0,22,23,24,0,0,0,0,0,0,0,0,0,0,0,0,0,0,0,8,10,0,
0,0,0,8,9,9,10,0,0,0,0,0,0,1,2,2,2,2,2,2,2,2,3,0,0,0,0,8,10,0,
0,0,0,8,9,9,10,0,0,0,0,0,0,15,16,16,16,16,16,16,16,16,17,0,0,0,0,8,10,0,
0,0,0,8,9,9,10,0,0,0,0,0,0,0,0,0,0,0,0,0,0,0,0,0,25,0,0,8,10,0,
0,0,0,8,9,9,10,0,0,0,0,0,0,0,0,0,0,0,0,0,0,0,0,0,0,0,0,8,10,0,
0,0,0,8,9,9,10,0,0,0,0,0,0,0,0,0,0,0,0,0,0,0,22,24,0,0,0,8,10,0,
0,0,0,8,9,9,10,0,0,0,0,0,0,0,0,0,0,0,0,0,25,0,0,0,0,0,0,8,10,0,
0,0,0,8,9,9,10,0,0,0,22,23,23,23,23,23,23,24,0,0,0,0,0,0,0,0,0,8,10,0,
0,0,0,8,9,9,10,0,25,0,0,0,0,0,0,0,0,0,0,0,0,0,0,0,0,0,0,8,10,0,
0,0,0,8,9,9,10,0,0,0,0,0,0,0,0,0,0,0,0,0,0,0,0,0,0,0,0,8,10,0,
0,0,0,8,9,9,12,2,2,3,0,1,2,2,2,2,2,2,2,2,2,2,2,2,2,2,2,13,10,0,
0,0,0,8,9,9,9,9,9,10,0,8,9,9,9,9,9,9,9,9,9,9,9,9,9,9,9,9,10,0,
0,0,0,15,16,16,16,16,16,17,0,15,16,16,16,16,16,16,16,16,16,16,16,16,16,16,16,16,17,0
</data>
 </layer>
 <layer id="6" name="DynamicGrounds" width="30" height="30">
  <data encoding="csv">
0,0,0,0,0,0,0,0,0,0,0,0,0,0,0,0,0,0,0,0,0,0,0,0,0,0,0,0,0,0,
0,0,0,0,0,0,0,0,0,0,0,0,0,0,0,0,0,0,0,0,0,0,0,0,0,0,0,0,0,0,
0,0,0,0,0,0,0,0,0,0,0,0,0,0,0,0,0,0,0,0,0,0,0,0,0,0,0,0,0,0,
0,0,0,0,0,0,0,0,0,0,0,0,0,0,0,0,0,0,0,0,0,0,0,0,0,0,0,0,0,0,
0,0,0,0,0,0,0,0,0,0,0,0,0,0,0,0,0,0,0,0,0,0,0,0,0,0,0,0,0,0,
0,0,0,0,0,0,0,0,0,0,0,0,0,0,0,0,0,0,0,0,0,0,0,0,0,0,0,0,0,0,
0,0,0,0,0,0,0,0,0,0,0,0,0,0,0,0,0,0,0,0,0,0,0,0,0,0,0,0,0,0,
0,0,0,0,0,0,0,0,0,0,0,0,0,0,0,0,0,0,0,0,0,0,0,0,0,0,0,0,0,0,
0,0,0,0,0,0,0,0,0,0,0,0,0,0,0,0,0,0,0,0,0,0,0,0,0,0,0,0,0,0,
0,0,0,0,0,0,0,0,0,0,0,0,0,0,0,0,0,0,0,0,0,0,0,0,0,0,0,0,0,0,
0,0,0,0,0,0,0,0,0,0,0,0,0,0,0,0,0,0,0,0,0,0,0,0,0,0,0,0,0,0,
0,0,0,0,0,0,0,0,0,0,0,0,0,0,0,0,0,0,0,0,0,0,0,0,0,0,0,0,0,0,
0,0,0,0,0,0,0,0,0,0,0,0,0,0,0,0,0,0,0,0,0,0,0,0,0,0,0,0,0,0,
0,0,0,0,0,0,0,0,0,0,0,0,0,0,0,0,0,0,0,0,0,0,0,0,0,0,0,0,0,0,
0,0,0,0,0,0,0,0,0,0,0,0,0,0,0,0,0,0,0,0,0,0,0,0,0,0,0,0,0,0,
0,0,0,0,0,0,0,0,0,0,0,0,0,0,0,0,0,0,0,0,0,0,0,0,0,0,0,0,0,0,
0,0,0,0,0,0,0,0,0,0,0,0,0,0,0,0,0,0,0,0,0,0,0,0,0,0,0,0,0,0,
0,0,0,0,0,0,0,0,0,0,0,0,0,0,0,0,0,0,0,0,0,0,0,0,0,0,0,0,0,0,
0,0,0,0,0,0,0,0,0,0,0,0,0,0,0,0,0,0,0,0,0,0,0,0,0,0,0,0,0,0,
0,0,0,0,0,0,0,0,0,0,0,0,0,0,0,0,0,0,0,0,0,0,0,0,0,0,0,0,0,0,
0,0,0,0,0,0,0,0,0,0,0,0,0,0,0,0,0,0,0,0,0,0,0,0,0,0,0,0,0,0,
0,0,0,0,0,0,0,0,0,0,0,0,0,0,0,0,0,0,0,0,0,0,0,0,0,0,0,0,0,0,
0,0,0,0,0,0,0,0,0,0,0,0,0,0,0,0,0,0,0,0,0,0,0,0,0,0,0,0,0,0,
0,0,0,0,0,0,0,0,0,0,0,0,0,0,0,0,0,0,0,0,0,0,0,0,0,0,0,0,0,0,
0,0,0,0,0,0,0,0,0,0,0,0,0,0,0,0,0,0,0,0,0,0,0,0,0,0,0,0,0,0,
0,0,0,0,0,0,0,0,0,0,0,0,0,0,0,0,0,0,0,0,0,0,0,0,0,0,0,0,0,0,
0,0,0,0,0,0,0,0,0,0,0,0,0,0,0,0,0,0,0,0,0,0,0,0,0,0,0,0,0,0,
0,0,0,0,0,0,0,0,0,0,0,0,0,0,0,0,0,0,0,0,0,0,0,0,0,0,0,0,0,0,
0,0,0,0,0,0,0,0,0,0,0,0,0,0,0,0,0,0,0,0,0,0,0,0,0,0,0,0,0,0,
0,0,0,0,0,0,0,0,0,0,0,0,0,0,0,0,0,0,0,0,0,0,0,0,0,0,0,0,0,0
</data>
 </layer>
 <objectgroup draworder="index" id="7" name="Foreground1">
  <properties>
   <property name="TextureColorB" type="int" value="0"/>
   <property name="TextureColorG" type="int" value="0"/>
   <property name="TextureColorR" type="int" value="0"/>
   <property name="TextureFactor" type="float" value="0.2"/>
  </properties>
 </objectgroup>
 <objectgroup draworder="index" id="8" name="Foreground2" parallaxx="1.1">
  <properties>
   <property name="TextureColorB" type="int" value="0"/>
   <property name="TextureColorG" type="int" value="0"/>
   <property name="TextureColorR" type="int" value="0"/>
   <property name="TextureFactor" type="float" value="0.2"/>
  </properties>
 </objectgroup>
 <objectgroup id="16" name="Light"/>
 <objectgroup id="17" name="Brazier"/>
 <objectgroup id="18" name="Lava"/>
 <objectgroup id="19" name="LightningBarrier"/>
 <objectgroup id="9" name="HookPoints"/>
 <objectgroup id="20" name="Levers"/>
 <objectgroup id="21" name="SpawnPoint"/>
 <objectgroup id="11" name="Grounds">
  <object id="6" x="896" y="3456" width="384" height="384"/>
  <object id="7" x="1408" y="3456" width="2048" height="384"/>
  <object id="8" x="384" y="512" width="512" height="3328"/>
  <object id="9" x="3456" y="512" width="256" height="3328"/>
  <object id="10" x="1664" y="2304" width="1280" height="256"/>
  <object id="11" x="1280" y="3072" width="1024" height="128"/>
  <object id="12" x="1024" y="3200" width="128" height="128"/>
  <object id="13" x="2560" y="2944" width="128" height="128"/>
  <object id="14" x="2816" y="2816" width="256" height="128"/>
  <object id="15" x="3072" y="2560" width="128" height="128"/>
  <object id="16" x="1152" y="2176" width="384" height="128">
   <properties>
    <property name="Moving" type="bool" value="true"/>
    <property name="MovingDuration" type="float" value="3.2"/>
    <property name="SpeedX" type="float" value="0"/>
    <property name="SpeedY" type="float" value="-250"/>
   </properties>
  </object>
  <object id="18" x="1664" y="1408" width="1792" height="384"/>
  <object id="19" x="2944" y="1152" width="256" height="128"/>
  <object id="20" x="896" y="512" width="1152" height="256"/>
  <object id="21" x="2176" y="512" width="1280" height="256"/>
  <object id="36" x="1920" y="896" width="896" height="128"/>
  <object id="37" x="2816" y="896" width="128" height="384"/>
 </objectgroup>
 <objectgroup id="12" name="Checkpoint" locked="1">
  <object id="1" name="Checkpoint" x="2184.78" y="1242.18" width="416" height="192"/>
 </objectgroup>
 <objectgroup id="13" name="Player">
  <object id="27" x="1344" y="3582" width="32" height="32">
   <properties>
    <property name="EnteringLevelSpeedX" type="float" value="700"/>
    <property name="EnteringLevelSpeedY" type="float" value="-1200"/>
    <property name="EnteringOffset" type="float" value="64"/>
    <property name="StartPositionId" type="int" value="0"/>
   </properties>
  </object>
  <object id="34" name="Player" x="2112" y="575" width="32" height="32">
   <properties>
    <property name="StartPositionId" type="int" value="1"/>
   </properties>
  </object>
 </objectgroup>
 <objectgroup id="14" name="Enemies">
  <object id="4" name="Flying Enemy" x="2405" y="1926" width="32" height="32"/>
  <object id="38" name="Snake" x="2440" y="2287" width="32" height="32"/>
  <object id="39" name="Mushroom" x="2486" y="3442" width="32" height="32"/>
 </objectgroup>
 <objectgroup id="22" name="CameraBounds" visible="0">
  <object id="33" x="512" y="640" width="3072" height="2944"/>
 </objectgroup>
</map>
