<?xml version="1.0" encoding="UTF-8"?>
<map version="1.10" tiledversion="1.11.2" orientation="orthogonal" renderorder="right-down" width="50" height="50" tilewidth="128" tileheight="128" infinite="0" nextlayerid="15" nextobjectid="95">
 <editorsettings>
  <export target="Room5.json" format="json"/>
 </editorsettings>
 <tileset firstgid="1" source="Room5.tsx"/>
 <tileset firstgid="50" source="mossy.tsx"/>
 <objectgroup id="6" name="Background1" opacity="0.44" parallaxx="0.95">
  <properties>
   <property name="TextureColorB" type="int" value="69"/>
   <property name="TextureColorG" type="int" value="65"/>
   <property name="TextureColorR" type="int" value="22"/>
   <property name="TextureFactor" type="float" value="0.3"/>
  </properties>
  <object id="51" gid="75" x="1928.82" y="5048.85" width="388.649" height="184.359">
   <properties>
    <property name="Animated" type="bool" value="false"/>
    <property name="FPS" type="float" value="1"/>
    <property name="NumFrames" type="int" value="1"/>
    <property name="Path" value="Sprites/MossyBackgrounds/Stone2"/>
   </properties>
  </object>
  <object id="52" gid="1073741890" x="680.394" y="5144.19" width="369.673" height="1022.12">
   <properties>
    <property name="Animated" type="bool" value="false"/>
    <property name="FPS" type="float" value="1"/>
    <property name="NumFrames" type="int" value="1"/>
    <property name="Path" value="Sprites/MossyBackgrounds/HangingPlants6"/>
   </properties>
  </object>
  <object id="53" gid="50" x="1662.86" y="5072.02" width="263.545" height="263.545">
   <properties>
    <property name="Animated" type="bool" value="true"/>
    <property name="FPS" type="float" value="60"/>
    <property name="NumFrames" type="int" value="90"/>
    <property name="Path" value="Sprites/Plants/Plant2/Plant2"/>
   </properties>
  </object>
  <object id="54" gid="56" x="3323.28" y="5215.3" width="382.929" height="836.821">
   <properties>
    <property name="Animated" type="bool" value="false"/>
    <property name="FPS" type="float" value="1"/>
    <property name="NumFrames" type="int" value="1"/>
    <property name="Path" value="Sprites/MossyBackgrounds/BackgroundDecoration2"/>
   </properties>
  </object>
  <object id="57" gid="2147483728" x="972.243" y="4176.2" width="168.727" height="554.232">
   <properties>
    <property name="Animated" type="bool" value="false"/>
    <property name="FPS" type="float" value="1"/>
    <property name="NumFrames" type="int" value="1"/>
    <property name="Path" value="Sprites/MossyBackgrounds/Vine1"/>
   </properties>
  </object>
  <object id="58" gid="83" x="1283.33" y="4171.36" width="106.872" height="551.364">
   <properties>
    <property name="Animated" type="bool" value="false"/>
    <property name="FPS" type="float" value="1"/>
    <property name="NumFrames" type="int" value="1"/>
    <property name="Path" value="Sprites/MossyBackgrounds/Vine4"/>
   </properties>
  </object>
  <object id="59" gid="1073741912" x="3377.91" y="2969.88" width="897.334" height="403.724">
   <properties>
    <property name="Animated" type="bool" value="false"/>
    <property name="FPS" type="float" value="1"/>
    <property name="NumFrames" type="int" value="1"/>
    <property name="Path" value="Sprites/MossyBackgrounds/Hill5"/>
   </properties>
  </object>
  <object id="60" gid="89" x="1099" y="4441.01" width="241.569" height="170.014">
   <properties>
    <property name="Animated" type="bool" value="false"/>
    <property name="FPS" type="float" value="1"/>
    <property name="NumFrames" type="int" value="1"/>
    <property name="Path" value="Sprites/MossyBackgrounds/Hill6"/>
   </properties>
  </object>
  <object id="93" gid="55" x="2229" y="5218.79" width="767.875" height="2790.79">
   <properties>
    <property name="Animated" type="bool" value="false"/>
    <property name="FPS" type="float" value="1"/>
    <property name="NumFrames" type="int" value="1"/>
    <property name="Path" value="Sprites/MossyBackgrounds/BackgroundDecoration1"/>
   </properties>
  </object>
 </objectgroup>
 <objectgroup id="7" name="Decorations">
  <object id="24" gid="51" x="2799.15" y="4470.9" width="202.084" height="199.965">
   <properties>
    <property name="Animated" type="bool" value="true"/>
    <property name="FPS" type="float" value="60"/>
    <property name="NumFrames" type="int" value="60"/>
    <property name="Path" value="Sprites/Plants/BlueFlower1/BlueFlower"/>
   </properties>
  </object>
  <object id="23" gid="50" x="2711.65" y="5035.15" width="108.212" height="108.212">
   <properties>
    <property name="Animated" type="bool" value="true"/>
    <property name="FPS" type="float" value="60"/>
    <property name="NumFrames" type="int" value="90"/>
    <property name="Path" value="Sprites/Plants/Plant2/Plant2"/>
   </properties>
  </object>
  <object id="29" gid="61" x="1313.33" y="3944" width="131.364" height="406.063">
   <properties>
    <property name="Animated" type="bool" value="false"/>
    <property name="FPS" type="float" value="1"/>
    <property name="NumFrames" type="int" value="1"/>
    <property name="Path" value="Sprites/MossyBackgrounds/HangingPlants1"/>
   </properties>
  </object>
  <object id="43" gid="71" x="3400.67" y="3349" width="406.063" height="179.667">
   <properties>
    <property name="Animated" type="bool" value="false"/>
    <property name="FPS" type="float" value="1"/>
    <property name="NumFrames" type="int" value="1"/>
    <property name="Path" value="Sprites/MossyBackgrounds/Spike1"/>
   </properties>
  </object>
  <object id="48" gid="73" x="3619.97" y="3464.49" width="150.333" height="140.889" rotation="270">
   <properties>
    <property name="Animated" type="bool" value="false"/>
    <property name="FPS" type="float" value="1"/>
    <property name="NumFrames" type="int" value="1"/>
    <property name="Path" value="Sprites/MossyBackgrounds/Spike3"/>
   </properties>
  </object>
  <object id="49" gid="75" x="3311.76" y="4381.61" width="170.328" height="80.7964">
   <properties>
    <property name="Animated" type="bool" value="false"/>
    <property name="FPS" type="float" value="1"/>
    <property name="NumFrames" type="int" value="1"/>
    <property name="Path" value="Sprites/MossyBackgrounds/Stone2"/>
   </properties>
  </object>
  <object id="62" gid="2147483716" x="2576.21" y="4046.87" width="167.82" height="118.899">
   <properties>
    <property name="Animated" type="bool" value="false"/>
    <property name="FPS" type="float" value="1"/>
    <property name="NumFrames" type="int" value="1"/>
    <property name="Path" value="Sprites/MossyBackgrounds/HangingPlants8"/>
   </properties>
  </object>
  <object id="63" gid="50" x="1701.89" y="4400.56" width="120.212" height="120.212">
   <properties>
    <property name="Animated" type="bool" value="true"/>
    <property name="FPS" type="float" value="60"/>
    <property name="NumFrames" type="int" value="90"/>
    <property name="Path" value="Sprites/Plants/Plant2/Plant2"/>
   </properties>
  </object>
  <object id="66" gid="50" x="3951.89" y="4405.23" width="120.212" height="120.212">
   <properties>
    <property name="Animated" type="bool" value="true"/>
    <property name="FPS" type="float" value="60"/>
    <property name="NumFrames" type="int" value="90"/>
    <property name="Path" value="Sprites/Plants/Plant2/Plant2"/>
   </properties>
  </object>
  <object id="71" gid="84" x="987.333" y="3065.54" width="125.625" height="155.21">
   <properties>
    <property name="Animated" type="bool" value="false"/>
    <property name="FPS" type="float" value="1"/>
    <property name="NumFrames" type="int" value="1"/>
    <property name="Path" value="Sprites/MossyBackgrounds/Hill1"/>
   </properties>
  </object>
  <object id="72" gid="2147483701" x="3032.5" y="4399" width="150" height="150">
   <properties>
    <property name="Animated" type="bool" value="true"/>
    <property name="FPS" type="float" value="45"/>
    <property name="NumFrames" type="int" value="60"/>
    <property name="Path" value="Sprites/Plants/Plant7/Plant7"/>
   </properties>
  </object>
  <object id="74" gid="73" x="4425.33" y="5253.25" width="256" height="239.917">
   <properties>
    <property name="Animated" type="bool" value="false"/>
    <property name="FPS" type="float" value="1"/>
    <property name="NumFrames" type="int" value="1"/>
    <property name="Path" value="Sprites/MossyBackgrounds/Spike3"/>
   </properties>
  </object>
  <object id="75" gid="73" x="4618.67" y="5238.64" width="238.986" height="223.972">
   <properties>
    <property name="Animated" type="bool" value="false"/>
    <property name="FPS" type="float" value="1"/>
    <property name="NumFrames" type="int" value="1"/>
    <property name="Path" value="Sprites/MossyBackgrounds/Spike3"/>
   </properties>
  </object>
  <object id="80" gid="73" x="4799.17" y="5237.35" width="238.986" height="223.972">
   <properties>
    <property name="Animated" type="bool" value="false"/>
    <property name="FPS" type="float" value="1"/>
    <property name="NumFrames" type="int" value="1"/>
    <property name="Path" value="Sprites/MossyBackgrounds/Spike3"/>
   </properties>
  </object>
  <object id="85" gid="1073741874" x="3061.89" y="4659.23" width="108.212" height="108.212">
   <properties>
    <property name="Animated" type="bool" value="true"/>
    <property name="FPS" type="float" value="70"/>
    <property name="NumFrames" type="int" value="90"/>
    <property name="Path" value="Sprites/Plants/Plant2/Plant2"/>
   </properties>
  </object>
  <object id="86" gid="53" x="3869" y="5051.67" width="150" height="150">
   <properties>
    <property name="Animated" type="bool" value="true"/>
    <property name="FPS" type="float" value="60"/>
    <property name="NumFrames" type="int" value="60"/>
    <property name="Path" value="Sprites/Plants/Plant7/Plant7"/>
   </properties>
  </object>
  <object id="87" gid="53" x="3955.67" y="5051.67" width="150" height="150">
   <properties>
    <property name="Animated" type="bool" value="true"/>
    <property name="FPS" type="float" value="45"/>
    <property name="NumFrames" type="int" value="60"/>
    <property name="Path" value="Sprites/Plants/Plant7/Plant7"/>
   </properties>
  </object>
  <object id="92" gid="81" x="3626.67" y="4237.35" width="244.145" height="786.35">
   <properties>
    <property name="Animated" type="bool" value="false"/>
    <property name="FPS" type="float" value="1"/>
    <property name="NumFrames" type="int" value="1"/>
    <property name="Path" value="Sprites/MossyBackgrounds/Vine2"/>
   </properties>
  </object>
 </objectgroup>
 <layer id="1" name="Camada de Blocos 1" width="50" height="50">
  <data encoding="csv">
0,0,0,0,0,0,0,0,0,0,0,0,0,0,0,0,0,0,0,0,0,0,0,0,0,0,0,0,0,0,0,0,0,0,0,0,0,0,0,0,0,0,0,0,0,0,0,0,0,0,
0,0,0,0,0,0,0,0,0,0,0,0,0,0,0,0,0,0,0,0,0,0,0,0,0,0,0,0,0,0,0,0,0,0,0,0,0,0,0,0,0,0,0,0,0,0,0,0,0,0,
0,0,0,0,0,0,0,0,0,0,0,0,0,0,0,0,0,0,0,0,0,0,0,0,0,0,0,0,0,0,0,0,0,0,0,0,0,0,0,0,0,0,0,0,0,0,0,0,0,0,
0,0,0,0,0,0,0,0,0,0,0,0,0,0,0,0,0,0,0,0,0,0,0,0,0,0,0,0,0,0,0,0,0,0,0,0,0,0,0,0,0,0,0,0,0,0,0,0,0,0,
0,0,0,0,0,0,0,0,0,0,0,0,0,0,0,0,0,0,0,0,0,0,0,0,0,0,0,0,0,0,0,0,0,0,0,0,0,0,0,0,0,0,0,0,0,0,0,0,0,0,
0,0,0,0,0,0,0,0,0,0,0,0,0,0,0,0,0,0,0,0,0,0,0,0,0,0,0,0,0,0,0,0,0,0,0,0,0,0,0,0,0,0,0,0,0,0,0,0,0,0,
0,0,0,0,0,0,0,0,0,0,0,0,0,0,0,0,0,0,0,0,0,0,0,0,0,0,0,0,0,0,0,0,0,0,0,0,0,0,0,0,0,0,0,0,0,0,0,0,0,0,
0,0,0,0,0,0,0,0,0,0,0,0,0,0,0,0,0,0,0,0,0,0,0,0,0,0,0,0,0,0,0,0,0,0,0,0,0,0,0,0,0,0,0,0,0,0,0,0,0,0,
0,0,0,0,0,0,0,0,0,0,0,0,0,0,0,0,0,0,0,0,0,0,0,0,0,0,0,0,0,0,0,0,0,0,0,0,0,0,0,0,0,0,0,0,0,0,0,0,0,0,
0,0,0,0,0,0,0,0,0,0,0,0,0,0,0,0,0,0,0,0,0,0,0,0,0,0,0,0,0,0,0,0,0,0,0,0,0,0,0,0,0,0,0,0,0,0,0,0,0,0,
0,0,0,0,0,0,0,0,0,0,0,0,0,0,0,0,0,0,0,0,0,0,0,0,0,0,0,0,0,0,0,0,0,0,0,0,0,0,0,0,0,0,0,0,0,0,0,0,0,0,
0,0,0,0,0,0,0,0,0,0,0,0,0,0,0,0,0,0,0,0,0,0,0,0,0,0,0,0,0,0,0,0,0,0,0,0,0,0,0,0,0,0,0,0,0,0,0,0,0,0,
0,0,0,0,0,0,0,0,0,0,0,0,0,0,0,0,0,0,0,0,0,0,0,0,0,0,0,0,0,0,0,0,0,0,0,0,0,0,0,0,0,0,0,0,0,0,0,0,0,0,
0,0,0,0,0,0,0,0,0,0,0,0,0,0,0,0,0,0,0,0,0,0,0,0,1,3,0,0,0,0,0,0,0,1,2,2,2,3,0,0,0,0,0,0,0,0,0,0,0,0,
0,0,0,0,0,0,0,0,0,0,0,0,0,0,0,0,0,0,0,0,0,0,0,0,8,10,0,0,0,0,0,0,0,8,9,9,9,10,0,0,0,0,0,0,0,0,0,0,0,0,
0,0,0,0,0,0,0,0,0,0,0,0,0,0,0,0,0,0,0,0,0,0,0,0,8,10,0,0,0,0,0,0,0,8,9,9,9,10,0,0,0,0,0,0,0,0,0,0,0,0,
0,0,0,0,0,0,0,0,0,0,0,0,0,0,0,0,0,0,0,0,0,0,0,0,8,10,0,0,0,0,0,0,0,8,9,9,9,10,0,0,0,0,0,0,0,0,0,0,0,0,
0,0,0,0,0,0,0,0,0,0,0,0,0,0,0,0,0,0,0,0,0,0,0,0,8,10,0,0,0,0,0,0,0,8,9,9,9,10,0,0,0,0,0,0,0,0,0,0,0,0,
0,0,0,0,0,0,0,0,0,0,0,0,0,0,0,0,0,0,0,0,0,0,0,0,8,10,0,0,0,0,0,0,0,8,9,9,9,10,0,0,0,0,0,0,0,0,0,0,0,0,
0,0,0,0,0,0,0,0,0,1,2,2,2,2,2,2,2,2,2,2,2,2,2,2,13,12,2,2,2,2,2,2,2,13,9,9,9,10,0,0,0,0,0,0,0,0,0,0,0,0,
0,0,0,0,0,0,0,0,0,15,16,16,16,16,16,16,16,16,16,16,16,16,16,16,16,16,16,16,16,16,16,16,16,16,16,16,16,17,0,0,0,0,0,0,0,0,0,0,0,0,
0,0,0,0,0,0,0,0,0,0,0,0,0,0,0,0,0,0,0,0,0,0,0,0,0,0,0,0,0,0,0,0,0,0,0,0,0,0,0,0,0,0,0,0,0,0,0,0,0,0,
0,0,0,0,0,0,0,0,0,0,0,0,0,0,0,0,0,0,0,0,0,0,0,0,0,0,0,0,0,0,0,0,0,0,0,0,0,0,0,0,0,0,0,0,0,0,0,0,0,0,
0,0,0,0,0,0,0,1,2,2,2,2,3,0,0,0,0,0,0,0,0,0,0,0,0,0,0,0,0,0,0,0,0,0,0,0,0,0,0,0,0,0,0,0,0,0,0,0,0,0,
0,0,0,0,0,0,0,8,9,9,9,9,10,0,0,0,0,0,0,0,0,0,0,0,0,0,0,0,0,0,0,0,0,0,0,0,0,0,0,0,0,0,0,0,0,0,0,0,0,0,
0,0,0,0,0,0,0,8,9,9,9,9,10,0,0,0,0,0,0,0,0,0,0,0,0,0,25,0,0,4,0,0,0,0,0,0,0,0,0,0,0,0,0,0,0,0,0,0,0,0,
0,0,0,0,0,0,0,8,9,9,9,9,10,0,0,0,0,0,0,0,0,0,0,0,0,0,0,0,0,11,0,0,0,0,0,0,0,0,0,0,0,0,0,0,0,0,0,0,0,0,
0,0,0,0,0,0,0,8,9,9,9,9,10,0,0,0,0,0,0,0,0,0,0,0,0,0,0,0,0,18,0,0,0,0,0,0,0,0,0,0,0,0,0,0,0,0,0,0,0,0,
0,0,0,0,0,0,0,15,16,16,16,16,17,0,0,0,0,0,0,0,0,0,0,0,0,0,0,0,0,0,0,0,0,0,0,0,0,0,0,0,0,0,0,0,0,0,0,0,0,0,
0,0,0,0,0,0,0,0,0,0,0,0,0,0,0,0,0,0,0,0,0,0,0,0,0,0,0,0,0,0,0,0,0,0,0,0,0,0,0,0,0,0,0,0,0,0,0,0,0,0,
0,0,0,0,0,0,0,0,0,0,0,0,0,0,0,0,0,0,0,0,0,0,0,0,0,0,0,0,0,0,0,0,0,0,0,0,0,0,0,0,0,0,0,0,0,0,0,0,0,0,
0,0,0,0,0,0,0,0,0,0,0,0,0,0,0,0,0,0,22,23,24,0,0,0,0,0,0,0,0,0,0,0,0,0,0,0,0,0,0,0,0,0,0,0,0,0,0,0,0,0,
0,0,0,0,0,1,2,2,2,2,2,3,0,0,0,0,0,0,0,0,0,0,0,0,0,0,0,0,1,3,0,0,0,0,0,0,0,0,0,0,0,0,0,0,0,0,0,0,0,0,
0,0,0,0,0,15,16,16,16,16,6,10,0,0,0,0,0,0,0,0,0,0,0,0,0,0,0,0,8,10,0,0,0,0,0,0,0,0,0,0,0,0,0,0,0,0,0,0,0,0,
0,0,0,0,0,0,0,0,0,0,8,12,2,2,3,0,0,0,0,0,0,0,0,1,2,2,2,2,13,12,2,2,3,0,0,0,0,0,0,0,0,0,0,0,0,0,0,0,0,0,
0,0,0,0,0,0,0,0,0,0,15,16,16,16,17,0,0,0,0,0,0,0,0,15,16,16,16,16,16,16,16,16,17,0,0,0,0,0,0,0,0,0,0,0,0,0,0,0,0,0,
0,0,0,0,0,0,0,0,0,0,0,0,0,0,0,0,0,0,0,0,0,0,0,0,0,0,0,0,0,0,0,0,0,0,0,0,0,0,0,0,0,0,0,0,0,0,0,0,0,0,
0,0,0,0,0,0,0,0,0,0,0,0,0,0,0,0,0,0,0,0,0,0,0,0,0,0,0,0,0,0,0,0,0,0,0,0,0,0,0,0,0,0,0,0,0,0,0,0,0,0,
0,0,0,0,0,0,0,0,0,0,0,0,0,0,0,0,0,0,0,0,0,0,0,0,0,0,0,0,0,0,0,0,0,0,0,0,0,0,0,0,0,0,0,0,0,0,0,0,0,0,
0,0,0,0,0,1,2,2,2,2,2,2,2,2,2,2,2,2,2,2,2,2,2,2,2,2,2,2,2,2,2,2,2,2,3,0,0,0,0,1,2,2,2,2,2,2,3,0,0,0,
0,0,0,0,0,8,9,9,9,9,9,9,9,9,9,9,9,9,9,9,9,9,9,9,9,9,9,9,9,9,9,9,9,9,12,2,2,2,2,13,9,9,9,9,9,9,10,0,0,0,
0,0,0,0,0,8,9,9,9,9,9,9,9,9,9,9,9,9,9,9,9,9,9,9,9,9,9,9,9,9,9,9,9,9,9,9,9,9,9,9,9,9,9,9,9,9,10,0,0,0,
0,0,0,0,0,8,9,9,9,9,9,9,9,9,9,9,9,9,9,9,9,9,9,9,9,9,9,9,9,9,9,9,9,9,9,9,9,9,9,9,9,9,9,9,9,9,10,0,0,0,
0,0,0,0,0,8,9,9,9,9,9,9,9,9,9,9,9,9,9,9,9,9,9,9,9,9,9,9,9,9,9,9,9,9,9,9,9,9,9,9,9,9,9,9,9,9,10,0,0,0,
0,0,0,0,0,8,9,9,9,9,9,9,9,9,9,9,9,9,9,9,9,9,9,9,9,9,9,9,9,9,9,9,9,9,9,9,9,9,9,9,9,9,9,9,9,9,10,0,0,0,
0,0,0,0,0,15,16,16,16,16,16,16,16,16,16,16,16,16,16,16,16,16,16,16,16,16,16,16,16,16,16,16,16,16,16,16,16,16,16,16,16,16,16,16,16,16,17,0,0,0,
0,0,0,0,0,0,0,0,0,0,0,0,0,0,0,0,0,0,0,0,0,0,0,0,0,0,0,0,0,0,0,0,0,0,0,0,0,0,0,0,0,0,0,0,0,0,0,0,0,0,
0,0,0,0,0,0,0,0,0,0,0,0,0,0,0,0,0,0,0,0,0,0,0,0,0,0,0,0,0,0,0,0,0,0,0,0,0,0,0,0,0,0,0,0,0,0,0,0,0,0,
0,0,0,0,0,0,0,0,0,0,0,0,0,0,0,0,0,0,0,0,0,0,0,0,0,0,0,0,0,0,0,0,0,0,0,0,0,0,0,0,0,0,0,0,0,0,0,0,0,0,
0,0,0,0,0,0,0,0,0,0,0,0,0,0,0,0,0,0,0,0,0,0,0,0,0,0,0,0,0,0,0,0,0,0,0,0,0,0,0,0,0,0,0,0,0,0,0,0,0,0
</data>
 </layer>
 <objectgroup id="11" name="Camera">
  <object id="84" x="644" y="3724" width="4672" height="1268">
   <properties>
    <property name="Event" value="FollowPlayerLimited"/>
    <property name="LimitMaxCameraPositionX" type="float" value="5888"/>
    <property name="LimitMaxCameraPositionY" type="float" value="5248"/>
    <property name="LimitMinCameraPositionX" type="float" value="512"/>
    <property name="LimitMinCameraPositionY" type="float" value="0"/>
    <property name="Target" value="Camera"/>
   </properties>
  </object>
 </objectgroup>
 <objectgroup id="14" name="Foreground1">
  <properties>
   <property name="TextureColorB" type="int" value="0"/>
   <property name="TextureColorG" type="int" value="0"/>
   <property name="TextureColorR" type="int" value="0"/>
   <property name="TextureFactor" type="float" value="0.2"/>
  </properties>
  <object id="38" gid="1073741885" x="2080.89" y="2563.71" width="151.051" height="466.918">
   <properties>
    <property name="Animated" type="bool" value="false"/>
    <property name="FPS" type="float" value="1"/>
    <property name="NumFrames" type="int" value="1"/>
    <property name="Path" value="Sprites/MossyBackgrounds/HangingPlants1"/>
   </properties>
  </object>
  <object id="65" gid="90" x="2972.27" y="2511.38" width="509.994" height="184.258">
   <properties>
    <property name="Animated" type="bool" value="false"/>
    <property name="FPS" type="float" value="1"/>
    <property name="NumFrames" type="int" value="1"/>
    <property name="Path" value="Sprites/MossyBackgrounds/Hill7"/>
   </properties>
  </object>
  <object id="68" gid="58" x="4088" y="2577" width="327" height="327">
   <properties>
    <property name="Animated" type="bool" value="false"/>
    <property name="FPS" type="float" value="1"/>
    <property name="NumFrames" type="int" value="1"/>
    <property name="Path" value="Sprites/MossyBackgrounds/BackgroundDecoration4"/>
   </properties>
  </object>
 </objectgroup>
 <objectgroup id="8" name="Foreground2" parallaxx="1.1">
  <properties>
   <property name="TextureColorB" type="int" value="0"/>
   <property name="TextureColorG" type="int" value="0"/>
   <property name="TextureColorR" type="int" value="0"/>
   <property name="TextureFactor" type="float" value="0.2"/>
  </properties>
  <object id="31" gid="57" x="969.97" y="5334.78" width="565" height="428.8">
   <properties>
    <property name="Animated" type="bool" value="false"/>
    <property name="FPS" type="float" value="1"/>
    <property name="NumFrames" type="int" value="1"/>
    <property name="Path" value="Sprites/MossyBackgrounds/BackgroundDecoration3"/>
   </properties>
  </object>
  <object id="37" gid="61" x="3368" y="5007.27" width="175.426" height="542.268">
   <properties>
    <property name="Animated" type="bool" value="false"/>
    <property name="FPS" type="float" value="1"/>
    <property name="NumFrames" type="int" value="1"/>
    <property name="Path" value="Sprites/MossyBackgrounds/HangingPlants1"/>
   </properties>
  </object>
  <object id="39" gid="61" x="3685.62" y="5012.53" width="175.426" height="542.268">
   <properties>
    <property name="Animated" type="bool" value="false"/>
    <property name="FPS" type="float" value="1"/>
    <property name="NumFrames" type="int" value="1"/>
    <property name="Path" value="Sprites/MossyBackgrounds/HangingPlants1"/>
   </properties>
  </object>
  <object id="42" gid="61" x="1291.56" y="2944.92" width="136.093" height="420.683">
   <properties>
    <property name="Animated" type="bool" value="false"/>
    <property name="FPS" type="float" value="1"/>
    <property name="NumFrames" type="int" value="1"/>
    <property name="Path" value="Sprites/MossyBackgrounds/HangingPlants1"/>
   </properties>
  </object>
  <object id="83" gid="59" x="2913.67" y="5152" width="404.318" height="223">
   <properties>
    <property name="Animated" type="bool" value="false"/>
    <property name="FPS" type="float" value="1"/>
    <property name="NumFrames" type="int" value="1"/>
    <property name="Path" value="Sprites/MossyBackgrounds/BackgroundDecoration5"/>
   </properties>
  </object>
 </objectgroup>
 <objectgroup id="12" name="HookPoints">
  <object id="90" x="2447" y="4421" width="32" height="32"/>
 </objectgroup>
 <objectgroup id="2" name="Checkpoint">
  <object id="2" name="Checkpoint" x="792" y="3917" width="416" height="192"/>
  <object id="88" name="Checkpoint" x="1568" y="2244" width="416" height="192"/>
 </objectgroup>
 <objectgroup id="3" name="Player">
  <object id="1" x="1408" y="2304" width="128" height="128">
   <properties>
    <property name="StartPositionId" type="int" value="0"/>
   </properties>
  </object>
 </objectgroup>
 <objectgroup id="10" name="Enemies">
  <object id="55" name="Mushroom" x="2464" y="4956" width="32" height="32"/>
  <object id="56" name="Enemy Simple" x="3190" y="4320" width="32" height="32"/>
 </objectgroup>
 <objectgroup id="4" name="Grounds">
  <object id="3" x="1152" y="2432" width="3072" height="256"/>
  <object id="6" x="3072" y="1664" width="256" height="768"/>
  <object id="7" x="4224" y="1664" width="640" height="1024"/>
  <object id="8" x="896" y="2944" width="768" height="768"/>
  <object id="9" x="640" y="4096" width="896" height="256"/>
  <object id="10" x="1280" y="4352" width="640" height="256"/>
  <object id="11" x="2304" y="3968" width="384" height="128"/>
  <object id="12" x="3328" y="3200" width="128" height="128"/>
  <object id="13" x="3712" y="3200" width="128" height="384"/>
  <object id="14" x="640" y="4992" width="3840" height="896"/>
  <object id="15" x="2944" y="4352" width="1280" height="256"/>
  <object id="16" x="3584" y="4096" width="256" height="256"/>
  <object id="45" x="3583" y="3200" width="129" height="100">
   <properties>
    <property name="Spike" type="bool" value="true"/>
   </properties>
  </object>
  <object id="46" x="3628" y="3328" width="84" height="107">
   <properties>
    <property name="Spike" type="bool" value="true"/>
   </properties>
  </object>
  <object id="47" x="3456.5" y="3231" width="129" height="83">
   <properties>
    <property name="Spike" type="bool" value="true"/>
   </properties>
  </object>
  <object id="50" x="3332.67" y="4295" width="126.667" height="81.6667"/>
  <object id="77" x="4481" y="5034.17" width="511" height="84.3333">
   <properties>
    <property name="Spike" type="bool" value="true"/>
   </properties>
  </object>
  <object id="78" x="4992" y="4992" width="1024" height="896"/>
  <object id="79" x="4480" y="5120" width="512" height="768"/>
 </objectgroup>
</map>
