<?xml version="1.0" encoding="UTF-8"?>
<map version="1.10" tiledversion="1.12.1" orientation="orthogonal" renderorder="right-down" width="76" height="22" tilewidth="128" tileheight="128" infinite="0" nextlayerid="24" nextobjectid="308">
 <editorsettings>
  <export target="Forest3.json" format="json"/>
 </editorsettings>
 <properties>
  <property name="BackgroundLayers" value="DarkForest/4.png"/>
  <property name="GroundBehindPlayer" type="bool" value="false"/>
  <property name="GroundParticleColor" type="color" value="#ff3a9359"/>
  <property name="Music" value="Greenpath.wav"/>
  <property name="UseGrassParticle" type="bool" value="true"/>
  <property name="UseGroundPadding" type="bool" value="true"/>
 </properties>
 <tileset firstgid="1" source="../../Tilesets/Mossy/MossyTileSet.tsx"/>
 <tileset firstgid="50" source="../../Sprites/MossyBackgrounds3/MossyDecorations.tsx"/>
 <tileset firstgid="101" source="../../Sprites/MossyPlants2/MossyPlants.tsx"/>
 <objectgroup id="2" name="AmbientParticleArea" visible="0"/>
 <objectgroup id="15" name="Camera" visible="0">
  <object id="14" x="3200" y="256" width="1112" height="2304">
   <properties>
    <property name="Event" value="FollowPlayerLimited"/>
    <property name="LimitMaxCameraPositionX" type="float" value="9080"/>
    <property name="LimitMaxCameraPositionY" type="float" value="2272"/>
    <property name="LimitMinCameraPositionX" type="float" value="512"/>
    <property name="LimitMinCameraPositionY" type="float" value="640"/>
    <property name="Target" value="Camera"/>
   </properties>
  </object>
  <object id="15" x="128" y="205.913" width="3020" height="2404.17">
   <properties>
    <property name="Event" value="FollowPlayerLimited"/>
    <property name="LimitMaxCameraPositionX" type="float" value="9080"/>
    <property name="LimitMaxCameraPositionY" type="float" value="2176"/>
    <property name="LimitMinCameraPositionX" type="float" value="512"/>
    <property name="LimitMinCameraPositionY" type="float" value="640"/>
    <property name="Target" value="Camera"/>
   </properties>
  </object>
  <object id="28" x="4352" y="256" width="4992" height="2304">
   <properties>
    <property name="Event" value="FollowPlayerLimited"/>
    <property name="LimitMaxCameraPositionX" type="float" value="9080"/>
    <property name="LimitMaxCameraPositionY" type="float" value="1920"/>
    <property name="LimitMinCameraPositionX" type="float" value="512"/>
    <property name="LimitMinCameraPositionY" type="float" value="572"/>
    <property name="Target" value="Camera"/>
   </properties>
  </object>
 </objectgroup>
 <objectgroup id="10" name="Triggers" visible="0">
  <object id="3" x="1920" y="2276" width="384" height="156">
   <properties>
    <property name="Destroy" type="bool" value="true"/>
    <property name="Event" value="ChangeScene"/>
    <property name="PlayerStartPositionId" type="int" value="1"/>
    <property name="Scene" value="Forest2/Forest2"/>
    <property name="Target" value="Game"/>
   </properties>
  </object>
  <object id="42" x="8064" y="1408" width="768" height="256">
   <properties>
    <property name="Event" value="ShowTutorial"/>
    <property name="Target" value="HUD"/>
    <property name="TutorialText" value="SEGURE &lt;Heal&gt; PARA CURAR"/>
   </properties>
  </object>
  <object id="48" x="9160" y="768" width="128" height="384">
   <properties>
    <property name="Destroy" type="bool" value="true"/>
    <property name="Event" value="ChangeScene"/>
    <property name="PlayerStartPositionId" type="int" value="0"/>
    <property name="Scene" value="Forest7/Forest7"/>
    <property name="Target" value="Game"/>
   </properties>
  </object>
  <object id="67" x="304" y="768" width="128" height="384">
   <properties>
    <property name="Destroy" type="bool" value="true"/>
    <property name="Event" value="ChangeScene"/>
    <property name="PlayerStartPositionId" type="int" value="0"/>
    <property name="Scene" value="Forest5/Forest5"/>
    <property name="Target" value="Game"/>
   </properties>
  </object>
  <object id="69" x="1920" y="269" width="384" height="256">
   <properties>
    <property name="Destroy" type="bool" value="true"/>
    <property name="Event" value="ChangeScene"/>
    <property name="PlayerStartPositionId" type="int" value="0"/>
    <property name="Scene" value="Forest4/Forest4"/>
    <property name="Target" value="Game"/>
   </properties>
  </object>
  <object id="74" x="2453.58" y="1954.83" width="102.667" height="141">
   <properties>
    <property name="Destroy" type="bool" value="true"/>
    <property name="Event" value="ChangeScene"/>
    <property name="PlayerStartPositionId" type="int" value="0"/>
    <property name="Scene" value="Forest3/Forest3"/>
    <property name="Target" value="Game"/>
   </properties>
  </object>
 </objectgroup>
 <objectgroup draworder="index" id="3" name="Background1" parallaxx="0.95">
  <properties>
   <property name="TextureColorB" type="int" value="69"/>
   <property name="TextureColorG" type="int" value="65"/>
   <property name="TextureColorR" type="int" value="22"/>
   <property name="TextureFactor" type="float" value="0.3"/>
  </properties>
  <object id="143" gid="86" x="1214.08" y="1396.43" width="74.7141" height="242.254" rotation="159.606"/>
  <object id="144" gid="81" x="1186.82" y="1584.98" width="106.656" height="133.53" rotation="111.87"/>
  <object id="146" gid="86" x="972.495" y="1603.36" width="74.7141" height="242.254" rotation="212.661"/>
  <object id="147" gid="2147483734" x="1263.93" y="917.755" width="74.7141" height="242.254" rotation="150.887"/>
  <object id="145" gid="50" x="858.941" y="2151.23" width="511.475" height="1502.44"/>
  <object id="281" gid="99" x="662.464" y="1259.92" width="208.472" height="789.342"/>
  <object id="166" gid="85" x="678.232" y="1270.33" width="101.551" height="105.079" rotation="325.012"/>
  <object id="165" gid="85" x="797.258" y="1559.71" width="101.551" height="105.079" rotation="152.123"/>
  <object id="207" gid="99" x="603" y="1885.78" width="222.805" height="843.613"/>
  <object id="209" gid="91" x="1442" y="1416" width="394.771" height="172" rotation="90"/>
  <object id="208" gid="94" x="1105.67" y="2116.67" width="775" height="445.668"/>
  <object id="193" gid="105" x="1606.81" y="1429.27" width="108.833" height="108.833">
   <properties>
    <property name="Animated" type="bool" value="true"/>
    <property name="Destructible" type="bool" value="false"/>
    <property name="FPS" type="float" value="30"/>
    <property name="NumFrames" type="int" value="60"/>
    <property name="Path" value="Sprites/Plants/Plant5/Plant5"/>
   </properties>
  </object>
  <object id="195" gid="105" x="1693.64" y="1425.76" width="85.8333" height="85.8333">
   <properties>
    <property name="Animated" type="bool" value="true"/>
    <property name="Destructible" type="bool" value="false"/>
    <property name="FPS" type="float" value="30"/>
    <property name="NumFrames" type="int" value="60"/>
    <property name="Path" value="Sprites/Plants/Plant5/Plant5"/>
   </properties>
  </object>
  <object id="296" gid="1073741915" x="1933.13" y="1383.55" width="219.015" height="59.1208" rotation="319.711"/>
  <object id="295" gid="1073741915" x="1782.74" y="1528.55" width="398.478" height="107.565" rotation="319.711"/>
  <object id="160" gid="58" x="1459.75" y="1361.98" width="195.365" height="405.631" rotation="90"/>
  <object id="236" gid="64" x="4142.25" y="1050.28" width="120.989" height="305.073" rotation="180">
   <properties>
    <property name="Destructible" type="bool" value="false"/>
    <property name="WindBalance" type="bool" value="true"/>
   </properties>
  </object>
  <object id="198" gid="64" x="4235.73" y="1086.36" width="160" height="403.438" rotation="180">
   <properties>
    <property name="Destructible" type="bool" value="false"/>
    <property name="WindBalance" type="bool" value="true"/>
   </properties>
  </object>
  <object id="211" gid="100" x="5446.42" y="1782.45" width="182.907" height="1170.64"/>
  <object id="303" gid="2147483703" x="2147" y="2131.35" width="914" height="921.346"/>
  <object id="300" gid="91" x="2309.61" y="1646" width="394.771" height="172" rotation="90"/>
  <object id="187" gid="75" x="2290.49" y="2084.56" width="451.502" height="203.138"/>
  <object id="258" gid="80" x="2361.83" y="1425.44" width="63" height="133.113">
   <properties>
    <property name="Destructible" type="bool" value="true"/>
    <property name="WindBalance" type="bool" value="true"/>
   </properties>
  </object>
  <object id="290" gid="91" x="2028.04" y="1251.02" width="398.478" height="107.565" rotation="42.3491"/>
  <object id="152" gid="58" x="2286.12" y="1769.45" width="195.365" height="405.631"/>
  <object id="154" gid="53" x="2611.14" y="2117.93" width="539" height="539"/>
  <object id="164" gid="66" x="2970.14" y="2084.6" width="214.954" height="594.333"/>
  <object id="233" gid="71" x="6128.2" y="1732" width="167.466" height="206.905"/>
  <object id="269" gid="80" x="6645.92" y="1400.85" width="63" height="133.113" rotation="335.127">
   <properties>
    <property name="Destructible" type="bool" value="false"/>
    <property name="WindBalance" type="bool" value="true"/>
   </properties>
  </object>
  <object id="252" gid="66" x="6596.22" y="1678.59" width="214.954" height="594.333"/>
  <object id="234" gid="71" x="6643.77" y="1731.21" width="202" height="249.572"/>
  <object id="270" gid="80" x="6295.57" y="1589.78" width="63" height="133.113" rotation="335.127">
   <properties>
    <property name="Destructible" type="bool" value="false"/>
    <property name="WindBalance" type="bool" value="true"/>
   </properties>
  </object>
  <object id="153" gid="96" x="6214.68" y="1706.72" width="523.446" height="448.126"/>
  <object id="286" gid="66" x="4362.26" y="1717.5" width="157.621" height="435.81"/>
  <object id="253" gid="66" x="4451.25" y="1758.71" width="214.954" height="594.333"/>
  <object id="262" gid="75" x="7549.26" y="725.108" width="518.387" height="233.231" rotation="180"/>
  <object id="263" gid="102" x="7487.02" y="720.78" width="247.941" height="247.941" rotation="180">
   <properties>
    <property name="Animated" type="bool" value="true"/>
    <property name="Destructible" type="bool" value="false"/>
    <property name="FPS" type="float" value="30"/>
    <property name="NumFrames" type="int" value="90"/>
    <property name="Path" value="Sprites/Plants/Plant2/Plant2"/>
   </properties>
  </object>
  <object id="264" gid="102" x="7584.07" y="722.612" width="247.941" height="247.941" rotation="180">
   <properties>
    <property name="Animated" type="bool" value="true"/>
    <property name="Destructible" type="bool" value="false"/>
    <property name="FPS" type="float" value="30"/>
    <property name="NumFrames" type="int" value="90"/>
    <property name="Path" value="Sprites/Plants/Plant2/Plant2"/>
   </properties>
  </object>
  <object id="297" gid="93" x="1988.8" y="1203.98" width="87.1254" height="81.4757" rotation="0.810867">
   <properties>
    <property name="Moving" type="bool" value="true"/>
    <property name="MovingDuration" type="float" value="0"/>
    <property name="SpeedX" type="float" value="0"/>
    <property name="SpeedY" type="float" value="0"/>
   </properties>
  </object>
  <object id="298" gid="93" x="2037.02" y="1188.93" width="87.1254" height="81.4757" rotation="0.810867">
   <properties>
    <property name="Moving" type="bool" value="true"/>
    <property name="MovingDuration" type="float" value="0"/>
    <property name="SpeedX" type="float" value="0"/>
    <property name="SpeedY" type="float" value="0"/>
   </properties>
  </object>
  <object id="299" gid="93" x="2053.29" y="1196.37" width="87.1254" height="81.4757" rotation="0.810867">
   <properties>
    <property name="Moving" type="bool" value="true"/>
    <property name="MovingDuration" type="float" value="0"/>
    <property name="SpeedX" type="float" value="0"/>
    <property name="SpeedY" type="float" value="0"/>
   </properties>
  </object>
  <object id="292" gid="58" x="1946.02" y="1155.18" width="105.365" height="218.766" rotation="90"/>
  <object id="304" gid="66" x="2579.22" y="2106.83" width="154.954" height="428.437"/>
 </objectgroup>
 <objectgroup draworder="index" id="4" name="Background2">
  <properties>
   <property name="TextureColorB" type="int" value="107"/>
   <property name="TextureColorG" type="int" value="101"/>
   <property name="TextureColorR" type="int" value="22"/>
   <property name="TextureFactor" type="float" value="0.5"/>
  </properties>
  <object id="141" gid="1073741899" x="5126.17" y="1022.27" width="735.625" height="308.969"/>
  <object id="230" gid="112" x="7960.05" y="1439.39" width="87.899" height="87.899" rotation="24.7582">
   <properties>
    <property name="Animated" type="bool" value="true"/>
    <property name="Destructible" type="bool" value="false"/>
    <property name="FPS" type="float" value="30"/>
    <property name="NumFrames" type="int" value="60"/>
    <property name="Path" value="Sprites/Plants/BlueFlower2/BlueFlower2"/>
   </properties>
  </object>
  <object id="162" gid="2147483760" x="8002.75" y="1488.77" width="87.899" height="87.899" rotation="338.625">
   <properties>
    <property name="Animated" type="bool" value="true"/>
    <property name="Destructible" type="bool" value="false"/>
    <property name="FPS" type="float" value="30"/>
    <property name="NumFrames" type="int" value="60"/>
    <property name="Path" value="Sprites/Plants/BlueFlower2/BlueFlower2"/>
   </properties>
  </object>
  <object id="231" gid="111" x="7979.22" y="1486.21" width="86.5317" height="86.5317">
   <properties>
    <property name="Animated" type="bool" value="true"/>
    <property name="Destructible" type="bool" value="false"/>
    <property name="FPS" type="float" value="30"/>
    <property name="NumFrames" type="int" value="20"/>
    <property name="Path" value="Sprites/Plants/PlantJump2/PlantJump2"/>
   </properties>
  </object>
  <object id="226" gid="91" x="7958.19" y="1781.48" width="286.321" height="124.749" rotation="291.041"/>
  <object id="156" gid="1073741896" x="8067.49" y="1447.61" width="97.4974" height="95.557" rotation="180"/>
  <object id="227" gid="91" x="7602.62" y="1784.52" width="678.548" height="140.037" rotation="291.041"/>
  <object id="277" gid="2147483755" x="8242" y="1134.67" width="172" height="172" rotation="180">
   <properties>
    <property name="Animated" type="bool" value="true"/>
    <property name="Destructible" type="bool" value="true"/>
    <property name="FPS" type="float" value="30"/>
    <property name="NumFrames" type="int" value="60"/>
    <property name="Path" value="Sprites/Plants/Plant7/Plant7"/>
   </properties>
  </object>
  <object id="278" gid="1073741928" x="8159.67" y="1275.67" width="118.667" height="116">
   <properties>
    <property name="Animated" type="bool" value="true"/>
    <property name="Destructible" type="bool" value="true"/>
    <property name="FPS" type="float" value="30"/>
    <property name="NumFrames" type="int" value="60"/>
    <property name="Path" value="Sprites/Plants/Plant4/Plant4"/>
   </properties>
  </object>
  <object id="228" gid="60" x="7728.67" y="1210.67" width="589.383" height="112.333"/>
  <object id="158" gid="2147483761" x="3698.2" y="1507.58" width="125.625" height="125.625" rotation="148.792">
   <properties>
    <property name="Animated" type="bool" value="true"/>
    <property name="Destructible" type="bool" value="false"/>
    <property name="FPS" type="float" value="30"/>
    <property name="NumFrames" type="int" value="60"/>
    <property name="Path" value="Sprites/Plants/BlueFlower1/BlueFlower"/>
   </properties>
  </object>
  <object id="191" gid="102" x="3164.14" y="696.966" width="247.941" height="247.941" rotation="180">
   <properties>
    <property name="Animated" type="bool" value="true"/>
    <property name="Destructible" type="bool" value="false"/>
    <property name="FPS" type="float" value="30"/>
    <property name="NumFrames" type="int" value="90"/>
    <property name="Path" value="Sprites/Plants/Plant2/Plant2"/>
   </properties>
  </object>
  <object id="192" gid="102" x="3250.52" y="703.464" width="247.941" height="247.941" rotation="180">
   <properties>
    <property name="Animated" type="bool" value="true"/>
    <property name="Destructible" type="bool" value="false"/>
    <property name="FPS" type="float" value="30"/>
    <property name="NumFrames" type="int" value="90"/>
    <property name="Path" value="Sprites/Plants/Plant2/Plant2"/>
   </properties>
  </object>
  <object id="159" gid="99" x="4074.09" y="2025.58" width="309.343" height="1658.44" rotation="307.681"/>
  <object id="190" gid="75" x="3226.38" y="701.294" width="518.387" height="233.231" rotation="180"/>
  <object id="168" gid="78" x="3513.97" y="1393.54" width="54.7076" height="49.7805" rotation="22.8202"/>
  <object id="157" gid="77" x="4173.66" y="1082.9" width="511.879" height="184.939"/>
  <object id="249" gid="87" x="8277.15" y="1704.65" width="163" height="73.2624"/>
  <object id="250" gid="87" x="8261.65" y="1702.09" width="163" height="73.2624"/>
  <object id="148" gid="2147483743" x="8380.15" y="1723.93" width="521.318" height="248.416"/>
  <object id="289" gid="93" x="8826.93" y="1731" width="174.183" height="161.856"/>
  <object id="287" gid="87" x="8533.82" y="1711.98" width="163" height="73.2624"/>
  <object id="288" gid="87" x="8518.32" y="1709.42" width="163" height="73.2624"/>
  <object id="247" gid="87" x="8845.34" y="1691.93" width="163" height="73.2624"/>
  <object id="248" gid="87" x="8829.84" y="1689.37" width="163" height="73.2624"/>
 </objectgroup>
 <objectgroup draworder="index" id="5" name="Decorations">
  <object id="29" gid="93" x="4880.12" y="1986.7" width="343.295" height="319"/>
  <object id="31" gid="93" x="5068.35" y="1982.5" width="343.295" height="319"/>
  <object id="32" gid="93" x="5256.35" y="1984.5" width="343.295" height="319"/>
  <object id="36" gid="93" x="7328.45" y="1988.7" width="343.295" height="319"/>
  <object id="37" gid="93" x="7508.02" y="1985.83" width="343.295" height="319"/>
  <object id="38" gid="93" x="7680.02" y="1991.17" width="343.295" height="319"/>
  <object id="150" gid="103" x="1030.14" y="2111.27" width="210" height="210">
   <properties>
    <property name="Animated" type="bool" value="true"/>
    <property name="Destructible" type="bool" value="false"/>
    <property name="FPS" type="float" value="30"/>
    <property name="NumFrames" type="int" value="90"/>
    <property name="Path" value="Sprites/Plants/Plant3/Plant3"/>
   </properties>
  </object>
  <object id="169" gid="111" x="3506.72" y="1958.02" width="75.6667" height="75.6667">
   <properties>
    <property name="Animated" type="bool" value="true"/>
    <property name="Destructible" type="bool" value="false"/>
    <property name="FPS" type="float" value="30"/>
    <property name="NumFrames" type="int" value="20"/>
    <property name="Path" value="Sprites/Plants/PlantJump2/PlantJump2"/>
   </properties>
  </object>
  <object id="170" gid="107" x="1598.14" y="835.6" width="172" height="172" rotation="180">
   <properties>
    <property name="Animated" type="bool" value="true"/>
    <property name="Destructible" type="bool" value="true"/>
    <property name="FPS" type="float" value="30"/>
    <property name="NumFrames" type="int" value="60"/>
    <property name="Path" value="Sprites/Plants/Plant7/Plant7"/>
   </properties>
  </object>
  <object id="171" gid="2147483755" x="1528.14" y="813.6" width="172" height="172" rotation="180">
   <properties>
    <property name="Animated" type="bool" value="true"/>
    <property name="Destructible" type="bool" value="true"/>
    <property name="FPS" type="float" value="30"/>
    <property name="NumFrames" type="int" value="60"/>
    <property name="Path" value="Sprites/Plants/Plant7/Plant7"/>
   </properties>
  </object>
  <object id="172" gid="1073741928" x="1334.14" y="999.6" width="178" height="174">
   <properties>
    <property name="Animated" type="bool" value="true"/>
    <property name="Destructible" type="bool" value="true"/>
    <property name="FPS" type="float" value="30"/>
    <property name="NumFrames" type="int" value="60"/>
    <property name="Path" value="Sprites/Plants/Plant4/Plant4"/>
   </properties>
  </object>
  <object id="173" gid="1073741928" x="1435.14" y="956.6" width="118.667" height="116">
   <properties>
    <property name="Animated" type="bool" value="true"/>
    <property name="Destructible" type="bool" value="true"/>
    <property name="FPS" type="float" value="30"/>
    <property name="NumFrames" type="int" value="60"/>
    <property name="Path" value="Sprites/Plants/Plant4/Plant4"/>
   </properties>
  </object>
  <object id="174" gid="107" x="2633.46" y="702.043" width="214.557" height="214.557" rotation="180">
   <properties>
    <property name="Animated" type="bool" value="true"/>
    <property name="Destructible" type="bool" value="true"/>
    <property name="FPS" type="float" value="30"/>
    <property name="NumFrames" type="int" value="60"/>
    <property name="Path" value="Sprites/Plants/Plant7/Plant7"/>
   </properties>
  </object>
  <object id="175" gid="2147483755" x="2546.14" y="674.6" width="214.557" height="214.557" rotation="180">
   <properties>
    <property name="Animated" type="bool" value="true"/>
    <property name="Destructible" type="bool" value="true"/>
    <property name="FPS" type="float" value="30"/>
    <property name="NumFrames" type="int" value="60"/>
    <property name="Path" value="Sprites/Plants/Plant7/Plant7"/>
   </properties>
  </object>
  <object id="176" gid="1073741928" x="2304.14" y="906.62" width="222.041" height="217.052">
   <properties>
    <property name="Animated" type="bool" value="true"/>
    <property name="Destructible" type="bool" value="false"/>
    <property name="FPS" type="float" value="30"/>
    <property name="NumFrames" type="int" value="60"/>
    <property name="Path" value="Sprites/Plants/Plant4/Plant4"/>
   </properties>
  </object>
  <object id="177" gid="1073741928" x="2430.13" y="852.98" width="148.028" height="144.701">
   <properties>
    <property name="Animated" type="bool" value="true"/>
    <property name="Destructible" type="bool" value="false"/>
    <property name="FPS" type="float" value="30"/>
    <property name="NumFrames" type="int" value="60"/>
    <property name="Path" value="Sprites/Plants/Plant4/Plant4"/>
   </properties>
  </object>
  <object id="178" gid="113" x="2266.14" y="2052.6" width="85.5" height="85.5">
   <properties>
    <property name="Animated" type="bool" value="true"/>
    <property name="Destructible" type="bool" value="true"/>
    <property name="FPS" type="float" value="30"/>
    <property name="NumFrames" type="int" value="60"/>
    <property name="Path" value="Sprites/Plants/BlueFlower1/BlueFlower"/>
   </properties>
  </object>
  <object id="179" gid="111" x="2258.44" y="2103.08" width="116" height="116">
   <properties>
    <property name="Animated" type="bool" value="true"/>
    <property name="Destructible" type="bool" value="true"/>
    <property name="FPS" type="float" value="30"/>
    <property name="NumFrames" type="int" value="20"/>
    <property name="Path" value="Sprites/Plants/PlantJump2/PlantJump2"/>
   </properties>
  </object>
  <object id="180" gid="101" x="3528.9" y="1964.96" width="115.333" height="115.333">
   <properties>
    <property name="Animated" type="bool" value="true"/>
    <property name="Destructible" type="bool" value="true"/>
    <property name="FPS" type="float" value="30"/>
    <property name="NumFrames" type="int" value="90"/>
    <property name="Path" value="Sprites/Plants/Plant1/Plant1"/>
   </properties>
  </object>
  <object id="181" gid="102" x="956.629" y="2100.51" width="143" height="143">
   <properties>
    <property name="Animated" type="bool" value="true"/>
    <property name="Destructible" type="bool" value="true"/>
    <property name="FPS" type="float" value="30"/>
    <property name="NumFrames" type="int" value="90"/>
    <property name="Path" value="Sprites/Plants/Plant2/Plant2"/>
   </properties>
  </object>
  <object id="182" gid="103" x="3668.28" y="1957.63" width="102.97" height="102.97">
   <properties>
    <property name="Animated" type="bool" value="true"/>
    <property name="Destructible" type="bool" value="true"/>
    <property name="FPS" type="float" value="30"/>
    <property name="NumFrames" type="int" value="90"/>
    <property name="Path" value="Sprites/Plants/Plant3/Plant3"/>
   </properties>
  </object>
  <object id="188" gid="102" x="3796.28" y="1972.79" width="148.95" height="148.95">
   <properties>
    <property name="Animated" type="bool" value="true"/>
    <property name="Destructible" type="bool" value="false"/>
    <property name="FPS" type="float" value="30"/>
    <property name="NumFrames" type="int" value="90"/>
    <property name="Path" value="Sprites/Plants/Plant2/Plant2"/>
   </properties>
  </object>
  <object id="189" gid="102" x="3834.56" y="1967.15" width="125.95" height="125.95">
   <properties>
    <property name="Animated" type="bool" value="true"/>
    <property name="Destructible" type="bool" value="false"/>
    <property name="FPS" type="float" value="30"/>
    <property name="NumFrames" type="int" value="90"/>
    <property name="Path" value="Sprites/Plants/Plant2/Plant2"/>
   </properties>
  </object>
  <object id="194" gid="102" x="4222.3" y="655.418" width="247.941" height="247.941" rotation="180">
   <properties>
    <property name="Animated" type="bool" value="true"/>
    <property name="Destructible" type="bool" value="false"/>
    <property name="FPS" type="float" value="30"/>
    <property name="NumFrames" type="int" value="90"/>
    <property name="Path" value="Sprites/Plants/Plant2/Plant2"/>
   </properties>
  </object>
  <object id="203" gid="64" x="4234.52" y="1061.33" width="203.692" height="513.608" rotation="180">
   <properties>
    <property name="Destructible" type="bool" value="true"/>
    <property name="WindBalance" type="bool" value="true"/>
   </properties>
  </object>
  <object id="219" gid="113" x="3913.7" y="1030.76" width="85.5" height="85.5">
   <properties>
    <property name="Animated" type="bool" value="true"/>
    <property name="Destructible" type="bool" value="true"/>
    <property name="FPS" type="float" value="30"/>
    <property name="NumFrames" type="int" value="60"/>
    <property name="Path" value="Sprites/Plants/BlueFlower1/BlueFlower"/>
   </properties>
  </object>
  <object id="220" gid="111" x="3906" y="1081.24" width="116" height="116">
   <properties>
    <property name="Animated" type="bool" value="true"/>
    <property name="Destructible" type="bool" value="true"/>
    <property name="FPS" type="float" value="30"/>
    <property name="NumFrames" type="int" value="20"/>
    <property name="Path" value="Sprites/Plants/PlantJump2/PlantJump2"/>
   </properties>
  </object>
  <object id="222" gid="2147483755" x="8498.06" y="629.464" width="214.557" height="214.557" rotation="180">
   <properties>
    <property name="Animated" type="bool" value="true"/>
    <property name="Destructible" type="bool" value="true"/>
    <property name="FPS" type="float" value="30"/>
    <property name="NumFrames" type="int" value="60"/>
    <property name="Path" value="Sprites/Plants/Plant7/Plant7"/>
   </properties>
  </object>
  <object id="223" gid="1073741928" x="8251.06" y="852.484" width="222.041" height="217.052">
   <properties>
    <property name="Animated" type="bool" value="true"/>
    <property name="Destructible" type="bool" value="false"/>
    <property name="FPS" type="float" value="30"/>
    <property name="NumFrames" type="int" value="60"/>
    <property name="Path" value="Sprites/Plants/Plant4/Plant4"/>
   </properties>
  </object>
  <object id="224" gid="1073741928" x="8382.05" y="807.844" width="148.028" height="144.701">
   <properties>
    <property name="Animated" type="bool" value="true"/>
    <property name="Destructible" type="bool" value="false"/>
    <property name="FPS" type="float" value="30"/>
    <property name="NumFrames" type="int" value="60"/>
    <property name="Path" value="Sprites/Plants/Plant4/Plant4"/>
   </properties>
  </object>
  <object id="235" gid="113" x="5949.33" y="1511.34" width="220.667" height="220.667">
   <properties>
    <property name="Animated" type="bool" value="true"/>
    <property name="Destructible" type="bool" value="true"/>
    <property name="FPS" type="float" value="30"/>
    <property name="NumFrames" type="int" value="60"/>
    <property name="Path" value="Sprites/Plants/BlueFlower1/BlueFlower"/>
   </properties>
  </object>
  <object id="239" gid="2147483709" x="8780.28" y="1118.68" width="73.7415" height="227.945" rotation="180">
   <properties>
    <property name="Destructible" type="bool" value="false"/>
    <property name="WindBalance" type="bool" value="true"/>
   </properties>
  </object>
  <object id="241" gid="2147483761" x="9008" y="1137.25" width="112" height="112" rotation="183.876">
   <properties>
    <property name="Animated" type="bool" value="true"/>
    <property name="Destructible" type="bool" value="false"/>
    <property name="FPS" type="float" value="30"/>
    <property name="NumFrames" type="int" value="60"/>
    <property name="Path" value="Sprites/Plants/BlueFlower1/BlueFlower"/>
   </properties>
  </object>
  <object id="240" gid="2147483709" x="8692.14" y="1090.18" width="77.7415" height="240.31" rotation="180">
   <properties>
    <property name="Destructible" type="bool" value="false"/>
    <property name="WindBalance" type="bool" value="true"/>
   </properties>
  </object>
  <object id="242" gid="61" x="8870.8" y="1108.51" width="85.0748" height="262.978" rotation="180">
   <properties>
    <property name="Destructible" type="bool" value="true"/>
    <property name="WindBalance" type="bool" value="true"/>
   </properties>
  </object>
  <object id="243" gid="61" x="8824.01" y="1110.51" width="85.0748" height="262.978" rotation="180">
   <properties>
    <property name="Destructible" type="bool" value="true"/>
    <property name="WindBalance" type="bool" value="true"/>
   </properties>
  </object>
  <object id="244" gid="61" x="8737.44" y="1112.18" width="85.0748" height="262.978" rotation="180">
   <properties>
    <property name="Destructible" type="bool" value="true"/>
    <property name="WindBalance" type="bool" value="true"/>
   </properties>
  </object>
  <object id="254" gid="103" x="1053.85" y="1059.18" width="102.97" height="102.97">
   <properties>
    <property name="Animated" type="bool" value="true"/>
    <property name="Destructible" type="bool" value="true"/>
    <property name="FPS" type="float" value="30"/>
    <property name="NumFrames" type="int" value="90"/>
    <property name="Path" value="Sprites/Plants/Plant3/Plant3"/>
   </properties>
  </object>
  <object id="255" gid="103" x="972.515" y="1059.18" width="102.97" height="102.97">
   <properties>
    <property name="Animated" type="bool" value="true"/>
    <property name="Destructible" type="bool" value="true"/>
    <property name="FPS" type="float" value="30"/>
    <property name="NumFrames" type="int" value="90"/>
    <property name="Path" value="Sprites/Plants/Plant3/Plant3"/>
   </properties>
  </object>
  <object id="257" gid="80" x="4653.83" y="1068.11" width="63" height="133.113">
   <properties>
    <property name="Destructible" type="bool" value="true"/>
    <property name="WindBalance" type="bool" value="true"/>
   </properties>
  </object>
  <object id="260" gid="65" x="5232.86" y="1079.9" width="157" height="481.021" rotation="180">
   <properties>
    <property name="Destructible" type="bool" value="false"/>
    <property name="WindBalance" type="bool" value="true"/>
   </properties>
  </object>
  <object id="261" gid="99" x="5575.94" y="1273.27" width="155.046" height="436.934" rotation="278.285"/>
  <object id="265" gid="103" x="8447.85" y="1052.52" width="102.97" height="102.97">
   <properties>
    <property name="Animated" type="bool" value="true"/>
    <property name="Destructible" type="bool" value="true"/>
    <property name="FPS" type="float" value="30"/>
    <property name="NumFrames" type="int" value="90"/>
    <property name="Path" value="Sprites/Plants/Plant3/Plant3"/>
   </properties>
  </object>
  <object id="266" gid="103" x="8366.51" y="1052.52" width="102.97" height="102.97">
   <properties>
    <property name="Animated" type="bool" value="true"/>
    <property name="Destructible" type="bool" value="true"/>
    <property name="FPS" type="float" value="30"/>
    <property name="NumFrames" type="int" value="90"/>
    <property name="Path" value="Sprites/Plants/Plant3/Plant3"/>
   </properties>
  </object>
  <object id="267" gid="113" x="8068" y="1085.33" width="146.667" height="146.667">
   <properties>
    <property name="Animated" type="bool" value="true"/>
    <property name="Destructible" type="bool" value="true"/>
    <property name="FPS" type="float" value="30"/>
    <property name="NumFrames" type="int" value="60"/>
    <property name="Path" value="Sprites/Plants/BlueFlower1/BlueFlower"/>
   </properties>
  </object>
  <object id="268" gid="61" x="7409" y="672" width="113" height="349.299" rotation="180"/>
  <object id="279" gid="105" x="6042" y="1480.67" width="100" height="152">
   <properties>
    <property name="Animated" type="bool" value="true"/>
    <property name="Destructible" type="bool" value="true"/>
    <property name="FPS" type="float" value="30"/>
    <property name="NumFrames" type="int" value="60"/>
    <property name="Path" value="Sprites/Plants/Plant5/Plant5"/>
   </properties>
  </object>
  <object id="280" gid="105" x="8790" y="1082" width="100" height="152">
   <properties>
    <property name="Animated" type="bool" value="true"/>
    <property name="Destructible" type="bool" value="true"/>
    <property name="FPS" type="float" value="30"/>
    <property name="NumFrames" type="int" value="60"/>
    <property name="Path" value="Sprites/Plants/Plant5/Plant5"/>
   </properties>
  </object>
 </objectgroup>
 <layer id="1" name="Camada de Blocos 1" width="76" height="22">
  <data encoding="csv">
0,0,0,0,0,0,0,0,0,0,0,0,0,0,0,0,0,0,0,0,0,0,0,0,0,0,0,0,0,0,0,0,0,0,0,0,0,0,0,0,0,0,0,0,0,0,0,0,0,0,0,0,0,0,0,0,0,0,0,0,0,0,0,0,0,0,0,0,0,0,0,0,0,0,0,0,
0,0,0,0,0,0,0,0,0,0,0,0,0,0,0,0,0,0,0,0,0,0,0,0,0,0,0,0,0,0,0,0,0,0,0,0,0,0,0,0,0,0,0,0,0,0,0,0,0,0,0,0,0,0,0,0,0,0,0,0,0,0,0,0,0,0,0,0,0,0,0,0,0,0,0,0,
0,0,0,0,0,0,0,0,0,0,0,0,0,0,0,0,0,0,0,0,0,0,0,0,0,0,0,0,0,0,0,0,0,0,0,0,0,0,0,0,0,0,0,0,0,0,0,0,0,0,0,0,0,0,0,0,0,0,0,0,0,0,0,0,0,0,0,0,0,0,0,0,0,0,0,0,
0,1,2,2,2,2,2,2,2,2,2,2,2,2,2,3,0,1,2,2,2,2,2,2,2,2,2,2,2,2,2,2,2,2,2,2,2,2,2,2,2,2,2,2,2,2,2,2,2,2,2,2,2,2,2,2,2,2,2,2,2,2,2,2,2,2,2,2,2,2,2,2,3,0,0,0,
0,8,9,9,9,9,9,9,9,9,9,9,9,9,9,10,0,8,9,9,9,9,9,9,9,9,9,9,9,9,9,9,9,9,9,9,9,9,9,9,9,9,9,9,9,9,9,9,9,9,9,9,9,9,9,9,9,9,9,9,9,9,9,9,9,9,9,9,9,9,9,9,10,0,0,0,
0,8,9,9,9,9,9,9,9,9,9,9,5,16,16,17,0,15,16,16,16,16,16,16,16,16,16,16,16,16,16,16,16,16,16,16,16,16,16,16,16,16,16,16,16,16,16,16,16,16,16,16,16,16,16,16,16,16,16,16,16,16,16,16,16,16,6,9,9,9,9,9,10,0,0,0,
0,15,16,16,16,16,16,16,16,16,16,16,17,0,0,0,0,0,0,0,0,0,0,0,0,0,0,0,0,0,0,0,0,0,0,0,0,0,0,0,0,0,0,0,0,0,0,0,0,0,0,0,0,0,0,0,0,0,0,0,0,0,0,0,0,0,15,16,16,16,16,16,17,0,0,0,
0,0,0,0,0,0,0,0,0,0,0,0,0,0,0,0,25,0,0,0,0,0,0,0,0,0,0,0,0,0,0,0,0,0,0,0,0,0,0,0,0,0,0,0,0,0,0,0,0,0,0,0,0,0,0,0,0,0,0,0,0,0,0,0,0,0,0,0,0,0,0,0,0,0,0,0,
0,1,2,2,31,23,23,23,23,24,0,0,0,0,0,0,0,0,0,22,23,23,24,0,0,25,0,0,0,22,23,23,23,23,23,23,24,0,0,22,24,0,0,0,0,0,0,0,0,0,0,0,0,0,0,0,0,0,0,22,23,23,23,23,23,23,23,23,23,23,32,2,3,0,0,0,
0,8,9,9,10,0,0,0,0,0,0,0,0,0,0,0,0,0,0,0,0,0,0,0,0,0,0,0,0,0,0,0,0,0,0,0,0,0,0,0,0,0,0,25,0,0,0,0,0,0,0,22,24,0,0,0,0,0,0,0,0,0,0,0,0,0,0,0,0,0,8,9,10,0,0,0,
0,8,9,9,10,0,0,0,0,0,0,0,4,0,0,0,0,0,0,0,0,0,0,0,0,0,0,0,0,0,0,0,0,0,0,0,0,0,0,0,0,0,0,0,0,0,0,0,0,0,0,0,0,0,0,0,0,0,0,0,0,0,0,0,0,0,0,0,0,0,8,9,10,0,0,0,
0,8,9,9,10,0,0,0,0,0,0,22,48,24,0,0,0,0,0,0,0,0,0,0,0,0,0,0,0,0,0,0,0,0,0,0,0,0,0,0,0,0,0,0,0,0,22,23,24,0,0,0,0,0,0,0,0,0,0,0,0,0,0,0,0,0,0,0,0,0,8,9,10,0,0,0,
0,8,9,9,10,0,0,0,25,0,0,0,0,0,0,0,0,0,0,0,0,0,0,0,0,0,0,0,0,0,0,0,0,0,0,0,0,0,0,0,0,0,0,0,0,0,0,0,0,0,0,0,0,0,0,0,0,0,0,0,0,0,0,0,0,0,0,0,0,0,8,9,10,0,0,0,
0,8,9,9,10,0,0,0,0,0,0,0,0,0,0,0,0,0,0,0,0,0,0,0,0,0,0,0,0,0,0,1,2,2,2,2,2,2,3,0,0,0,0,1,2,2,2,2,2,2,2,2,2,2,2,2,2,3,0,0,0,0,1,2,2,2,2,2,2,2,13,9,10,0,0,0,
0,8,9,9,12,2,3,0,0,0,0,0,0,0,0,0,0,0,0,0,0,0,0,0,0,0,0,0,0,0,0,8,9,9,9,9,9,9,12,2,2,2,2,13,9,9,9,9,9,9,9,9,9,9,9,9,9,12,2,2,2,2,13,9,9,9,9,9,9,9,9,9,10,0,0,0,
0,8,9,9,9,9,10,0,0,0,0,0,0,0,0,0,0,0,0,0,0,0,0,0,0,0,0,1,2,2,2,13,9,9,9,9,9,9,9,9,9,9,9,9,9,9,9,9,9,9,9,9,9,9,9,9,9,9,9,9,9,9,9,9,9,9,9,9,9,9,9,9,10,0,0,0,
0,8,9,9,9,9,12,2,2,2,2,2,2,2,2,3,0,1,2,2,2,2,2,2,2,2,2,13,9,9,9,9,9,9,9,9,9,9,9,9,9,9,9,9,9,9,9,9,9,9,9,9,9,9,9,9,9,9,9,9,9,9,9,9,9,9,9,9,9,9,9,9,10,0,0,0,
0,8,9,9,9,9,9,9,9,9,9,9,9,9,9,10,0,8,9,9,9,9,9,9,9,9,9,9,9,9,9,9,9,9,9,9,9,9,9,9,9,9,9,9,9,9,9,9,9,9,9,9,9,9,9,9,9,9,9,9,9,9,9,9,9,9,9,9,9,9,9,9,10,0,0,0,
0,15,16,16,16,16,16,16,16,16,16,16,16,16,16,17,0,15,16,16,16,16,16,16,16,16,16,16,16,16,16,16,16,16,16,16,16,16,16,16,16,16,16,16,16,16,16,16,16,16,16,16,16,16,16,16,16,16,16,16,16,16,16,16,16,16,16,16,16,16,16,16,17,0,0,0,
0,0,0,0,0,0,0,0,0,0,0,0,0,0,0,0,0,0,0,0,0,0,0,0,0,0,0,0,0,0,0,0,0,0,0,0,0,0,0,0,0,0,0,0,0,0,0,0,0,0,0,0,0,0,0,0,0,0,0,0,0,0,0,0,0,0,0,0,0,0,0,0,0,0,0,0,
0,0,0,0,0,0,0,0,0,0,0,0,0,0,0,0,0,0,0,0,0,0,0,0,0,0,0,0,0,0,0,0,0,0,0,0,0,0,0,0,0,0,0,0,0,0,0,0,0,0,0,0,0,0,0,0,0,0,0,0,0,0,0,0,0,0,0,0,0,0,0,0,0,0,0,0,
0,0,0,0,0,0,0,0,0,0,0,0,0,0,0,0,0,0,0,0,0,0,0,0,0,0,0,0,0,0,0,0,0,0,0,0,0,0,0,0,0,0,0,0,0,0,0,0,0,0,0,0,0,0,0,0,0,0,0,0,0,0,0,0,0,0,0,0,0,0,0,0,0,0,0,0
</data>
 </layer>
 <layer id="6" name="DynamicGrounds" width="76" height="22">
  <data encoding="csv">
0,0,0,0,0,0,0,0,0,0,0,0,0,0,0,0,0,0,0,0,0,0,0,0,0,0,0,0,0,0,0,0,0,0,0,0,0,0,0,0,0,0,0,0,0,0,0,0,0,0,0,0,0,0,0,0,0,0,0,0,0,0,0,0,0,0,0,0,0,0,0,0,0,0,0,0,
0,0,0,0,0,0,0,0,0,0,0,0,0,0,0,0,0,0,0,0,0,0,0,0,0,0,0,0,0,0,0,0,0,0,0,0,0,0,0,0,0,0,0,0,0,0,0,0,0,0,0,0,0,0,0,0,0,0,0,0,0,0,0,0,0,0,0,0,0,0,0,0,0,0,0,0,
0,0,0,0,0,0,0,0,0,0,0,0,0,0,0,0,0,0,0,0,0,0,0,0,0,0,0,0,0,0,0,0,0,0,0,0,0,0,0,0,0,0,0,0,0,0,0,0,0,0,0,0,0,0,0,0,0,0,0,0,0,0,0,0,0,0,0,0,0,0,0,0,0,0,0,0,
0,0,0,0,0,0,0,0,0,0,0,0,0,0,0,0,0,0,0,0,0,0,0,0,0,0,0,0,0,0,0,0,0,0,0,0,0,0,0,0,0,0,0,0,0,0,0,0,0,0,0,0,0,0,0,0,0,0,0,0,0,0,0,0,0,0,0,0,0,0,0,0,0,0,0,0,
0,0,0,0,0,0,0,0,0,0,0,0,0,0,0,0,0,0,0,0,0,0,0,0,0,0,0,0,0,0,0,0,0,0,0,0,0,0,0,0,0,0,0,0,0,0,0,0,0,0,0,0,0,0,0,0,0,0,0,0,0,0,0,0,0,0,0,0,0,0,0,0,0,0,0,0,
0,0,0,0,0,0,0,0,0,0,0,0,0,0,0,0,0,0,0,0,0,0,0,0,0,0,0,0,0,0,0,0,0,0,0,0,0,0,0,0,0,0,0,0,0,0,0,0,0,0,0,0,0,0,0,0,0,0,0,0,0,0,0,0,0,0,0,0,0,0,0,0,0,0,0,0,
0,0,0,0,0,0,0,0,0,0,0,0,0,0,0,0,0,0,0,0,0,0,0,0,0,0,0,0,0,0,0,0,0,0,0,0,0,0,0,0,0,0,0,0,0,0,0,0,0,0,0,0,0,0,0,0,0,0,0,0,0,0,0,0,0,0,0,0,0,0,0,0,0,0,0,0,
0,0,0,0,0,0,0,0,0,0,0,0,0,0,0,0,0,0,0,0,0,0,0,0,0,0,0,0,0,0,0,0,0,0,0,0,0,0,0,0,0,0,0,0,0,0,0,0,0,0,0,0,0,0,0,0,0,0,0,0,0,0,0,0,0,0,0,0,0,0,0,0,0,0,0,0,
0,0,0,0,0,0,0,0,0,0,0,0,0,0,0,0,0,0,0,0,0,0,0,0,0,0,0,0,0,0,0,0,0,0,0,0,0,0,0,0,0,0,0,0,0,0,0,0,0,0,0,0,0,0,0,0,0,0,0,0,0,0,0,0,0,0,0,0,0,0,0,0,0,0,0,0,
0,0,0,0,0,0,0,0,0,0,0,0,0,0,0,0,0,0,0,0,0,0,0,0,0,0,0,0,0,0,0,0,0,0,0,0,0,0,0,0,0,0,0,0,0,0,0,0,0,0,0,0,0,0,0,0,0,0,0,0,0,0,0,0,0,0,0,0,0,0,0,0,0,0,0,0,
0,0,0,0,0,0,0,0,0,0,0,0,0,0,0,0,0,0,0,0,0,0,0,0,0,0,0,0,0,0,0,0,0,0,0,0,0,0,0,0,0,0,0,0,0,0,0,0,0,0,0,0,0,0,0,0,0,0,0,0,0,0,0,0,0,0,0,0,0,0,0,0,0,0,0,0,
0,0,0,0,0,0,0,0,0,0,0,0,0,0,0,0,0,0,0,0,0,0,0,0,0,0,0,0,0,0,0,0,0,0,0,0,0,0,0,0,0,0,0,0,0,0,0,0,0,0,0,0,0,0,0,0,0,0,0,0,0,0,0,0,0,0,0,0,0,0,0,0,0,0,0,0,
0,0,0,0,0,0,0,0,0,0,0,0,0,0,0,0,0,0,0,0,0,0,0,0,0,0,0,0,0,0,0,0,0,0,0,0,0,0,0,0,0,0,0,0,0,0,0,0,0,0,0,0,0,0,0,0,0,0,0,0,0,0,0,0,0,0,0,0,0,0,0,0,0,0,0,0,
0,0,0,0,0,0,0,0,0,0,0,0,0,0,0,0,0,0,0,0,0,0,0,0,0,0,0,0,0,0,0,0,0,0,0,0,0,0,0,0,0,0,0,0,0,0,0,0,0,0,0,0,0,0,0,0,0,0,0,0,0,0,0,0,0,0,0,0,0,0,0,0,0,0,0,0,
0,0,0,0,0,0,0,0,0,0,0,0,0,0,0,0,0,0,0,0,0,0,0,0,0,0,0,0,0,0,0,0,0,0,0,0,0,0,0,0,0,0,0,0,0,0,0,0,0,0,0,0,0,0,0,0,0,0,0,0,0,0,0,0,0,0,0,0,0,0,0,0,0,0,0,0,
0,0,0,0,0,0,0,0,0,0,0,0,0,0,0,0,0,0,0,0,0,0,0,0,0,0,0,0,0,0,0,0,0,0,0,0,0,0,0,0,0,0,0,0,0,0,0,0,0,0,0,0,0,0,0,0,0,0,0,0,0,0,0,0,0,0,0,0,0,0,0,0,0,0,0,0,
0,0,0,0,0,0,0,0,0,0,0,0,0,0,0,0,0,0,0,0,0,0,0,0,0,0,0,0,0,0,0,0,0,0,0,0,0,0,0,0,0,0,0,0,0,0,0,0,0,0,0,0,0,0,0,0,0,0,0,0,0,0,0,0,0,0,0,0,0,0,0,0,0,0,0,0,
0,0,0,0,0,0,0,0,0,0,0,0,0,0,0,0,0,0,0,0,0,0,0,0,0,0,0,0,0,0,0,0,0,0,0,0,0,0,0,0,0,0,0,0,0,0,0,0,0,0,0,0,0,0,0,0,0,0,0,0,0,0,0,0,0,0,0,0,0,0,0,0,0,0,0,0,
0,0,0,0,0,0,0,0,0,0,0,0,0,0,0,0,0,0,0,0,0,0,0,0,0,0,0,0,0,0,0,0,0,0,0,0,0,0,0,0,0,0,0,0,0,0,0,0,0,0,0,0,0,0,0,0,0,0,0,0,0,0,0,0,0,0,0,0,0,0,0,0,0,0,0,0,
0,0,0,0,0,0,0,0,0,0,0,0,0,0,0,0,0,0,0,0,0,0,0,0,0,0,0,0,0,0,0,0,0,0,0,0,0,0,0,0,0,0,0,0,0,0,0,0,0,0,0,0,0,0,0,0,0,0,0,0,0,0,0,0,0,0,0,0,0,0,0,0,0,0,0,0,
0,0,0,0,0,0,0,0,0,0,0,0,0,0,0,0,0,0,0,0,0,0,0,0,0,0,0,0,0,0,0,0,0,0,0,0,0,0,0,0,0,0,0,0,0,0,0,0,0,0,0,0,0,0,0,0,0,0,0,0,0,0,0,0,0,0,0,0,0,0,0,0,0,0,0,0,
0,0,0,0,0,0,0,0,0,0,0,0,0,0,0,0,0,0,0,0,0,0,0,0,0,0,0,0,0,0,0,0,0,0,0,0,0,0,0,0,0,0,0,0,0,0,0,0,0,0,0,0,0,0,0,0,0,0,0,0,0,0,0,0,0,0,0,0,0,0,0,0,0,0,0,0
</data>
 </layer>
 <objectgroup draworder="index" id="23" name="DecorationsForeground">
  <object id="186" gid="77" x="1844.48" y="695.546" width="561.095" height="217.721" rotation="180"/>
  <object id="274" gid="2147483755" x="8997.78" y="1123.03" width="172" height="172" rotation="180">
   <properties>
    <property name="Animated" type="bool" value="true"/>
    <property name="Destructible" type="bool" value="true"/>
    <property name="FPS" type="float" value="30"/>
    <property name="NumFrames" type="int" value="60"/>
    <property name="Path" value="Sprites/Plants/Plant7/Plant7"/>
   </properties>
  </object>
  <object id="275" gid="1073741928" x="8903.78" y="1291.03" width="118.667" height="116">
   <properties>
    <property name="Animated" type="bool" value="true"/>
    <property name="Destructible" type="bool" value="true"/>
    <property name="FPS" type="float" value="30"/>
    <property name="NumFrames" type="int" value="60"/>
    <property name="Path" value="Sprites/Plants/Plant4/Plant4"/>
   </properties>
  </object>
  <object id="276" gid="77" x="9255.8" y="1077.97" width="433.775" height="156.721" rotation="180"/>
  <object id="256" gid="112" x="4660.67" y="674" width="208" height="208" rotation="180">
   <properties>
    <property name="Animated" type="bool" value="true"/>
    <property name="Destructible" type="bool" value="true"/>
    <property name="FPS" type="float" value="30"/>
    <property name="NumFrames" type="int" value="60"/>
    <property name="Path" value="Sprites/Plants/BlueFlower2/BlueFlower2"/>
   </properties>
  </object>
  <object id="283" gid="102" x="4913.69" y="607.447" width="247.941" height="247.941" rotation="180">
   <properties>
    <property name="Animated" type="bool" value="true"/>
    <property name="Destructible" type="bool" value="false"/>
    <property name="FPS" type="float" value="30"/>
    <property name="NumFrames" type="int" value="90"/>
    <property name="Path" value="Sprites/Plants/Plant2/Plant2"/>
   </properties>
  </object>
  <object id="284" gid="102" x="5000.07" y="613.945" width="247.941" height="247.941" rotation="180">
   <properties>
    <property name="Animated" type="bool" value="true"/>
    <property name="Destructible" type="bool" value="false"/>
    <property name="FPS" type="float" value="30"/>
    <property name="NumFrames" type="int" value="90"/>
    <property name="Path" value="Sprites/Plants/Plant2/Plant2"/>
   </properties>
  </object>
  <object id="282" gid="75" x="4951.93" y="608.775" width="518.387" height="233.231" rotation="180"/>
  <object id="285" gid="77" x="8269.88" y="674.352" width="561.095" height="217.721" rotation="180"/>
  <object id="305" gid="62" x="1751.8" y="713.028" width="148" height="377.437" rotation="180">
   <properties>
    <property name="Destructible" type="bool" value="false"/>
    <property name="WindBalance" type="bool" value="true"/>
   </properties>
  </object>
  <object id="306" gid="75" x="3967.1" y="531.869" width="659.827" height="296.867" rotation="180"/>
  <object id="307" gid="77" x="6560.42" y="665.867" width="506.429" height="196.509" rotation="180"/>
  <object id="155" gid="1073741899" x="4121.6" y="1935.24" width="539.625" height="242.786" rotation="180"/>
  <object id="202" gid="77" x="5873.51" y="2070.48" width="1186.45" height="428.66"/>
  <object id="183" gid="75" x="649.144" y="2285.83" width="529.502" height="238.231"/>
 </objectgroup>
 <objectgroup draworder="index" id="7" name="Foreground1">
  <properties>
   <property name="TextureColorB" type="int" value="0"/>
   <property name="TextureColorG" type="int" value="0"/>
   <property name="TextureColorR" type="int" value="0"/>
   <property name="TextureFactor" type="float" value="0.2"/>
  </properties>
  <object id="251" gid="62" x="6566" y="627.028" width="152" height="387.638" rotation="180">
   <properties>
    <property name="Destructible" type="bool" value="false"/>
    <property name="WindBalance" type="bool" value="true"/>
   </properties>
  </object>
 </objectgroup>
 <objectgroup draworder="index" id="8" name="Foreground2" parallaxx="1.1">
  <properties>
   <property name="TextureColorB" type="int" value="0"/>
   <property name="TextureColorG" type="int" value="0"/>
   <property name="TextureColorR" type="int" value="0"/>
   <property name="TextureFactor" type="float" value="0.2"/>
  </properties>
  <object id="200" gid="112" x="4585.54" y="1813.99" width="268" height="268">
   <properties>
    <property name="Animated" type="bool" value="true"/>
    <property name="Destructible" type="bool" value="false"/>
    <property name="FPS" type="float" value="30"/>
    <property name="NumFrames" type="int" value="60"/>
    <property name="Path" value="Sprites/Plants/BlueFlower2/BlueFlower2"/>
   </properties>
  </object>
  <object id="199" gid="102" x="5116.97" y="1859.48" width="215.95" height="215.95" rotation="30.3951">
   <properties>
    <property name="Animated" type="bool" value="true"/>
    <property name="Destructible" type="bool" value="false"/>
    <property name="FPS" type="float" value="30"/>
    <property name="NumFrames" type="int" value="90"/>
    <property name="Path" value="Sprites/Plants/Plant2/Plant2"/>
   </properties>
  </object>
  <object id="201" gid="75" x="4571.5" y="2039.99" width="759.721" height="341.811"/>
  <object id="237" gid="100" x="7827.33" y="1799.53" width="182.907" height="1170.64"/>
  <object id="218" gid="54" x="7339.4" y="2262" width="1002.64" height="553"/>
  <object id="217" gid="77" x="5578.18" y="2233.67" width="1186.45" height="428.66"/>
  <object id="161" gid="74" x="4440.65" y="2113.04" width="365.516" height="294.337"/>
  <object id="229" gid="62" x="7363.3" y="674.605" width="178" height="453.945" rotation="180">
   <properties>
    <property name="Destructible" type="bool" value="false"/>
    <property name="WindBalance" type="bool" value="true"/>
   </properties>
  </object>
  <object id="245" gid="75" x="9330.85" y="1932.25" width="741.94" height="333.811"/>
  <object id="246" gid="77" x="8385.68" y="2118.03" width="1186.45" height="428.66"/>
  <object id="271" gid="75" x="3157.25" y="2254.88" width="529.502" height="238.231"/>
  <object id="184" gid="102" x="1760.67" y="2191.97" width="215.95" height="215.95" rotation="42.4442">
   <properties>
    <property name="Animated" type="bool" value="true"/>
    <property name="Destructible" type="bool" value="false"/>
    <property name="FPS" type="float" value="30"/>
    <property name="NumFrames" type="int" value="90"/>
    <property name="Path" value="Sprites/Plants/Plant2/Plant2"/>
   </properties>
  </object>
  <object id="185" gid="102" x="1805.77" y="2249.38" width="215.95" height="215.95" rotation="44.0398">
   <properties>
    <property name="Animated" type="bool" value="true"/>
    <property name="Destructible" type="bool" value="false"/>
    <property name="FPS" type="float" value="30"/>
    <property name="NumFrames" type="int" value="90"/>
    <property name="Path" value="Sprites/Plants/Plant2/Plant2"/>
   </properties>
  </object>
  <object id="205" gid="102" x="1314.87" y="2322.28" width="215.95" height="215.95" rotation="308.664">
   <properties>
    <property name="Animated" type="bool" value="true"/>
    <property name="Destructible" type="bool" value="false"/>
    <property name="FPS" type="float" value="30"/>
    <property name="NumFrames" type="int" value="90"/>
    <property name="Path" value="Sprites/Plants/Plant2/Plant2"/>
   </properties>
  </object>
  <object id="197" gid="75" x="267.174" y="2135.69" width="759.721" height="341.811"/>
  <object id="196" gid="75" x="1242.17" y="2377.03" width="741.94" height="333.811"/>
  <object id="272" gid="74" x="2854.44" y="2376.83" width="365.516" height="294.337"/>
  <object id="301" gid="62" x="6976.82" y="680.287" width="180.667" height="460.746" rotation="180">
   <properties>
    <property name="Destructible" type="bool" value="false"/>
    <property name="WindBalance" type="bool" value="true"/>
   </properties>
  </object>
 </objectgroup>
 <objectgroup id="16" name="Light" visible="0"/>
 <objectgroup id="17" name="Brazier" visible="0"/>
 <objectgroup id="18" name="Lava" visible="0"/>
 <objectgroup id="19" name="LightningBarrier" visible="0"/>
 <objectgroup id="9" name="HookPoints" visible="0"/>
 <objectgroup id="20" name="Levers" visible="0"/>
 <objectgroup id="21" name="SpawnPoint" visible="0"/>
 <objectgroup id="11" name="Grounds" visible="0">
  <object id="1" x="896" y="2048" width="1152" height="384"/>
  <object id="2" x="2176" y="2048" width="1280" height="384"/>
  <object id="17" x="640" y="1792" width="256" height="640"/>
  <object id="18" x="3456" y="1920" width="512" height="512"/>
  <object id="19" x="3968" y="1664" width="256" height="768"/>
  <object id="24" x="4224" y="1664" width="768" height="768"/>
  <object id="25" x="5888" y="1408" width="384" height="128"/>
  <object id="26" x="6528" y="1152" width="256" height="128"/>
  <object id="27" x="7552" y="1024" width="1408" height="128"/>
  <object id="33" x="4992" y="1697" width="512" height="95">
   <properties>
    <property name="Spike" type="bool" value="true"/>
   </properties>
  </object>
  <object id="34" x="4992" y="1792" width="512" height="640"/>
  <object id="35" x="5504" y="1664" width="1920" height="768"/>
  <object id="39" x="7424" y="1697" width="512" height="95">
   <properties>
    <property name="Spike" type="bool" value="true"/>
   </properties>
  </object>
  <object id="40" x="7424" y="1792" width="512" height="640"/>
  <object id="41" x="7936" y="1664" width="1024" height="768"/>
  <object id="44" x="8960" y="1024" width="384" height="1408"/>
  <object id="45" x="8448" y="384" width="896" height="512"/>
  <object id="46" x="2176" y="384" width="6272" height="384"/>
  <object id="50" x="128" y="1024" width="512" height="1408"/>
  <object id="51" x="640" y="1024" width="640" height="128"/>
  <object id="52" x="1024" y="1536" width="128" height="128"/>
  <object id="53" x="1408" y="1408" width="128" height="128"/>
  <object id="54" x="1536" y="1280" width="128" height="256"/>
  <object id="55" x="1664" y="1408" width="128" height="128"/>
  <object id="56" x="2048" y="896" width="128" height="128"/>
  <object id="57" x="128" y="384" width="1536" height="512"/>
  <object id="58" x="1664" y="384" width="384" height="384"/>
  <object id="59" x="2432" y="1024" width="512" height="128"/>
  <object id="60" x="3200" y="1024" width="128" height="128"/>
  <object id="61" x="3712" y="1024" width="1024" height="128"/>
  <object id="62" x="4992" y="1024" width="256" height="128"/>
  <object id="66" x="5504" y="1152" width="128" height="128"/>
 </objectgroup>
 <objectgroup id="12" name="Checkpoint"/>
 <objectgroup id="13" name="Player">
  <object id="4" x="2112" y="2174" width="32" height="32">
   <properties>
    <property name="EnteringLevelSpeedX" type="float" value="700"/>
    <property name="EnteringLevelSpeedY" type="float" value="-1200"/>
    <property name="EnteringOffset" type="float" value="64"/>
    <property name="StartPositionId" type="int" value="0"/>
   </properties>
  </object>
  <object id="47" name="Player" x="9128" y="1003" width="32" height="32">
   <properties>
    <property name="EnteringLevelSpeedX" type="float" value="-700"/>
    <property name="EnteringLevelSpeedY" type="float" value="0"/>
    <property name="StartPositionId" type="int" value="3"/>
   </properties>
  </object>
  <object id="68" name="Player" x="464" y="1005" width="32" height="32">
   <properties>
    <property name="EnteringLevelSpeedX" type="float" value="700"/>
    <property name="EnteringLevelSpeedY" type="float" value="0"/>
    <property name="StartPositionId" type="int" value="1"/>
   </properties>
  </object>
  <object id="70" name="Player" x="2112" y="575" width="32" height="32">
   <properties>
    <property name="StartPositionId" type="int" value="2"/>
   </properties>
  </object>
 </objectgroup>
 <objectgroup id="14" name="Enemies">
  <object id="21" name="Flying Enemy" x="3064" y="1698" width="32" height="32"/>
  <object id="22" name="Enemy Simple" x="3009.27" y="2030.36" width="32" height="32"/>
  <object id="43" name="OrangeSlime" x="7908" y="1008" width="32" height="32"/>
  <object id="72" name="Mushroom" x="4173.33" y="1008.67" width="32" height="32"/>
 </objectgroup>
 <objectgroup id="22" name="CameraBounds" visible="0">
  <object id="71" x="512" y="572" width="8568" height="1604"/>
 </objectgroup>
</map>
