<?xml version="1.0" encoding="UTF-8"?>
<map version="1.10" tiledversion="1.11.2" orientation="orthogonal" renderorder="right-down" width="15" height="12" tilewidth="128" tileheight="128" infinite="0" nextlayerid="25" nextobjectid="333">
 <editorsettings>
  <export target="Irmaos Gancho.json" format="json"/>
 </editorsettings>
 <properties>
  <property name="BackgroundLayers" value="FundoCinzaKaren.png"/>
  <property name="GroundBehindPlayer" type="bool" value="true"/>
  <property name="GroundParticleColor" type="color" value="#ff735951"/>
  <property name="Music" value="Greenpath.wav"/>
  <property name="UseGrassParticle" type="bool" value="false"/>
  <property name="UseGroundPadding" type="bool" value="false"/>
 </properties>
 <tileset firstgid="1" source="../../Sprites/BrownCave2/BrownCaveDecorations.tsx"/>
 <tileset firstgid="102" source="../../Sprites/BrownCavePlants2/BrownCavePlants.tsx"/>
 <objectgroup id="2" name="AmbientParticleArea" visible="0">
  <object id="249" x="0" y="0" width="1920" height="1536">
   <properties>
    <property name="ColorB" type="int" value="48"/>
    <property name="ColorG" type="int" value="41"/>
    <property name="ColorR" type="int" value="50"/>
    <property name="EmitRate" type="float" value="7"/>
   </properties>
  </object>
 </objectgroup>
 <objectgroup id="15" name="Camera" visible="0">
  <object id="248" x="0" y="128" width="1920" height="1280">
   <properties>
    <property name="Event" value="FollowPlayerLimited"/>
    <property name="LimitMaxCameraPositionX" type="float" value="1920"/>
    <property name="LimitMaxCameraPositionY" type="float" value="1336"/>
    <property name="LimitMinCameraPositionX" type="float" value="0"/>
    <property name="LimitMinCameraPositionY" type="float" value="256"/>
    <property name="Target" value="Camera"/>
   </properties>
  </object>
 </objectgroup>
 <objectgroup id="10" name="Triggers" visible="0"/>
 <objectgroup draworder="index" id="3" name="Background1" parallaxx="0.95">
  <properties>
   <property name="TextureColorB" type="int" value="9"/>
   <property name="TextureColorG" type="int" value="32"/>
   <property name="TextureColorR" type="int" value="33"/>
   <property name="TextureFactor" type="float" value="0.4"/>
  </properties>
 </objectgroup>
 <objectgroup draworder="index" id="4" name="Background2">
  <properties>
   <property name="TextureColorB" type="int" value="46"/>
   <property name="TextureColorG" type="int" value="41"/>
   <property name="TextureColorR" type="int" value="46"/>
   <property name="TextureFactor" type="float" value="0.35"/>
  </properties>
  <object id="229" gid="57" x="721.091" y="507.51" width="375.941" height="206.973" rotation="111.245"/>
  <object id="228" gid="57" x="780.555" y="304.752" width="375.941" height="206.973" rotation="108.345"/>
  <object id="230" gid="56" x="626.618" y="748.806" width="330.542" height="219.626" rotation="110.467"/>
  <object id="231" gid="49" x="708.158" y="647.13" width="299.74" height="184.25" rotation="296.521"/>
  <object id="314" gid="30" x="297.807" y="817.658" width="285.127" height="36.2578" rotation="334.819"/>
  <object id="313" gid="31" x="155.453" y="869.773" width="430.367" height="65.3061" rotation="348.955"/>
  <object id="232" gid="54" x="647.769" y="879.517" width="363.06" height="222.773" rotation="290.984"/>
  <object id="233" gid="57" x="511.651" y="1250.06" width="443.275" height="244.043" rotation="292.863"/>
  <object id="234" gid="49" x="689.852" y="948.87" width="312.779" height="192.265" rotation="128.647"/>
  <object id="287" gid="9" x="1320" y="1105" width="170.667" height="529.204"/>
  <object id="152" gid="50" x="1346.57" y="1058.99" width="129.092" height="127.625" rotation="0.838273"/>
  <object id="238" gid="45" x="1235.24" y="1201.45" width="321.667" height="208.333"/>
  <object id="285" gid="57" x="1033.54" y="1132.83" width="287.595" height="158.335"/>
  <object id="268" gid="90" x="1379" y="1163" width="370" height="377.486"/>
  <object id="243" gid="57" x="884.364" y="1176" width="287.595" height="158.335"/>
  <object id="237" gid="7" x="1067.15" y="1229.64" width="365.477" height="207.121"/>
  <object id="262" gid="102" x="112" y="-88" width="73" height="95">
   <properties>
    <property name="Animated" type="bool" value="true"/>
    <property name="Destructible" type="bool" value="false"/>
    <property name="FPS" type="float" value="0"/>
    <property name="NumFrames" type="int" value="15"/>
    <property name="Path" value="Sprites/BrownCavePlants2/Plant01/Plant01"/>
    <property name="WindBalance" type="bool" value="true"/>
   </properties>
  </object>
  <object id="263" gid="103" x="228" y="-98" width="96" height="84">
   <properties>
    <property name="Animated" type="bool" value="true"/>
    <property name="Destructible" type="bool" value="false"/>
    <property name="FPS" type="float" value="8"/>
    <property name="NumFrames" type="int" value="15"/>
    <property name="Path" value="Sprites/BrownCavePlants2/Plant02/Plant02"/>
    <property name="WindBalance" type="bool" value="false"/>
   </properties>
  </object>
  <object id="264" gid="104" x="415" y="-79" width="122" height="153">
   <properties>
    <property name="Animated" type="bool" value="true"/>
    <property name="Destructible" type="bool" value="false"/>
    <property name="FPS" type="float" value="0"/>
    <property name="NumFrames" type="int" value="15"/>
    <property name="Path" value="Sprites/BrownCavePlants2/Plant03/Plant03"/>
    <property name="WindBalance" type="bool" value="true"/>
   </properties>
  </object>
  <object id="265" gid="105" x="607" y="-64" width="123" height="184">
   <properties>
    <property name="Animated" type="bool" value="true"/>
    <property name="Destructible" type="bool" value="false"/>
    <property name="FPS" type="float" value="8"/>
    <property name="NumFrames" type="int" value="15"/>
    <property name="Path" value="Sprites/BrownCavePlants2/Plant04/Plant04"/>
    <property name="WindBalance" type="bool" value="false"/>
   </properties>
  </object>
  <object id="266" gid="106" x="813" y="-55" width="137.545" height="158">
   <properties>
    <property name="Animated" type="bool" value="true"/>
    <property name="Destructible" type="bool" value="false"/>
    <property name="FPS" type="float" value="8"/>
    <property name="NumFrames" type="int" value="20"/>
    <property name="Path" value="Sprites/BrownCavePlants2/Plant05/Plant05"/>
    <property name="WindBalance" type="bool" value="false"/>
   </properties>
  </object>
  <object id="267" gid="107" x="1023.52" y="-83.9394" width="152" height="107">
   <properties>
    <property name="Animated" type="bool" value="true"/>
    <property name="Destructible" type="bool" value="false"/>
    <property name="FPS" type="float" value="8"/>
    <property name="NumFrames" type="int" value="15"/>
    <property name="Path" value="Sprites/BrownCavePlants2/Plant06/Plant06"/>
    <property name="WindBalance" type="bool" value="false"/>
   </properties>
  </object>
  <object id="292" gid="3221225533" x="976.333" y="856.333" width="99" height="172.163"/>
  <object id="294" gid="1073741885" x="1055.83" y="855.918" width="99" height="172.163"/>
  <object id="293" gid="3221225533" x="1020.5" y="849.252" width="99" height="172.163"/>
  <object id="70" gid="2147483670" x="972.667" y="643.333" width="114.5" height="181" rotation="90"/>
  <object id="284" gid="56" x="569.396" y="947.52" width="330.542" height="219.626" rotation="110.467"/>
  <object id="291" gid="2147483753" x="1791.33" y="522.5" width="60.6667" height="90.7534" rotation="180">
   <properties>
    <property name="Animated" type="bool" value="true"/>
    <property name="Destructible" type="bool" value="false"/>
    <property name="FPS" type="float" value="0"/>
    <property name="NumFrames" type="int" value="15"/>
    <property name="Path" value="Sprites/BrownCavePlants2/Plant04/Plant04"/>
    <property name="WindBalance" type="bool" value="false"/>
   </properties>
  </object>
  <object id="323" gid="60" x="1871.71" y="668.582" width="98.5822" height="150.837" rotation="270"/>
  <object id="289" gid="19" x="1678.24" y="474.959" width="207.23" height="60.2263" rotation="51.2079"/>
  <object id="290" gid="19" x="1582.91" y="362.796" width="235.029" height="68.3054" rotation="51.2079"/>
  <object id="295" gid="72" x="965.667" y="754" width="83.1882" height="73.6667"/>
  <object id="296" gid="72" x="1077.74" y="761.167" width="83.1882" height="73.6667"/>
  <object id="297" gid="2147483720" x="1021.07" y="763.167" width="83.1882" height="73.6667"/>
  <object id="298" gid="104" x="1698.83" y="481.167" width="70.1699" height="88">
   <properties>
    <property name="Animated" type="bool" value="true"/>
    <property name="Destructible" type="bool" value="false"/>
    <property name="FPS" type="float" value="0"/>
    <property name="NumFrames" type="int" value="15"/>
    <property name="Path" value="Sprites/BrownCavePlants2/Plant03/Plant03"/>
    <property name="WindBalance" type="bool" value="false"/>
   </properties>
  </object>
  <object id="300" gid="74" x="228.694" y="1172.67" width="109.972" height="71.3333"/>
  <object id="299" gid="73" x="162.667" y="1179.33" width="131.768" height="94"/>
  <object id="302" gid="74" x="110.014" y="1172.33" width="109.972" height="71.3333"/>
  <object id="308" gid="54" x="723.116" y="1204" width="236.311" height="145"/>
  <object id="309" gid="91" x="530" y="1172" width="319.637" height="310"/>
  <object id="311" gid="27" x="117" y="964.319" width="100" height="289.362"/>
  <object id="310" gid="27" x="67" y="1003" width="100" height="289.362"/>
  <object id="312" gid="27" x="71.8897" y="939.319" width="103.11" height="298.362"/>
  <object id="315" gid="35" x="1478.33" y="1208.33" width="364.222" height="150"/>
  <object id="321" gid="60" x="1876.5" y="776.42" width="98.5822" height="150.837" rotation="270"/>
  <object id="322" gid="60" x="1899.71" y="711.582" width="98.5822" height="150.837" rotation="270"/>
 </objectgroup>
 <objectgroup draworder="index" id="5" name="Decorations">
  <object id="257" gid="107" x="591.333" y="1164.67" width="152" height="107">
   <properties>
    <property name="Animated" type="bool" value="true"/>
    <property name="Destructible" type="bool" value="false"/>
    <property name="FPS" type="float" value="8"/>
    <property name="NumFrames" type="int" value="15"/>
    <property name="Path" value="Sprites/BrownCavePlants2/Plant06/Plant06"/>
    <property name="WindBalance" type="bool" value="false"/>
   </properties>
  </object>
  <object id="162" gid="16" x="721.333" y="1200" width="552.444" height="58.6667"/>
  <object id="222" gid="101" x="1814" y="1408" width="106" height="1152"/>
  <object id="225" gid="23" x="1730.33" y="1281.33" width="114.5" height="181.5"/>
  <object id="163" gid="16" x="1233.33" y="1200" width="552.444" height="58.6667"/>
  <object id="250" gid="103" x="1365.33" y="1192" width="104.381" height="91.3333">
   <properties>
    <property name="Animated" type="bool" value="true"/>
    <property name="Destructible" type="bool" value="false"/>
    <property name="FPS" type="float" value="7"/>
    <property name="NumFrames" type="int" value="15"/>
    <property name="Path" value="Sprites/BrownCavePlants2/Plant02/Plant02"/>
    <property name="WindBalance" type="bool" value="false"/>
   </properties>
  </object>
  <object id="119" gid="25" x="1664" y="1280" width="184.5" height="117.5"/>
  <object id="260" gid="16" x="-328.222" y="1201.67" width="552.444" height="58.6667"/>
  <object id="160" gid="16" x="209.333" y="1200" width="552.444" height="58.6667"/>
  <object id="252" gid="2147483750" x="419.333" y="1188" width="73" height="95">
   <properties>
    <property name="Animated" type="bool" value="true"/>
    <property name="Destructible" type="bool" value="false"/>
    <property name="FPS" type="float" value="0"/>
    <property name="NumFrames" type="int" value="15"/>
    <property name="Path" value="Sprites/BrownCavePlants2/Plant01/Plant01"/>
    <property name="WindBalance" type="bool" value="true"/>
   </properties>
  </object>
  <object id="113" gid="101" x="0" y="1265.09" width="103.394" height="1009.09"/>
  <object id="53" gid="25" x="128" y="1280" width="184.5" height="117.5"/>
  <object id="54" gid="25" x="256" y="1280" width="184.5" height="117.5"/>
  <object id="55" gid="25" x="384" y="1280" width="184.5" height="117.5"/>
  <object id="56" gid="25" x="512" y="1280" width="184.5" height="117.5"/>
  <object id="57" gid="25" x="640" y="1280" width="184.5" height="117.5"/>
  <object id="58" gid="25" x="768" y="1280" width="184.5" height="117.5"/>
  <object id="59" gid="25" x="896" y="1280" width="184.5" height="117.5"/>
  <object id="60" gid="25" x="1024" y="1280" width="184.5" height="117.5"/>
  <object id="61" gid="25" x="1152" y="1280" width="184.5" height="117.5"/>
  <object id="62" gid="25" x="1280" y="1280" width="184.5" height="117.5"/>
  <object id="63" gid="25" x="1408" y="1280" width="184.5" height="117.5"/>
  <object id="71" gid="22" x="5" y="1152" width="114.5" height="181"/>
  <object id="72" gid="22" x="5" y="1024" width="114.5" height="181"/>
  <object id="74" gid="22" x="5" y="899" width="114.5" height="181"/>
  <object id="93" gid="24" x="256" y="384" width="187.5" height="120"/>
  <object id="94" gid="24" x="384" y="384" width="187.5" height="120"/>
  <object id="95" gid="24" x="512" y="384" width="187.5" height="120"/>
  <object id="96" gid="24" x="640" y="384" width="187.5" height="120"/>
  <object id="97" gid="24" x="768" y="384" width="187.5" height="120"/>
  <object id="98" gid="24" x="896" y="384" width="187.5" height="120"/>
  <object id="99" gid="24" x="1024" y="384" width="187.5" height="120"/>
  <object id="100" gid="24" x="1152" y="384" width="187.5" height="120"/>
  <object id="101" gid="24" x="1280" y="384" width="187.5" height="120"/>
  <object id="102" gid="24" x="1408" y="384" width="187.5" height="120"/>
  <object id="103" gid="101" x="0" y="1536" width="1920" height="280"/>
  <object id="118" gid="25" x="1536" y="1280" width="184.5" height="117.5"/>
  <object id="136" gid="24" x="1664" y="384" width="187.5" height="120"/>
  <object id="135" gid="24" x="1536" y="384" width="187.5" height="120"/>
  <object id="148" gid="101" x="0" y="279.33" width="1920" height="279.333"/>
  <object id="153" gid="101" x="98" y="1272" width="64" height="64"/>
  <object id="207" gid="22" x="5" y="771" width="114.5" height="181"/>
  <object id="208" gid="22" x="5" y="643" width="114.5" height="181"/>
  <object id="210" gid="24" x="128" y="384" width="187.5" height="120"/>
  <object id="212" gid="22" x="5" y="515" width="114.5" height="181"/>
  <object id="214" gid="23" x="1800" y="1152" width="114.5" height="181.5"/>
  <object id="217" gid="23" x="1800" y="1024" width="114.5" height="181.5"/>
  <object id="218" gid="23" x="1800" y="896" width="114.5" height="181.5"/>
  <object id="219" gid="23" x="1800" y="640" width="114.5" height="181.5"/>
  <object id="220" gid="23" x="1800" y="768" width="114.5" height="181.5"/>
  <object id="221" gid="23" x="1800" y="512" width="114.5" height="181.5"/>
  <object id="227" gid="48" x="1786.89" y="1327.29" width="262.038" height="168.727" rotation="318.015"/>
  <object id="38" gid="25" x="88" y="1280" width="184.5" height="117.5"/>
  <object id="259" gid="22" x="5" y="1295.5" width="114.5" height="181"/>
  <object id="271" gid="24" x="58.25" y="384" width="187.5" height="120"/>
  <object id="261" gid="22" x="5" y="379.5" width="114.5" height="181"/>
  <object id="301" gid="103" x="200.81" y="1162.33" width="109.381" height="95.7083">
   <properties>
    <property name="Animated" type="bool" value="true"/>
    <property name="Destructible" type="bool" value="false"/>
    <property name="FPS" type="float" value="7"/>
    <property name="NumFrames" type="int" value="15"/>
    <property name="Path" value="Sprites/BrownCavePlants2/Plant02/Plant02"/>
    <property name="WindBalance" type="bool" value="false"/>
   </properties>
  </object>
  <object id="329" gid="2147483696" x="-87.5068" y="1193.52" width="262.038" height="168.727" rotation="41.3005"/>
 </objectgroup>
 <layer id="1" name="Camada de Blocos 1" width="15" height="12">
  <data encoding="csv">
0,0,0,0,0,0,0,0,0,0,0,0,0,0,0,
0,0,0,0,0,0,0,0,0,0,0,0,0,0,0,
0,0,0,0,0,0,0,0,0,0,0,0,0,0,0,
0,0,0,0,0,0,0,0,0,0,0,0,0,0,0,
0,0,0,0,0,0,0,0,0,0,0,0,0,0,0,
0,0,0,0,0,0,0,0,0,0,0,0,0,0,0,
0,0,0,0,0,0,0,0,0,0,0,0,0,0,0,
0,0,0,0,0,0,0,0,0,0,0,0,0,0,0,
0,0,0,0,0,0,0,0,0,0,0,0,0,0,0,
0,0,0,0,0,0,0,0,0,0,0,0,0,0,0,
0,0,0,0,0,0,0,0,0,0,0,0,0,0,0,
0,0,0,0,0,0,0,0,0,0,0,0,0,0,0
</data>
 </layer>
 <layer id="6" name="DynamicGrounds" width="15" height="12">
  <data encoding="csv">
0,0,0,0,0,0,0,0,0,0,0,0,0,0,0,
0,0,0,0,0,0,0,0,0,0,0,0,0,0,0,
0,0,0,0,0,0,0,0,0,0,0,0,0,0,0,
0,0,0,0,0,0,0,0,0,0,0,0,0,0,0,
0,0,0,0,0,0,0,0,0,0,0,0,0,0,0,
0,0,0,0,0,0,0,0,0,0,0,0,0,0,0,
0,0,0,0,0,0,0,0,0,0,0,0,0,0,0,
0,0,0,0,0,0,0,0,0,0,0,0,0,0,0,
0,0,0,0,0,0,0,0,0,0,0,0,0,0,0,
0,0,0,0,0,0,0,0,0,0,0,0,0,0,0,
0,0,0,0,0,0,0,0,0,0,0,0,0,0,0,
0,0,0,0,0,0,0,0,0,0,0,0,0,0,0
</data>
 </layer>
 <objectgroup draworder="index" id="24" name="DecorationsForeground">
  <object id="240" gid="58" x="43.697" y="531.576" width="493" height="380"/>
  <object id="306" gid="55" x="759.444" y="250.135" width="309.944" height="160.731" rotation="180"/>
  <object id="270" gid="1073741839" x="-71" y="366" width="434" height="151"/>
  <object id="273" gid="1073741839" x="147" y="360.5" width="434" height="151"/>
  <object id="305" gid="55" x="1109" y="230" width="443" height="229.731" rotation="180"/>
  <object id="282" gid="19" x="1270.1" y="1122.05" width="203.795" height="59.2281" rotation="90"/>
  <object id="281" gid="19" x="1267.1" y="961.053" width="203.795" height="59.2281" rotation="90"/>
  <object id="279" gid="19" x="1264.73" y="812.091" width="203.795" height="59.2281" rotation="90"/>
  <object id="274" gid="19" x="1260.76" y="667.38" width="231.134" height="67.1733" rotation="90"/>
  <object id="275" gid="19" x="1257.87" y="501.614" width="255.692" height="74.3105" rotation="90"/>
  <object id="276" gid="19" x="1254.62" y="344.558" width="280.611" height="81.5524" rotation="90"/>
  <object id="303" gid="2147483754" x="1244.56" y="398.333" width="74.8783" height="86.0139" rotation="180">
   <properties>
    <property name="Animated" type="bool" value="true"/>
    <property name="Destructible" type="bool" value="false"/>
    <property name="FPS" type="float" value="8"/>
    <property name="NumFrames" type="int" value="20"/>
    <property name="Path" value="Sprites/BrownCavePlants2/Plant05/Plant05"/>
    <property name="WindBalance" type="bool" value="false"/>
   </properties>
  </object>
  <object id="269" gid="1073741872" x="1159.54" y="451.682" width="182.774" height="117.689"/>
  <object id="277" gid="1073741872" x="1213.18" y="418.577" width="182.774" height="117.688"/>
  <object id="278" gid="3221225520" x="1115.05" y="389.22" width="182.774" height="117.688"/>
  <object id="280" gid="22" x="1374.42" y="1325.17" width="114.5" height="181" rotation="270"/>
  <object id="304" gid="106" x="1371.89" y="378.326" width="54.2116" height="62.2738" rotation="180">
   <properties>
    <property name="Animated" type="bool" value="true"/>
    <property name="Destructible" type="bool" value="false"/>
    <property name="FPS" type="float" value="8"/>
    <property name="NumFrames" type="int" value="20"/>
    <property name="Path" value="Sprites/BrownCavePlants2/Plant05/Plant05"/>
    <property name="WindBalance" type="bool" value="false"/>
   </properties>
  </object>
  <object id="307" gid="3221225520" x="1210.61" y="354.156" width="182.774" height="117.688"/>
 </objectgroup>
 <objectgroup draworder="index" id="7" name="Foreground1">
  <properties>
   <property name="TextureColorB" type="int" value="0"/>
   <property name="TextureColorG" type="int" value="0"/>
   <property name="TextureColorR" type="int" value="0"/>
   <property name="TextureFactor" type="float" value="0.1"/>
  </properties>
  <object id="251" gid="102" x="1711.41" y="1247.02" width="130.929" height="170.387">
   <properties>
    <property name="Animated" type="bool" value="true"/>
    <property name="Destructible" type="bool" value="false"/>
    <property name="FPS" type="float" value="0"/>
    <property name="NumFrames" type="int" value="15"/>
    <property name="Path" value="Sprites/BrownCavePlants2/Plant01/Plant01"/>
    <property name="WindBalance" type="bool" value="true"/>
   </properties>
  </object>
  <object id="283" gid="22" x="1494.09" y="1322.06" width="88.1961" height="139.419" rotation="270"/>
  <object id="223" gid="57" x="1546.68" y="1343.88" width="373.475" height="205.615"/>
  <object id="236" gid="2147483739" x="27.3333" y="1348.42" width="265.762" height="257.749"/>
  <object id="241" gid="5" x="1955.47" y="339.382" width="257" height="213" rotation="223.348"/>
  <object id="256" gid="1073741883" x="1328" y="506.692" width="456.835" height="462.692"/>
  <object id="324" gid="57" x="253.263" y="1391.19" width="398.904" height="219.615"/>
  <object id="325" gid="57" x="579.263" y="1385.19" width="373.475" height="205.615"/>
  <object id="328" gid="51" x="871" y="1325" width="179.73" height="150"/>
  <object id="326" gid="57" x="865.263" y="1405.19" width="373.475" height="205.615"/>
  <object id="327" gid="52" x="531.397" y="1377" width="246.603" height="218"/>
 </objectgroup>
 <objectgroup draworder="index" id="8" name="Foreground2" parallaxx="1.1">
  <properties>
   <property name="TextureColorB" type="int" value="0"/>
   <property name="TextureColorG" type="int" value="0"/>
   <property name="TextureColorR" type="int" value="0"/>
   <property name="TextureFactor" type="float" value="0.1"/>
  </properties>
 </objectgroup>
 <objectgroup id="16" name="Light" visible="0"/>
 <objectgroup id="17" name="Brazier" visible="0"/>
 <objectgroup id="18" name="Lava" visible="0"/>
 <objectgroup id="19" name="LightningBarrier" visible="0"/>
 <objectgroup id="9" name="HookPoints">
  <object id="331" x="500" y="717.333" width="32" height="32"/>
  <object id="332" x="1362.67" y="752.667" width="32" height="32"/>
 </objectgroup>
 <objectgroup id="20" name="Levers" visible="0"/>
 <objectgroup id="21" name="SpawnPoint" visible="0"/>
 <objectgroup id="11" name="Grounds" visible="0">
  <object id="117" x="112" y="1154" width="1693.15" height="380"/>
  <object id="195" x="0" y="-2.60606" width="111.334" height="1538.61"/>
  <object id="200" x="1806.81" y="0.966364" width="113.667" height="1532"/>
  <object id="201" x="112.258" y="0.67" width="1694.11" height="372"/>
 </objectgroup>
 <objectgroup id="12" name="Checkpoint" visible="0"/>
 <objectgroup id="13" name="Player">
  <object id="65" name="Player" x="918" y="1133" width="32" height="32">
   <properties>
    <property name="StartPositionId" type="int" value="0"/>
   </properties>
  </object>
 </objectgroup>
 <objectgroup id="14" name="Enemies">
  <object id="286" name="HookEnemy" x="1486.95" y="1038.62" width="32" height="32">
   <properties>
    <property name="MaxPosX" type="float" value="1792"/>
    <property name="MaxPosY" type="float" value="1152"/>
    <property name="MinPosX" type="float" value="128"/>
    <property name="MinPosY" type="float" value="384"/>
   </properties>
  </object>
  <object id="330" name="HookEnemy" x="405.667" y="1038.33" width="32" height="32">
   <properties>
    <property name="MaxPosX" type="float" value="1792"/>
    <property name="MaxPosY" type="float" value="1152"/>
    <property name="MinPosX" type="float" value="128"/>
    <property name="MinPosY" type="float" value="384"/>
   </properties>
  </object>
 </objectgroup>
 <objectgroup id="22" name="CameraBounds">
  <object id="36" x="0" y="0" width="1920" height="1536"/>
 </objectgroup>
</map>
