<?xml version="1.0" encoding="UTF-8"?>
<map version="1.10" tiledversion="1.11.2" orientation="orthogonal" renderorder="right-down" width="44" height="18" tilewidth="128" tileheight="128" infinite="0" nextlayerid="24" nextobjectid="93">
 <editorsettings>
  <export target="Forest9.json" format="json"/>
 </editorsettings>
 <properties>
  <property name="BackgroundLayers" value="DarkForest/4.png"/>
  <property name="GroundBehindPlayer" type="bool" value="false"/>
  <property name="GroundParticleColor" type="color" value="#ff3a9359"/>
  <property name="Music" value="Greenpath.wav"/>
  <property name="UseGrassParticle" type="bool" value="true"/>
  <property name="UseGroundPadding" type="bool" value="true"/>
 </properties>
 <tileset firstgid="1" source="../../Tilesets/Mossy/MossyTileSet.tsx"/>
 <tileset firstgid="50" source="../../Sprites/MossyBackgrounds3/MossyDecorations.tsx"/>
 <tileset firstgid="101" source="../../Sprites/MossyPlants2/MossyPlants.tsx"/>
 <objectgroup id="2" name="AmbientParticleArea"/>
 <objectgroup id="15" name="Camera">
  <object id="16" x="2048" y="1188" width="1024" height="732">
   <properties>
    <property name="Condition" value="!Forest9ArenaDone"/>
    <property name="Event" value="FollowPlayerLimited"/>
    <property name="LimitMaxCameraPositionX" type="float" value="3584"/>
    <property name="LimitMaxCameraPositionY" type="float" value="2176"/>
    <property name="LimitMinCameraPositionX" type="float" value="1664"/>
    <property name="LimitMinCameraPositionY" type="float" value="1096"/>
    <property name="Target" value="Camera"/>
   </properties>
  </object>
  <object id="22" x="3584" y="1204" width="2048" height="1100">
   <properties>
    <property name="Event" value="FollowPlayerLimited"/>
    <property name="LimitMaxCameraPositionX" type="float" value="5504"/>
    <property name="LimitMaxCameraPositionY" type="float" value="2176"/>
    <property name="LimitMinCameraPositionX" type="float" value="128"/>
    <property name="LimitMinCameraPositionY" type="float" value="1096"/>
    <property name="Target" value="Camera"/>
   </properties>
  </object>
  <object id="28" x="0" y="0" width="1152" height="1492">
   <properties>
    <property name="Event" value="FollowPlayerLimited"/>
    <property name="LimitMaxCameraPositionX" type="float" value="5504"/>
    <property name="LimitMaxCameraPositionY" type="float" value="2176"/>
    <property name="LimitMinCameraPositionX" type="float" value="128"/>
    <property name="LimitMinCameraPositionY" type="float" value="128"/>
    <property name="Target" value="Camera"/>
   </properties>
  </object>
  <object id="36" x="1280" y="0" width="3072" height="1024">
   <properties>
    <property name="Event" value="FollowPlayerLimited"/>
    <property name="LimitMaxCameraPositionX" type="float" value="5504"/>
    <property name="LimitMaxCameraPositionY" type="float" value="1208"/>
    <property name="LimitMinCameraPositionX" type="float" value="128"/>
    <property name="LimitMinCameraPositionY" type="float" value="128"/>
    <property name="Target" value="Camera"/>
   </properties>
  </object>
  <object id="37" x="4480" y="640" width="1152" height="512">
   <properties>
    <property name="Event" value="FollowPlayerLimited"/>
    <property name="LimitMaxCameraPositionX" type="float" value="5504"/>
    <property name="LimitMaxCameraPositionY" type="float" value="2176"/>
    <property name="LimitMinCameraPositionX" type="float" value="128"/>
    <property name="LimitMinCameraPositionY" type="float" value="640"/>
    <property name="Target" value="Camera"/>
   </properties>
  </object>
  <object id="47" x="0" y="1536" width="3584" height="768">
   <properties>
    <property name="Condition" value="Forest9ArenaDone"/>
    <property name="Event" value="FollowPlayerLimited"/>
    <property name="LimitMaxCameraPositionX" type="float" value="5504"/>
    <property name="LimitMaxCameraPositionY" type="float" value="2176"/>
    <property name="LimitMinCameraPositionX" type="float" value="128"/>
    <property name="LimitMinCameraPositionY" type="float" value="1096"/>
    <property name="Target" value="Camera"/>
   </properties>
  </object>
  <object id="60" x="1408" y="1152" width="294" height="768">
   <properties>
    <property name="Event" value="FollowPlayerLimited"/>
    <property name="LimitMaxCameraPositionX" type="float" value="5760"/>
    <property name="LimitMaxCameraPositionY" type="float" value="2432"/>
    <property name="LimitMinCameraPositionX" type="float" value="384"/>
    <property name="LimitMinCameraPositionY" type="float" value="1352"/>
    <property name="Target" value="Camera"/>
   </properties>
  </object>
 </objectgroup>
 <objectgroup id="10" name="Triggers">
  <object id="8" x="2304" y="1152" width="512" height="768">
   <properties>
    <property name="Condition" value="!Forest9ArenaDone"/>
    <property name="Destroy" type="bool" value="true"/>
    <property name="Event" value="StartArena"/>
    <property name="Target" value="Game"/>
    <property name="Waves" value="Forest9Arena"/>
   </properties>
  </object>
  <object id="89" x="5584" y="1664" width="48" height="384">
   <properties>
    <property name="Destroy" type="bool" value="true"/>
    <property name="Event" value="ChangeScene"/>
    <property name="PlayerStartPositionId" type="int" value="1"/>
    <property name="Scene" value="Forest8/Forest8"/>
    <property name="Target" value="Game"/>
   </properties>
  </object>
  <object id="91" x="5584" y="896" width="48" height="384">
   <properties>
    <property name="Destroy" type="bool" value="true"/>
    <property name="Event" value="ChangeScene"/>
    <property name="PlayerStartPositionId" type="int" value="2"/>
    <property name="Scene" value="Forest8/Forest8"/>
    <property name="Target" value="Game"/>
   </properties>
  </object>
 </objectgroup>
 <objectgroup draworder="index" id="3" name="Background1" parallaxx="0.95">
  <properties>
   <property name="TextureColorB" type="int" value="69"/>
   <property name="TextureColorG" type="int" value="65"/>
   <property name="TextureColorR" type="int" value="22"/>
   <property name="TextureFactor" type="float" value="0.3"/>
  </properties>
  <object id="84" gid="71" x="1861.71" y="952.65" width="170.49" height="210.642"/>
  <object id="85" gid="66" x="2338.19" y="898.27" width="218.836" height="605.066"/>
  <object id="86" gid="71" x="2386.6" y="951.84" width="205.648" height="254.079"/>
  <object id="87" gid="80" x="2032.11" y="807.86" width="64.1377" height="135.517" rotation="335.127">
   <properties>
    <property name="Destructible" type="bool" value="false"/>
    <property name="WindBalance" type="bool" value="true"/>
   </properties>
  </object>
  <object id="88" gid="96" x="1949.76" y="926.91" width="532.899" height="456.219"/>
 </objectgroup>
 <objectgroup draworder="index" id="4" name="Background2">
  <properties>
   <property name="TextureColorB" type="int" value="107"/>
   <property name="TextureColorG" type="int" value="101"/>
   <property name="TextureColorR" type="int" value="22"/>
   <property name="TextureFactor" type="float" value="0.5"/>
  </properties>
 </objectgroup>
 <objectgroup draworder="index" id="5" name="Decorations">
  <object id="52" gid="93" x="1310.33" y="1042.33" width="367" height="341.028"/>
  <object id="51" gid="92" x="1312.37" y="1043.33" width="497.625" height="335"/>
 </objectgroup>
 <layer id="1" name="Camada de Blocos 1" width="44" height="18">
  <data encoding="csv">
1,2,2,2,2,2,2,2,2,2,2,2,2,2,2,2,2,2,2,2,2,2,2,2,2,2,2,2,2,2,2,2,2,2,2,2,2,2,2,2,2,2,2,3,
8,5,16,16,16,16,16,16,16,16,16,16,16,16,16,16,16,16,16,16,16,16,16,16,16,16,16,16,16,16,16,16,16,16,16,6,9,9,9,9,9,9,9,10,
8,10,0,0,0,0,0,0,0,0,0,0,0,0,0,0,0,0,0,0,0,0,0,0,0,0,0,0,0,0,0,0,0,0,0,8,9,9,9,9,9,9,9,10,
8,10,0,0,0,0,0,0,0,0,0,0,0,0,0,0,0,0,0,0,0,0,0,0,0,0,0,0,0,0,0,0,0,0,0,8,9,9,9,9,9,9,9,10,
8,10,0,0,0,0,0,0,0,0,0,0,0,1,3,0,0,0,0,0,0,0,0,0,0,0,22,24,0,0,4,0,0,0,0,15,16,6,9,9,9,9,9,10,
8,10,0,0,0,0,0,0,0,0,4,0,0,8,10,0,0,0,0,0,0,0,0,0,25,0,0,0,0,0,36,2,3,0,0,0,0,15,16,16,16,16,6,10,
8,10,0,0,0,0,0,0,0,0,11,0,0,8,10,0,0,0,0,0,0,0,0,0,0,0,0,0,0,0,8,9,10,0,0,0,0,0,0,0,0,0,8,10,
8,10,0,0,0,0,0,0,1,2,7,2,2,13,12,2,2,2,2,2,2,2,2,2,2,2,2,2,2,2,13,9,12,2,3,0,0,0,0,0,0,0,15,17,
8,10,0,22,23,24,0,0,15,16,16,16,16,16,16,16,16,16,16,16,16,16,16,16,16,16,16,16,16,16,16,16,16,6,10,0,0,0,0,0,0,0,0,0,
8,10,0,0,0,0,0,0,0,0,0,0,0,0,0,0,0,0,0,0,0,0,0,0,0,0,0,0,0,0,0,0,0,8,12,2,2,2,2,2,2,2,2,3,
8,10,0,0,0,0,25,0,0,0,0,0,0,0,0,0,0,0,0,0,0,0,0,0,0,0,0,0,0,0,0,0,0,8,9,9,9,9,9,9,9,9,9,10,
8,10,0,0,0,0,0,0,0,0,0,0,0,0,0,0,0,0,0,0,0,0,0,0,0,0,0,0,0,0,0,0,0,15,16,16,16,16,16,16,16,6,9,10,
8,12,2,3,0,0,0,0,0,0,0,0,0,0,0,0,22,24,0,0,0,0,0,0,0,0,0,0,0,0,0,0,0,0,0,0,0,0,0,0,0,8,9,10,
8,9,9,12,2,3,0,0,0,0,0,0,0,0,0,0,0,0,0,0,0,22,24,0,0,0,0,0,0,0,0,0,0,0,0,0,0,0,0,0,0,15,16,17,
8,9,9,9,9,10,0,0,0,0,0,0,0,0,0,0,0,0,0,0,0,0,0,0,0,0,0,0,0,0,0,0,0,0,0,0,0,0,0,0,0,0,0,0,
8,9,9,9,9,12,2,2,2,2,2,2,2,2,2,2,2,2,2,2,2,2,2,2,2,2,2,2,2,2,2,2,2,2,2,2,2,2,2,2,2,2,2,3,
8,9,9,9,9,9,9,9,9,9,9,9,9,9,9,9,9,9,9,9,9,9,9,9,9,9,9,9,9,9,9,9,9,9,9,9,9,9,9,9,9,9,9,10,
15,16,16,16,16,16,16,16,16,16,16,16,16,16,16,16,16,16,16,16,16,16,16,16,16,16,16,16,16,16,16,16,16,16,16,16,16,16,16,16,16,16,16,17
</data>
 </layer>
 <layer id="6" name="DynamicGrounds" width="44" height="18">
  <data encoding="csv">
0,0,0,0,0,0,0,0,0,0,0,0,0,0,0,0,0,0,0,0,0,0,0,0,0,0,0,0,0,0,0,0,0,0,0,0,0,0,0,0,0,0,0,0,
0,0,0,0,0,0,0,0,0,0,0,0,0,0,0,0,0,0,0,0,0,0,0,0,0,0,0,0,0,0,0,0,0,0,0,0,0,0,0,0,0,0,0,0,
0,0,0,0,0,0,0,0,0,0,0,0,0,0,0,0,0,0,0,0,0,0,0,0,0,0,0,0,0,0,0,0,0,0,0,0,0,0,0,0,0,0,0,0,
0,0,0,0,0,0,0,0,0,0,0,0,0,0,0,0,0,0,0,0,0,0,0,0,0,0,0,0,0,0,0,0,0,0,0,0,0,0,0,0,0,0,0,0,
0,0,0,0,0,0,0,0,0,0,0,0,0,0,0,0,0,0,0,0,0,0,0,0,0,0,0,0,0,0,0,0,0,0,0,0,0,0,0,0,0,0,0,0,
0,0,0,0,0,0,0,0,0,0,0,0,0,0,0,0,0,0,0,0,0,0,0,0,0,0,0,0,0,0,0,0,0,0,0,0,0,0,0,0,0,0,0,0,
0,0,0,0,0,0,0,0,0,0,0,0,0,0,0,0,0,0,0,0,0,0,0,0,0,0,0,0,0,0,0,0,0,0,0,0,0,0,0,0,0,0,0,0,
0,0,0,0,0,0,0,0,0,0,0,0,0,0,0,0,0,0,0,0,0,0,0,0,0,0,0,0,0,0,0,0,0,0,0,0,0,0,0,0,0,0,0,0,
0,0,0,0,0,0,0,0,0,0,0,0,0,0,0,0,0,0,0,0,0,0,0,0,0,0,0,0,0,0,0,0,0,0,0,0,0,0,0,0,0,0,0,0,
0,0,0,0,0,0,0,0,0,0,0,0,1,3,0,0,0,0,0,0,0,0,0,0,0,0,0,1,3,0,0,0,0,0,0,0,0,0,0,0,0,0,0,0,
0,0,0,0,0,0,0,0,0,0,0,0,8,10,0,0,0,0,0,0,0,0,0,0,0,0,0,8,10,0,0,0,0,0,0,0,0,0,0,0,0,0,0,0,
0,0,0,0,0,0,0,0,0,0,0,0,8,10,0,0,0,0,0,0,0,0,0,0,0,0,0,8,10,0,0,0,0,0,0,0,0,0,0,0,0,0,0,0,
0,0,0,0,0,0,0,0,0,0,0,0,8,10,0,0,0,0,0,0,0,0,0,0,0,0,0,8,10,0,0,0,0,0,0,0,0,0,0,0,0,0,0,0,
0,0,0,0,0,0,0,0,0,0,0,0,8,10,0,0,0,0,0,0,0,0,0,0,0,0,0,8,10,0,0,0,0,0,0,0,0,0,0,0,0,0,0,0,
0,0,0,0,0,0,0,0,0,0,0,0,8,10,0,0,0,0,0,0,0,0,0,0,0,0,0,8,10,0,0,0,0,0,0,0,0,0,0,0,0,0,0,0,
0,0,0,0,0,0,0,0,0,0,0,0,13,12,0,0,0,0,0,0,0,0,0,0,0,0,0,13,12,0,0,0,0,0,0,0,0,0,0,0,0,0,0,0,
0,0,0,0,0,0,0,0,0,0,0,0,0,0,0,0,0,0,0,0,0,0,0,0,0,0,0,0,0,0,0,0,0,0,0,0,0,0,0,0,0,0,0,0,
0,0,0,0,0,0,0,0,0,0,0,0,0,0,0,0,0,0,0,0,0,0,0,0,0,0,0,0,0,0,0,0,0,0,0,0,0,0,0,0,0,0,0,0
</data>
 </layer>
 <objectgroup id="23" name="DecorationsForeground">
  <object id="56" gid="103" x="4524" y="1246.67" width="180" height="180">
   <properties>
    <property name="Animated" type="bool" value="true"/>
    <property name="Destructible" type="bool" value="true"/>
    <property name="FPS" type="float" value="20"/>
    <property name="NumFrames" type="int" value="90"/>
    <property name="Path" value="Sprites/Plants/Plant3/Plant3"/>
   </properties>
  </object>
  <object id="57" gid="89" x="3610.83" y="986.5" width="184.178" height="204.833">
   <properties>
    <property name="Destructible" type="bool" value="true"/>
    <property name="WindBalance" type="bool" value="true"/>
   </properties>
  </object>
 </objectgroup>
 <objectgroup draworder="index" id="7" name="Foreground1">
  <properties>
   <property name="TextureColorB" type="int" value="0"/>
   <property name="TextureColorG" type="int" value="0"/>
   <property name="TextureColorR" type="int" value="0"/>
   <property name="TextureFactor" type="float" value="0.2"/>
  </properties>
 </objectgroup>
 <objectgroup draworder="index" id="8" name="Foreground2" parallaxx="1.1">
  <properties>
   <property name="TextureColorB" type="int" value="0"/>
   <property name="TextureColorG" type="int" value="0"/>
   <property name="TextureColorR" type="int" value="0"/>
   <property name="TextureFactor" type="float" value="0.2"/>
  </properties>
  <object id="61" gid="77" x="836.49" y="2165.38" width="725.148" height="261.993"/>
  <object id="62" gid="53" x="5041.55" y="2415.43" width="691" height="539"/>
  <object id="63" gid="77" x="3990.85" y="2155.54" width="537.212" height="206.272"/>
  <object id="64" gid="102" x="431.016" y="1932.11" width="164.861" height="164.861" rotation="342.491">
   <properties>
    <property name="Animated" type="bool" value="true"/>
    <property name="Destructible" type="bool" value="false"/>
    <property name="FPS" type="float" value="30"/>
    <property name="NumFrames" type="int" value="90"/>
    <property name="Path" value="Sprites/Plants/Plant2/Plant2"/>
   </properties>
  </object>
  <object id="65" gid="77" x="301.246" y="2007.04" width="667.443" height="241.145"/>
  <object id="66" gid="113" x="1537.95" y="2034.22" width="130.5" height="130.5">
   <properties>
    <property name="Animated" type="bool" value="true"/>
    <property name="Destructible" type="bool" value="true"/>
    <property name="FPS" type="float" value="30"/>
    <property name="NumFrames" type="int" value="60"/>
    <property name="Path" value="Sprites/Plants/BlueFlower1/BlueFlower"/>
   </properties>
  </object>
  <object id="67" gid="102" x="1610.97" y="2134.98" width="155.864" height="155.864" rotation="342.491">
   <properties>
    <property name="Animated" type="bool" value="true"/>
    <property name="Destructible" type="bool" value="false"/>
    <property name="FPS" type="float" value="30"/>
    <property name="NumFrames" type="int" value="90"/>
    <property name="Path" value="Sprites/Plants/Plant2/Plant2"/>
   </properties>
  </object>
  <object id="68" gid="1073741899" x="2227.09" y="1881.06" width="603.645" height="271.59" rotation="180"/>
  <object id="69" gid="77" x="2301.01" y="2102.55" width="537.212" height="206.272"/>
  <object id="70" gid="102" x="3499.89" y="2193.69" width="176.366" height="176.366" rotation="331.751">
   <properties>
    <property name="Animated" type="bool" value="true"/>
    <property name="Destructible" type="bool" value="false"/>
    <property name="FPS" type="float" value="30"/>
    <property name="NumFrames" type="int" value="90"/>
    <property name="Path" value="Sprites/Plants/Plant2/Plant2"/>
   </properties>
  </object>
  <object id="71" gid="75" x="3457.21" y="2176.13" width="710.823" height="319.811"/>
  <object id="72" gid="77" x="4757.89" y="2121.91" width="537.212" height="206.272"/>
  <object id="73" gid="77" x="2122.59" y="2162.85" width="537.212" height="206.272"/>
  <object id="74" gid="95" x="2198.33" y="1989.83" width="572.075" height="272.603"/>
  <object id="75" gid="108" x="2365.91" y="1978.49" width="95.6667" height="95.6667">
   <properties>
    <property name="Animated" type="bool" value="true"/>
    <property name="Destructible" type="bool" value="true"/>
    <property name="FPS" type="float" value="30"/>
    <property name="NumFrames" type="int" value="30"/>
    <property name="Path" value="Sprites/Plants/Plant8/Plant8"/>
   </properties>
  </object>
  <object id="76" gid="102" x="2432.75" y="1975.88" width="130.608" height="130.608">
   <properties>
    <property name="Animated" type="bool" value="true"/>
    <property name="Destructible" type="bool" value="false"/>
    <property name="FPS" type="float" value="30"/>
    <property name="NumFrames" type="int" value="90"/>
    <property name="Path" value="Sprites/Plants/Plant2/Plant2"/>
   </properties>
  </object>
  <object id="77" gid="108" x="2476.41" y="1981.42" width="110.667" height="110.667">
   <properties>
    <property name="Animated" type="bool" value="true"/>
    <property name="Destructible" type="bool" value="true"/>
    <property name="FPS" type="float" value="30"/>
    <property name="NumFrames" type="int" value="30"/>
    <property name="Path" value="Sprites/Plants/Plant8/Plant8"/>
   </properties>
  </object>
  <object id="78" gid="69" x="3298.91" y="622.575" width="164.02" height="113.986" rotation="180"/>
  <object id="79" gid="86" x="3170" y="631.425" width="65.6158" height="212.754" rotation="159.606"/>
  <object id="80" gid="86" x="2943.19" y="545.695" width="73.1324" height="237.126" rotation="212.661"/>
  <object id="81" gid="86" x="2954.6" y="1587.32" width="68.1348" height="220.921" rotation="212.661"/>
  <object id="82" gid="51" x="2780.75" y="2185.3" width="538.275" height="2181"/>
  <object id="83" gid="77" x="243.473" y="779.36" width="898.598" height="324.66" rotation="90"/>
 </objectgroup>
 <objectgroup id="16" name="Light"/>
 <objectgroup id="17" name="Brazier"/>
 <objectgroup id="18" name="Lava"/>
 <objectgroup id="19" name="LightningBarrier"/>
 <objectgroup id="9" name="HookPoints"/>
 <objectgroup id="20" name="Levers"/>
 <objectgroup id="21" name="SpawnPoint">
  <object id="9" x="3072" y="1884" width="32" height="32">
   <properties>
    <property name="id" value="RightBot"/>
   </properties>
  </object>
  <object id="10" x="2178" y="1886" width="32" height="32">
   <properties>
    <property name="id" value="LeftBot"/>
   </properties>
  </object>
  <object id="11" x="2044" y="1378" width="32" height="32">
   <properties>
    <property name="id" value="LeftTop"/>
   </properties>
  </object>
  <object id="12" x="3198" y="1382" width="32" height="32">
   <properties>
    <property name="id" value="RightTop"/>
   </properties>
  </object>
  <object id="13" x="2576" y="1414" width="32" height="32">
   <properties>
    <property name="id" value="CenterTop"/>
   </properties>
  </object>
 </objectgroup>
 <objectgroup id="11" name="Grounds">
  <object id="1" x="768" y="1920" width="4864" height="384"/>
  <object id="2" x="5248" y="1152" width="384" height="640"/>
  <object id="3" x="4480" y="1152" width="768" height="384"/>
  <object id="6" name="DynamicGround" x="3456" y="1152" width="256" height="896">
   <properties>
    <property name="Condition" value="!Forest9ArenaDone"/>
    <property name="GrowSpeedX" type="float" value="0"/>
    <property name="GrowSpeedY" type="float" value="1000"/>
    <property name="GrowthDirection" type="int" value="0"/>
    <property name="MinHeight" type="float" value="0"/>
    <property name="MinWidth" type="float" value="256"/>
    <property name="StartHeight" type="float" value="0"/>
    <property name="StartWidth" type="float" value="256"/>
   </properties>
  </object>
  <object id="7" name="DynamicGround" x="1536" y="1152" width="256" height="896">
   <properties>
    <property name="Condition" value="!Forest9ArenaDone"/>
    <property name="GrowSpeedX" type="float" value="0"/>
    <property name="GrowSpeedY" type="float" value="1000"/>
    <property name="GrowthDirection" type="int" value="0"/>
    <property name="MinHeight" type="float" value="0"/>
    <property name="MinWidth" type="float" value="256"/>
    <property name="StartHeight" type="float" value="0"/>
    <property name="StartWidth" type="float" value="256"/>
   </properties>
  </object>
  <object id="14" x="2048" y="1536" width="256" height="128"/>
  <object id="15" x="2688" y="1664" width="256" height="128"/>
  <object id="4" x="1024" y="896" width="3200" height="256"/>
  <object id="5" x="4224" y="896" width="256" height="640"/>
  <object id="24" x="5376" y="0" width="256" height="1024"/>
  <object id="25" x="4736" y="0" width="640" height="768"/>
  <object id="29" x="512" y="1664" width="256" height="640"/>
  <object id="30" x="256" y="1536" width="256" height="768"/>
  <object id="31" x="0" y="0" width="256" height="2304"/>
  <object id="32" x="768" y="1280" width="128" height="128"/>
  <object id="33" x="384" y="1024" width="384" height="128"/>
  <object id="34" x="4480" y="0" width="256" height="640"/>
  <object id="35" x="256" y="0" width="4224" height="256"/>
  <object id="40" x="1280" y="640" width="128" height="256"/>
  <object id="41" x="1664" y="512" width="256" height="384"/>
  <object id="43" x="3840" y="512" width="128" height="384"/>
  <object id="44" x="3328" y="512" width="256" height="128"/>
  <object id="45" x="3072" y="640" width="128" height="128"/>
  <object id="46" x="3968" y="640" width="256" height="256"/>
  <object id="53" x="1408" y="768" width="256" height="128">
   <properties>
    <property name="Spike" type="bool" value="true"/>
   </properties>
  </object>
 </objectgroup>
 <objectgroup id="12" name="Checkpoint"/>
 <objectgroup id="13" name="Player">
  <object id="90" name="Player" x="5552" y="1899" width="32" height="32">
   <properties>
    <property name="EnteringLevelSpeedX" type="float" value="-700"/>
    <property name="EnteringLevelSpeedY" type="float" value="0"/>
    <property name="StartPositionId" type="int" value="0"/>
   </properties>
  </object>
  <object id="92" name="Player" x="5552" y="1131" width="32" height="32">
   <properties>
    <property name="EnteringLevelSpeedX" type="float" value="-700"/>
    <property name="EnteringLevelSpeedY" type="float" value="0"/>
    <property name="StartPositionId" type="int" value="1"/>
   </properties>
  </object>
 </objectgroup>
 <objectgroup id="14" name="Enemies">
  <object id="38" name="Mantis" x="2476.24" y="877.33" width="32" height="32"/>
  <object id="42" name="Mushroom" x="3693.57" y="878.66" width="32" height="32"/>
 </objectgroup>
 <objectgroup id="22" name="CameraBounds" locked="1">
  <object id="23" x="128" y="128" width="5376" height="2048"/>
 </objectgroup>
</map>
