<?xml version="1.0" encoding="UTF-8"?>
<map version="1.10" tiledversion="1.11.2" orientation="orthogonal" renderorder="right-down" width="61" height="12" tilewidth="128" tileheight="128" infinite="0" nextlayerid="24" nextobjectid="69">
 <editorsettings>
  <export target="Forest4.json" format="json"/>
 </editorsettings>
 <properties>
  <property name="BackgroundLayers" value="DarkForest/4.png"/>
  <property name="GroundBehindPlayer" type="bool" value="false"/>
  <property name="GroundParticleColor" type="color" value="#ff3a9359"/>
  <property name="Music" value="Greenpath.wav"/>
  <property name="UseGrassParticle" type="bool" value="true"/>
  <property name="UseGroundPadding" type="bool" value="true"/>
 </properties>
 <tileset firstgid="1" source="../../Tilesets/Mossy/MossyTileSet.tsx"/>
 <objectgroup id="2" name="AmbientParticleArea"/>
 <objectgroup id="15" name="Camera">
  <object id="4" x="3072" y="0" width="4736" height="1536">
   <properties>
    <property name="Event" value="FollowPlayerLimited"/>
    <property name="LimitMaxCameraPositionX" type="float" value="7680"/>
    <property name="LimitMaxCameraPositionY" type="float" value="1408"/>
    <property name="LimitMinCameraPositionX" type="float" value="2432"/>
    <property name="LimitMinCameraPositionY" type="float" value="328"/>
    <property name="Target" value="Camera"/>
   </properties>
  </object>
  <object id="50" x="0" y="0" width="1536" height="1536">
   <properties>
    <property name="Event" value="FollowPlayerLimited"/>
    <property name="LimitMaxCameraPositionX" type="float" value="7680"/>
    <property name="LimitMaxCameraPositionY" type="float" value="1280"/>
    <property name="LimitMinCameraPositionX" type="float" value="128"/>
    <property name="LimitMinCameraPositionY" type="float" value="200"/>
    <property name="Target" value="Camera"/>
   </properties>
  </object>
  <object id="68" x="1580.73" y="0" width="1451.15" height="1536">
   <properties>
    <property name="Event" value="FollowPlayerLimited"/>
    <property name="LimitMaxCameraPositionX" type="float" value="7680"/>
    <property name="LimitMaxCameraPositionY" type="float" value="1408"/>
    <property name="LimitMinCameraPositionX" type="float" value="128"/>
    <property name="LimitMinCameraPositionY" type="float" value="328"/>
    <property name="Target" value="Camera"/>
   </properties>
  </object>
 </objectgroup>
 <objectgroup id="10" name="Triggers">
  <object id="3" x="5374.78" y="1125.18" width="384" height="156">
   <properties>
    <property name="Event" value="ShowTutorial"/>
    <property name="Target" value="HUD"/>
    <property name="TutorialText" value="PRESSIONE &lt;OpenStore&gt; PARA DESCANSAR"/>
   </properties>
  </object>
  <object id="60" x="6144" y="1508" width="384" height="28">
   <properties>
    <property name="Destroy" type="bool" value="true"/>
    <property name="Event" value="ChangeScene"/>
    <property name="PlayerStartPositionId" type="int" value="2"/>
    <property name="Scene" value="Forest3/Forest3"/>
    <property name="Target" value="Game"/>
   </properties>
  </object>
  <object id="61" x="7760" y="640" width="48" height="384">
   <properties>
    <property name="Destroy" type="bool" value="true"/>
    <property name="Event" value="ChangeScene"/>
    <property name="PlayerStartPositionId" type="int" value="0"/>
    <property name="Scene" value="Forest8/Forest8"/>
    <property name="Target" value="Game"/>
   </properties>
  </object>
  <object id="63" x="3200" y="1508" width="384" height="28">
   <properties>
    <property name="Destroy" type="bool" value="true"/>
    <property name="Event" value="ChangeScene"/>
    <property name="PlayerStartPositionId" type="int" value="1"/>
    <property name="Scene" value="Forest5/Forest5"/>
    <property name="Target" value="Game"/>
   </properties>
  </object>
  <object id="66" x="0" y="768" width="48" height="384">
   <properties>
    <property name="Destroy" type="bool" value="true"/>
    <property name="Event" value="ChangeScene"/>
    <property name="PlayerStartPositionId" type="int" value="6"/>
    <property name="Scene" value="BossFrogger/BossFrogger"/>
    <property name="Target" value="Game"/>
   </properties>
  </object>
 </objectgroup>
 <objectgroup draworder="index" id="3" name="Background1" parallaxx="0.95">
  <properties>
   <property name="TextureColorB" type="int" value="69"/>
   <property name="TextureColorG" type="int" value="65"/>
   <property name="TextureColorR" type="int" value="22"/>
   <property name="TextureFactor" type="float" value="0.3"/>
  </properties>
 </objectgroup>
 <objectgroup draworder="index" id="4" name="Background2">
  <properties>
   <property name="TextureColorB" type="int" value="107"/>
   <property name="TextureColorG" type="int" value="101"/>
   <property name="TextureColorR" type="int" value="22"/>
   <property name="TextureFactor" type="float" value="0.5"/>
  </properties>
 </objectgroup>
 <objectgroup draworder="index" id="5" name="Decorations"/>
 <layer id="1" name="Camada de Blocos 1" width="61" height="12">
  <data encoding="csv">
1,2,2,2,2,2,2,2,2,2,2,2,2,2,2,2,2,2,2,2,2,2,2,2,2,2,2,2,2,2,2,2,2,2,2,2,2,2,2,2,2,2,2,2,2,2,2,2,2,2,2,2,2,2,2,2,2,2,2,2,3,
8,9,9,9,9,9,9,9,9,9,9,9,9,9,9,9,9,9,9,9,9,9,9,9,9,9,9,9,9,9,9,9,9,9,9,9,9,9,9,9,9,9,9,9,9,9,9,9,9,9,9,9,9,9,9,9,9,9,9,9,10,
8,9,9,9,9,9,9,9,9,9,9,9,9,9,9,9,9,9,9,9,9,9,9,9,9,9,9,9,9,9,9,9,9,9,9,9,9,9,9,9,9,9,9,9,9,9,9,9,9,9,9,9,9,9,9,9,9,9,9,9,10,
8,9,5,16,16,16,16,16,16,16,16,16,16,16,16,16,16,16,16,16,16,16,16,16,16,16,16,16,16,16,16,16,16,16,16,16,16,16,16,16,16,16,16,16,16,16,16,16,16,16,16,16,16,16,16,16,16,16,6,9,10,
8,9,10,0,0,0,0,0,0,0,0,0,0,0,0,0,0,0,0,0,0,0,0,0,0,0,0,0,0,0,0,0,0,0,0,0,0,0,0,0,0,0,0,0,0,0,0,0,0,0,0,0,0,0,0,0,0,0,8,9,10,
8,9,10,0,0,0,0,0,0,0,0,1,3,0,0,0,0,0,0,0,0,0,0,0,0,0,0,0,0,0,0,0,0,0,0,0,0,0,0,0,0,0,0,0,0,0,0,0,0,0,0,0,0,0,0,0,0,0,15,16,17,
15,16,17,0,0,0,0,0,0,0,0,8,10,0,0,0,0,0,0,0,0,0,0,0,0,0,0,0,0,0,0,0,0,0,0,0,0,0,0,0,0,0,0,0,0,0,0,0,0,0,0,0,0,0,0,0,0,0,0,0,0,
0,0,0,0,1,3,0,0,0,0,0,8,10,0,0,0,0,0,4,0,0,0,0,0,0,0,0,0,0,0,0,0,0,0,0,0,0,0,0,0,0,0,0,0,0,0,0,0,0,0,0,0,0,0,0,0,0,1,2,2,3,
1,2,2,2,13,12,2,2,2,2,2,13,10,0,0,0,0,0,47,24,0,0,0,0,0,0,0,0,0,0,0,0,0,0,0,0,0,0,0,0,0,0,0,0,0,0,0,0,0,0,0,0,0,0,0,0,1,13,9,9,10,
8,9,9,9,9,9,9,9,9,9,9,9,10,0,0,0,0,0,0,0,0,0,0,0,0,0,0,0,0,0,0,0,0,0,0,0,0,0,0,0,0,0,0,0,0,0,0,0,0,0,0,0,0,0,1,2,13,9,9,9,10,
8,9,9,9,9,9,9,9,9,9,9,9,12,2,2,2,2,2,2,2,2,2,2,2,2,3,0,1,2,2,2,2,2,2,2,2,2,2,2,2,2,2,2,2,2,2,2,2,3,0,1,2,2,2,13,9,9,9,9,9,10,
15,16,16,16,16,16,16,16,16,16,16,16,16,16,16,16,16,16,16,16,16,16,16,16,16,17,0,15,16,16,16,16,16,16,16,16,16,16,16,16,16,16,16,16,16,16,16,16,17,0,15,16,16,16,16,16,16,16,16,16,17
</data>
 </layer>
 <layer id="6" name="DynamicGrounds" width="61" height="12">
  <data encoding="csv">
0,0,0,0,0,0,0,0,0,0,0,0,0,0,0,0,0,0,0,0,0,0,0,0,0,0,0,0,0,0,0,0,0,0,0,0,0,0,0,0,0,0,0,0,0,0,0,0,0,0,0,0,0,0,0,0,0,0,0,0,0,
0,0,0,0,0,0,0,0,0,0,0,0,0,0,0,0,0,0,0,0,0,0,0,0,0,0,0,0,0,0,0,0,0,0,0,0,0,0,0,0,0,0,0,0,0,0,0,0,0,0,0,0,0,0,0,0,0,0,0,0,0,
0,0,0,0,0,0,0,0,0,0,0,0,0,0,0,0,0,0,0,0,0,0,0,0,0,0,0,0,0,0,0,0,0,0,0,0,0,0,0,0,0,0,0,0,0,0,0,0,0,0,0,0,0,0,0,0,0,0,0,0,0,
0,0,0,0,0,0,0,0,0,0,0,0,0,0,0,0,0,0,0,0,0,0,0,0,0,0,0,0,0,0,0,0,0,0,0,0,0,0,0,0,0,0,0,0,0,0,0,0,0,0,0,0,0,0,0,0,0,0,0,0,0,
0,0,0,0,0,0,0,0,0,0,0,0,0,0,0,0,0,0,0,0,0,0,0,0,0,0,0,0,0,0,0,0,0,0,0,0,0,0,0,0,0,0,0,0,0,0,0,0,0,0,0,0,0,0,0,0,0,0,0,0,0,
0,0,0,0,0,0,0,0,0,0,0,0,0,0,0,0,0,0,0,0,0,0,0,0,0,0,0,0,0,0,0,0,0,0,0,0,0,0,0,0,0,0,0,0,0,0,0,0,0,0,0,0,0,0,0,0,0,0,0,0,0,
0,0,0,0,0,0,0,0,0,0,0,0,0,0,0,0,0,0,0,0,0,0,0,0,0,0,0,0,0,0,0,0,0,0,0,0,0,0,0,0,0,0,0,0,0,0,0,0,0,0,0,0,0,0,0,0,0,0,0,0,0,
0,0,0,0,0,0,0,0,0,0,0,0,0,0,0,0,0,0,0,0,0,0,0,0,0,0,0,0,0,0,0,0,0,0,0,0,0,0,0,0,0,0,0,0,0,0,0,0,0,0,0,0,0,0,0,0,0,0,0,0,0,
0,0,0,0,0,0,0,0,0,0,0,0,0,0,0,0,0,0,0,0,0,0,0,0,0,0,0,0,0,0,0,0,0,0,0,0,0,0,0,0,0,0,0,0,0,0,0,0,0,0,0,0,0,0,0,0,0,0,0,0,0,
0,0,0,0,0,0,0,0,0,0,0,0,0,0,0,0,0,0,0,0,0,0,0,0,0,0,0,0,0,0,0,0,0,0,0,0,0,0,0,0,0,0,0,0,0,0,0,0,0,0,0,0,0,0,0,0,0,0,0,0,0,
0,0,0,0,0,0,0,0,0,0,0,0,0,0,0,0,0,0,0,0,0,0,0,0,0,0,0,0,0,0,0,0,0,0,0,0,0,0,0,0,0,0,0,0,0,0,0,0,0,0,0,0,0,0,0,0,0,0,0,0,0,
0,0,0,0,0,0,0,0,0,0,0,0,0,0,0,0,0,0,0,0,0,0,0,0,0,0,0,0,0,0,0,0,0,0,0,0,0,0,0,0,0,0,0,0,0,0,0,0,0,0,0,0,0,0,0,0,0,0,0,0,0
</data>
 </layer>
 <objectgroup draworder="index" id="23" name="DecorationsForeground"/>
 <objectgroup draworder="index" id="7" name="Foreground1">
  <properties>
   <property name="TextureColorB" type="int" value="0"/>
   <property name="TextureColorG" type="int" value="0"/>
   <property name="TextureColorR" type="int" value="0"/>
   <property name="TextureFactor" type="float" value="0.2"/>
  </properties>
 </objectgroup>
 <objectgroup draworder="index" id="8" name="Foreground2" parallaxx="1.1">
  <properties>
   <property name="TextureColorB" type="int" value="0"/>
   <property name="TextureColorG" type="int" value="0"/>
   <property name="TextureColorR" type="int" value="0"/>
   <property name="TextureFactor" type="float" value="0.2"/>
  </properties>
 </objectgroup>
 <objectgroup id="16" name="Light"/>
 <objectgroup id="17" name="Brazier"/>
 <objectgroup id="18" name="Lava"/>
 <objectgroup id="19" name="LightningBarrier"/>
 <objectgroup id="9" name="HookPoints"/>
 <objectgroup id="20" name="Levers"/>
 <objectgroup id="21" name="SpawnPoint"/>
 <objectgroup id="11" name="Grounds">
  <object id="5" x="7424" y="0" width="384" height="768"/>
  <object id="6" x="6400" y="1280" width="512" height="256"/>
  <object id="7" x="3456" y="1280" width="2816" height="256"/>
  <object id="22" x="384" y="0" width="7040" height="512"/>
  <object id="23" x="0" y="0" width="384" height="896"/>
  <object id="28" x="7296" y="896" width="512" height="640"/>
  <object id="29" x="6912" y="1152" width="256" height="384"/>
  <object id="30" x="7168" y="1024" width="128" height="512"/>
  <object id="35" x="1664" y="1280" width="1664" height="256"/>
  <object id="45" x="2304" y="896" width="128" height="256"/>
  <object id="46" x="1408" y="640" width="256" height="896"/>
  <object id="47" x="512" y="896" width="256" height="128"/>
  <object id="49" x="0" y="1024" width="1408" height="512"/>
  <object id="51" x="2432" y="1024" width="128" height="128"/>
 </objectgroup>
 <objectgroup id="12" name="Checkpoint">
  <object id="2" name="Checkpoint" x="5360.78" y="1110.18" width="416" height="192"/>
 </objectgroup>
 <objectgroup id="13" name="Player">
  <object id="59" x="6336" y="1406" width="32" height="32">
   <properties>
    <property name="EnteringLevelSpeedX" type="float" value="700"/>
    <property name="EnteringLevelSpeedY" type="float" value="-1200"/>
    <property name="EnteringOffset" type="float" value="64"/>
    <property name="StartPositionId" type="int" value="0"/>
   </properties>
  </object>
  <object id="62" name="Player" x="7728" y="875" width="32" height="32">
   <properties>
    <property name="EnteringLevelSpeedX" type="float" value="-700"/>
    <property name="EnteringLevelSpeedY" type="float" value="0"/>
    <property name="StartPositionId" type="int" value="2"/>
   </properties>
  </object>
  <object id="65" x="3392" y="1406" width="32" height="32">
   <properties>
    <property name="EnteringLevelSpeedX" type="float" value="700"/>
    <property name="EnteringLevelSpeedY" type="float" value="-1200"/>
    <property name="EnteringOffset" type="float" value="64"/>
    <property name="StartPositionId" type="int" value="1"/>
   </properties>
  </object>
  <object id="67" name="Player" x="80" y="1005" width="32" height="32">
   <properties>
    <property name="EnteringLevelSpeedX" type="float" value="700"/>
    <property name="EnteringLevelSpeedY" type="float" value="0"/>
    <property name="StartPositionId" type="int" value="3"/>
   </properties>
  </object>
 </objectgroup>
 <objectgroup id="14" name="Enemies"/>
 <objectgroup id="22" name="CameraBounds" locked="1">
  <object id="33" x="128" y="200" width="7552" height="1208"/>
 </objectgroup>
</map>
