<?xml version="1.0" encoding="UTF-8"?>
<map version="1.10" tiledversion="1.11.2" orientation="orthogonal" renderorder="right-down" width="29" height="27" tilewidth="128" tileheight="128" infinite="0" nextlayerid="23" nextobjectid="81">
 <editorsettings>
  <export target="Forest8.json" format="json"/>
 </editorsettings>
 <properties>
  <property name="BackgroundLayers" value="DarkForest/4.png"/>
  <property name="GroundBehindPlayer" type="bool" value="false"/>
  <property name="GroundParticleColor" type="color" value="#ff3a9359"/>
  <property name="Music" value="Greenpath.wav"/>
  <property name="UseGrassParticle" type="bool" value="true"/>
  <property name="UseGroundPadding" type="bool" value="true"/>
 </properties>
 <tileset firstgid="1" source="../../Tilesets/Mossy/MossyTileSet.tsx"/>
 <objectgroup id="2" name="AmbientParticleArea" visible="0"/>
 <objectgroup id="15" name="Camera">
  <object id="48" x="0" y="1152" width="1487.64" height="468">
   <properties>
    <property name="Event" value="FollowPlayerLimited"/>
    <property name="LimitMaxCameraPositionX" type="float" value="3584"/>
    <property name="LimitMaxCameraPositionY" type="float" value="1792"/>
    <property name="LimitMinCameraPositionX" type="float" value="128"/>
    <property name="LimitMinCameraPositionY" type="float" value="256"/>
    <property name="Target" value="Camera"/>
   </properties>
  </object>
  <object id="49" x="2492.48" y="1152" width="1219.52" height="384">
   <properties>
    <property name="Event" value="FollowPlayerLimited"/>
    <property name="LimitMaxCameraPositionX" type="float" value="3584"/>
    <property name="LimitMaxCameraPositionY" type="float" value="1792"/>
    <property name="LimitMinCameraPositionX" type="float" value="128"/>
    <property name="LimitMinCameraPositionY" type="float" value="256"/>
    <property name="Target" value="Camera"/>
   </properties>
  </object>
  <object id="50" x="1536" y="0" width="896" height="1664">
   <properties>
    <property name="Event" value="FollowPlayerLimited"/>
    <property name="LimitMaxCameraPositionX" type="float" value="3584"/>
    <property name="LimitMaxCameraPositionY" type="float" value="3328"/>
    <property name="LimitMinCameraPositionX" type="float" value="128"/>
    <property name="LimitMinCameraPositionY" type="float" value="256"/>
    <property name="Target" value="Camera"/>
   </properties>
  </object>
  <object id="51" x="0" y="0" width="729.455" height="768">
   <properties>
    <property name="Event" value="FollowPlayerLimited"/>
    <property name="LimitMaxCameraPositionX" type="float" value="3584"/>
    <property name="LimitMaxCameraPositionY" type="float" value="3328"/>
    <property name="LimitMinCameraPositionX" type="float" value="128"/>
    <property name="LimitMinCameraPositionY" type="float" value="256"/>
    <property name="Target" value="Camera"/>
   </properties>
  </object>
  <object id="58" x="2476" y="0" width="1236" height="768">
   <properties>
    <property name="Event" value="FollowPlayerLimited"/>
    <property name="LimitMaxCameraPositionX" type="float" value="3584"/>
    <property name="LimitMaxCameraPositionY" type="float" value="3328"/>
    <property name="LimitMinCameraPositionX" type="float" value="128"/>
    <property name="LimitMinCameraPositionY" type="float" value="256"/>
    <property name="Target" value="Camera"/>
   </properties>
  </object>
  <object id="77" x="0" y="1664" width="3328" height="1792">
   <properties>
    <property name="Event" value="FollowPlayerLimited"/>
    <property name="LimitMaxCameraPositionX" type="float" value="3584"/>
    <property name="LimitMaxCameraPositionY" type="float" value="3328"/>
    <property name="LimitMinCameraPositionX" type="float" value="128"/>
    <property name="LimitMinCameraPositionY" type="float" value="256"/>
    <property name="Target" value="Camera"/>
   </properties>
  </object>
  <object id="78" x="3388" y="1664" width="324" height="1792">
   <properties>
    <property name="Event" value="FollowPlayerLimited"/>
    <property name="LimitMaxCameraPositionX" type="float" value="3584"/>
    <property name="LimitMaxCameraPositionY" type="float" value="3328"/>
    <property name="LimitMinCameraPositionX" type="float" value="128"/>
    <property name="LimitMinCameraPositionY" type="float" value="1920"/>
    <property name="Target" value="Camera"/>
   </properties>
  </object>
  <object id="80" x="768" y="0" width="725.818" height="768">
   <properties>
    <property name="Event" value="FollowPlayerLimited"/>
    <property name="LimitMaxCameraPositionX" type="float" value="3584"/>
    <property name="LimitMaxCameraPositionY" type="float" value="3328"/>
    <property name="LimitMinCameraPositionX" type="float" value="640"/>
    <property name="LimitMinCameraPositionY" type="float" value="256"/>
    <property name="Target" value="Camera"/>
   </properties>
  </object>
 </objectgroup>
 <objectgroup id="10" name="Triggers" visible="0">
  <object id="25" x="2076" y="1664" width="100" height="640">
   <properties>
    <property name="Event" value="ChangeZoom"/>
    <property name="Target" value="Game"/>
    <property name="TargetZoom" type="float" value="0.8"/>
    <property name="ZoomSpeed" type="float" value="3"/>
   </properties>
  </object>
  <object id="27" x="640" y="256" width="128" height="640">
   <properties>
    <property name="Event" value="ChangeZoom"/>
    <property name="Target" value="Game"/>
    <property name="TargetZoom" type="float" value="0.8"/>
    <property name="ZoomSpeed" type="float" value="3"/>
   </properties>
  </object>
  <object id="29" x="640" y="1024" width="128" height="640">
   <properties>
    <property name="Event" value="ChangeZoom"/>
    <property name="Target" value="Game"/>
    <property name="TargetZoom" type="float" value="0.8"/>
    <property name="ZoomSpeed" type="float" value="3"/>
   </properties>
  </object>
  <object id="38" x="2688" y="1664" width="128" height="512">
   <properties>
    <property name="Event" value="ChangeZoom"/>
    <property name="Target" value="Game"/>
    <property name="TargetZoom" type="float" value="0.8"/>
    <property name="ZoomSpeed" type="float" value="3"/>
   </properties>
  </object>
  <object id="44" x="2688" y="256" width="128" height="640">
   <properties>
    <property name="Event" value="ChangeZoom"/>
    <property name="Target" value="Game"/>
    <property name="TargetZoom" type="float" value="0.8"/>
    <property name="ZoomSpeed" type="float" value="3"/>
   </properties>
  </object>
  <object id="46" x="2688" y="1024" width="128" height="512">
   <properties>
    <property name="Event" value="ChangeZoom"/>
    <property name="Target" value="Game"/>
    <property name="TargetZoom" type="float" value="0.8"/>
    <property name="ZoomSpeed" type="float" value="3"/>
   </properties>
  </object>
  <object id="60" x="1536" y="1792" width="512" height="128">
   <properties>
    <property name="Event" value="ChangeZoom"/>
    <property name="Target" value="Game"/>
    <property name="TargetZoom" type="float" value="0.8"/>
    <property name="ZoomSpeed" type="float" value="3"/>
   </properties>
  </object>
  <object id="61" x="0" y="2560" width="48" height="384">
   <properties>
    <property name="Destroy" type="bool" value="true"/>
    <property name="Event" value="ChangeScene"/>
    <property name="PlayerStartPositionId" type="int" value="2"/>
    <property name="Scene" value="Forest4/Forest4"/>
    <property name="Target" value="Game"/>
   </properties>
  </object>
  <object id="64" x="0" y="1280" width="48" height="384">
   <properties>
    <property name="Destroy" type="bool" value="true"/>
    <property name="Event" value="ChangeScene"/>
    <property name="PlayerStartPositionId" type="int" value="0"/>
    <property name="Scene" value="Forest9/Forest9"/>
    <property name="Target" value="Game"/>
   </properties>
  </object>
  <object id="66" x="0" y="512" width="48" height="384">
   <properties>
    <property name="Destroy" type="bool" value="true"/>
    <property name="Event" value="ChangeScene"/>
    <property name="PlayerStartPositionId" type="int" value="1"/>
    <property name="Scene" value="Forest9/Forest9"/>
    <property name="Target" value="Game"/>
   </properties>
  </object>
  <object id="68" x="3664" y="1920" width="48" height="512">
   <properties>
    <property name="Destroy" type="bool" value="true"/>
    <property name="Event" value="ChangeScene"/>
    <property name="PlayerStartPositionId" type="int" value="0"/>
    <property name="Scene" value="Forest10/Forest10"/>
    <property name="Target" value="Game"/>
   </properties>
  </object>
  <object id="72" x="3664" y="512" width="48" height="384">
   <properties>
    <property name="Destroy" type="bool" value="true"/>
    <property name="Event" value="ChangeScene"/>
    <property name="PlayerStartPositionId" type="int" value="0"/>
    <property name="Scene" value="Forest11/Forest11"/>
    <property name="Target" value="Game"/>
   </properties>
  </object>
  <object id="73" x="3664" y="1152" width="48" height="384">
   <properties>
    <property name="Destroy" type="bool" value="true"/>
    <property name="Event" value="ChangeScene"/>
    <property name="PlayerStartPositionId" type="int" value="1"/>
    <property name="Scene" value="Forest11/Forest11"/>
    <property name="Target" value="Game"/>
   </properties>
  </object>
  <object id="76" x="2176" y="1664" width="256" height="128">
   <properties>
    <property name="Event" value="ChangeZoom"/>
    <property name="Target" value="Game"/>
    <property name="TargetZoom" type="float" value="0.8"/>
    <property name="ZoomSpeed" type="float" value="3"/>
   </properties>
  </object>
 </objectgroup>
 <objectgroup draworder="index" id="3" name="Background1" visible="0" parallaxx="0.95">
  <properties>
   <property name="TextureColorB" type="int" value="69"/>
   <property name="TextureColorG" type="int" value="65"/>
   <property name="TextureColorR" type="int" value="22"/>
   <property name="TextureFactor" type="float" value="0.3"/>
  </properties>
 </objectgroup>
 <objectgroup draworder="index" id="4" name="Background2" visible="0">
  <properties>
   <property name="TextureColorB" type="int" value="107"/>
   <property name="TextureColorG" type="int" value="101"/>
   <property name="TextureColorR" type="int" value="22"/>
   <property name="TextureFactor" type="float" value="0.5"/>
  </properties>
 </objectgroup>
 <objectgroup draworder="index" id="5" name="Decorations" visible="0"/>
 <layer id="1" name="Camada de Blocos 1" width="29" height="27">
  <data encoding="csv">
1,2,2,2,2,2,2,2,2,2,2,2,2,2,2,2,2,2,2,2,2,2,2,2,2,2,2,2,3,
8,9,9,9,9,9,9,9,9,9,9,9,9,9,9,9,9,9,9,9,9,9,9,9,9,9,9,9,10,
8,9,9,5,16,16,16,16,16,16,16,16,16,16,16,16,16,16,16,16,16,16,16,6,9,9,9,9,10,
8,9,9,10,0,0,0,0,0,0,0,0,0,0,0,0,0,0,0,0,0,0,0,8,9,9,9,9,10,
15,16,16,17,0,0,0,0,0,0,0,0,0,0,0,0,0,0,0,0,0,0,0,15,16,16,16,16,17,
0,0,0,0,0,0,0,0,0,0,0,0,0,0,0,0,0,0,0,0,0,0,0,0,0,0,0,0,0,
1,2,2,2,2,2,2,2,2,2,2,3,0,0,0,0,0,0,0,1,2,2,2,2,2,2,2,2,3,
8,9,9,9,9,9,9,9,9,9,9,10,0,0,0,0,22,24,0,8,9,9,9,9,9,9,9,9,10,
8,9,9,5,16,16,16,16,16,16,16,17,0,0,0,0,0,0,0,15,16,16,16,6,9,9,9,9,10,
8,9,9,10,0,0,0,0,0,0,0,0,0,0,0,0,0,0,0,0,0,0,0,15,16,16,16,16,17,
15,16,16,17,0,0,0,0,0,0,0,0,0,0,0,0,0,0,0,0,0,0,0,0,0,0,0,0,0,
0,0,0,0,0,0,0,0,0,0,0,0,0,0,0,0,0,0,0,1,2,2,2,2,2,2,2,2,3,
1,2,2,2,2,2,2,2,2,2,2,3,0,0,0,0,0,0,0,15,16,16,16,16,6,9,9,9,10,
8,9,9,9,9,9,9,9,9,9,9,10,0,0,0,0,0,0,0,0,0,0,0,0,8,9,9,9,10,
8,9,9,9,9,9,9,9,9,9,9,10,0,22,24,0,0,0,0,0,0,0,0,0,8,9,9,9,10,
8,9,9,9,9,9,9,9,9,9,9,10,0,0,0,0,0,0,0,0,0,0,0,0,15,16,16,16,17,
8,9,9,5,16,16,16,16,16,16,16,17,0,0,0,0,1,2,2,2,2,3,0,0,0,0,0,0,0,
8,9,9,10,0,0,0,0,0,0,0,0,0,0,0,0,8,9,9,9,9,10,0,0,0,0,0,0,0,
8,9,9,10,0,0,0,0,0,0,0,0,0,1,2,2,13,9,9,9,9,12,2,2,2,2,2,2,3,
8,9,9,10,0,0,0,0,0,0,0,0,0,8,9,9,9,9,9,9,9,9,9,9,9,9,9,9,10,
15,16,16,17,0,0,0,1,2,2,2,2,2,13,9,9,9,9,9,9,9,9,9,9,9,9,9,9,10,
0,0,0,0,0,0,0,8,9,9,9,9,9,9,9,9,9,9,9,9,9,9,9,9,9,9,9,9,10,
1,2,2,2,2,2,2,13,9,9,9,9,9,9,9,9,9,9,9,9,9,9,9,9,9,9,9,9,10,
8,9,9,9,9,9,9,9,9,9,9,9,9,9,9,9,9,9,9,9,9,9,9,9,9,9,9,9,10,
8,9,9,9,9,9,9,9,9,9,9,9,9,9,9,9,9,9,9,9,9,9,9,9,9,9,9,9,10,
8,9,9,9,9,9,9,9,9,9,9,9,9,9,9,9,9,9,9,9,9,9,9,9,9,9,9,9,10,
15,16,16,16,16,16,16,16,16,16,16,16,16,16,16,16,16,16,16,16,16,16,16,16,16,16,16,16,17
</data>
 </layer>
 <layer id="6" name="DynamicGrounds" width="29" height="27">
  <data encoding="csv">
0,0,0,0,0,0,0,0,0,0,0,0,0,0,0,0,0,0,0,0,0,0,0,0,0,0,0,0,0,
0,0,0,0,0,0,0,0,0,0,0,0,0,0,0,0,0,0,0,0,0,0,0,0,0,0,0,0,0,
0,0,0,0,0,0,0,0,0,0,0,0,0,0,0,0,0,0,0,0,0,0,0,0,0,0,0,0,0,
0,0,0,0,0,0,0,0,0,0,4,0,0,0,0,0,0,0,0,0,4,0,0,0,0,0,0,0,0,
0,0,0,0,0,0,0,0,0,0,11,0,0,0,0,0,0,0,0,0,11,0,0,0,0,0,0,0,0,
0,0,0,0,0,0,0,0,0,0,11,0,0,0,0,0,0,0,0,0,11,0,0,0,0,0,0,0,0,
0,0,0,0,0,0,0,0,0,0,7,0,0,0,0,0,0,0,0,0,7,0,0,0,0,0,0,0,0,
0,0,0,0,0,0,0,0,0,0,0,0,0,0,0,0,0,0,0,0,0,0,0,0,0,0,0,0,0,
0,0,0,0,0,0,0,0,0,0,0,0,0,0,0,0,0,0,0,0,0,0,0,0,0,0,0,0,0,
0,0,0,0,0,0,0,0,0,0,0,0,0,0,0,0,0,0,0,0,4,0,0,0,0,0,0,0,0,
0,0,0,0,0,0,0,0,0,0,0,0,0,0,0,0,0,0,0,0,11,0,0,0,0,0,0,0,0,
0,0,0,0,0,0,0,0,0,0,0,0,0,0,0,0,0,0,0,0,7,0,0,0,0,0,0,0,0,
0,0,0,0,0,0,0,0,0,0,0,0,0,0,0,0,0,0,0,0,0,0,0,0,0,0,0,0,0,
0,0,0,0,0,0,0,0,0,0,0,0,0,0,0,0,0,0,0,0,4,0,0,0,0,0,0,0,0,
0,0,0,0,0,0,0,0,0,0,0,0,0,0,0,0,0,0,0,0,11,0,0,0,0,0,0,0,0,
0,0,0,0,0,0,0,0,0,0,0,0,0,0,0,0,0,0,0,0,11,0,0,0,0,0,0,0,0,
0,0,0,0,0,0,0,0,0,0,0,0,0,0,0,0,0,0,0,0,7,0,0,0,0,0,0,0,0,
0,0,0,0,0,0,0,0,0,0,0,0,0,0,0,0,0,0,0,0,0,0,0,0,0,0,0,0,0,
0,0,0,0,0,0,0,0,0,0,0,0,0,0,0,0,0,0,0,0,0,0,0,0,0,0,0,0,0,
0,0,0,0,0,0,0,0,0,0,0,0,0,0,0,0,0,0,0,0,0,0,0,0,0,0,0,0,0,
0,0,0,0,0,0,0,0,0,0,0,0,0,0,0,0,0,0,0,0,0,0,0,0,0,0,0,0,0,
0,0,0,0,0,0,0,0,0,0,0,0,0,0,0,0,0,0,0,0,0,0,0,0,0,0,0,0,0,
0,0,0,0,0,0,0,0,0,0,0,0,0,0,0,0,0,0,0,0,0,0,0,0,0,0,0,0,0,
0,0,0,0,0,0,0,0,0,0,0,0,0,0,0,0,0,0,0,0,0,0,0,0,0,0,0,0,0,
0,0,0,0,0,0,0,0,0,0,0,0,0,0,0,0,0,0,0,0,0,0,0,0,0,0,0,0,0,
0,0,0,0,0,0,0,0,0,0,0,0,0,0,0,0,0,0,0,0,0,0,0,0,0,0,0,0,0,
0,0,0,0,0,0,0,0,0,0,0,0,0,0,0,0,0,0,0,0,0,0,0,0,0,0,0,0,0
</data>
 </layer>
 <objectgroup draworder="index" id="7" name="Foreground1" visible="0">
  <properties>
   <property name="TextureColorB" type="int" value="0"/>
   <property name="TextureColorG" type="int" value="0"/>
   <property name="TextureColorR" type="int" value="0"/>
   <property name="TextureFactor" type="float" value="0.2"/>
  </properties>
 </objectgroup>
 <objectgroup draworder="index" id="8" name="Foreground2" visible="0" parallaxx="1.1">
  <properties>
   <property name="TextureColorB" type="int" value="0"/>
   <property name="TextureColorG" type="int" value="0"/>
   <property name="TextureColorR" type="int" value="0"/>
   <property name="TextureFactor" type="float" value="0.2"/>
  </properties>
 </objectgroup>
 <objectgroup id="16" name="Light" visible="0"/>
 <objectgroup id="17" name="Brazier" visible="0"/>
 <objectgroup id="18" name="Lava" visible="0"/>
 <objectgroup id="19" name="LightningBarrier" visible="0"/>
 <objectgroup id="9" name="HookPoints" visible="0"/>
 <objectgroup id="20" name="Levers">
  <object id="32" x="1138.67" y="726.667" width="64" height="64">
   <properties>
    <property name="Condition" value="!Forest8Ground1Decrease"/>
    <property name="Event" value="SetIsDecreasing"/>
    <property name="Grounds" value="31,33"/>
    <property name="Target" value="DynamicGround"/>
    <property name="WorldState" value="Forest8Ground1Decrease"/>
    <property name="WorldStateFlag" type="bool" value="true"/>
   </properties>
  </object>
  <object id="36" x="2743.67" y="1363.66" width="64" height="64">
   <properties>
    <property name="Condition" value="!Forest8Ground2Decrease"/>
    <property name="Event" value="SetIsDecreasing"/>
    <property name="Grounds" value="35,37"/>
    <property name="Target" value="DynamicGround"/>
    <property name="WorldState" value="Forest8Ground2Decrease"/>
    <property name="WorldStateFlag" type="bool" value="true"/>
   </properties>
  </object>
 </objectgroup>
 <objectgroup id="21" name="SpawnPoint" visible="0"/>
 <objectgroup id="11" name="Grounds" visible="0">
  <object id="1" x="0" y="2816" width="896" height="640"/>
  <object id="2" x="1664" y="2304" width="384" height="1152"/>
  <object id="3" x="2048" y="2048" width="768" height="1408"/>
  <object id="4" x="0" y="1536" width="512" height="1152"/>
  <object id="5" x="512" y="1536" width="1024" height="640"/>
  <object id="6" x="0" y="768" width="512" height="640"/>
  <object id="7" x="512" y="768" width="1024" height="384"/>
  <object id="8" x="0" y="0" width="512" height="640"/>
  <object id="9" x="512" y="0" width="2432" height="384"/>
  <object id="10" x="2944" y="0" width="768" height="640"/>
  <object id="11" x="2944" y="768" width="768" height="512"/>
  <object id="12" x="2432" y="768" width="512" height="384"/>
  <object id="13" x="2432" y="1408" width="640" height="256"/>
  <object id="14" x="2048" y="896" width="256" height="128">
   <properties>
    <property name="Moving" type="bool" value="true"/>
    <property name="MovingDuration" type="float" value="3.5"/>
    <property name="SpeedX" type="float" value="0"/>
    <property name="SpeedY" type="float" value="250"/>
   </properties>
  </object>
  <object id="15" x="1664" y="1792" width="256" height="128">
   <properties>
    <property name="Moving" type="bool" value="true"/>
    <property name="MovingDuration" type="float" value="3.5"/>
    <property name="SpeedX" type="float" value="0"/>
    <property name="SpeedY" type="float" value="-250"/>
   </properties>
  </object>
  <object id="31" name="DynamicGround" x="1280" y="384" width="128" height="512">
   <properties>
    <property name="Condition" value="!Forest8Ground1Decrease"/>
    <property name="GrowSpeedX" type="float" value="0"/>
    <property name="GrowSpeedY" type="float" value="600"/>
    <property name="GrowthDirection" type="int" value="0"/>
    <property name="MinHeight" type="float" value="0"/>
    <property name="MinWidth" type="float" value="128"/>
    <property name="StartHeight" type="float" value="512"/>
    <property name="StartWidth" type="float" value="128"/>
   </properties>
  </object>
  <object id="33" name="DynamicGround" x="2560" y="384" width="128" height="512">
   <properties>
    <property name="Condition" value="!Forest8Ground1Decrease"/>
    <property name="GrowSpeedX" type="float" value="0"/>
    <property name="GrowSpeedY" type="float" value="600"/>
    <property name="GrowthDirection" type="int" value="0"/>
    <property name="MinHeight" type="float" value="0"/>
    <property name="MinWidth" type="float" value="128"/>
    <property name="StartHeight" type="float" value="512"/>
    <property name="StartWidth" type="float" value="128"/>
   </properties>
  </object>
  <object id="35" name="DynamicGround" x="2560" y="1152" width="128" height="384">
   <properties>
    <property name="Condition" value="!Forest8Ground2Decrease"/>
    <property name="GrowSpeedX" type="float" value="0"/>
    <property name="GrowSpeedY" type="float" value="600"/>
    <property name="GrowthDirection" type="int" value="0"/>
    <property name="MinHeight" type="float" value="0"/>
    <property name="MinWidth" type="float" value="128"/>
    <property name="StartHeight" type="float" value="384"/>
    <property name="StartWidth" type="float" value="128"/>
   </properties>
  </object>
  <object id="37" name="DynamicGround" x="2560" y="1664" width="128" height="512">
   <properties>
    <property name="Condition" value="!Forest8Ground2Decrease"/>
    <property name="GrowSpeedX" type="float" value="0"/>
    <property name="GrowSpeedY" type="float" value="600"/>
    <property name="GrowthDirection" type="int" value="0"/>
    <property name="MinHeight" type="float" value="0"/>
    <property name="MinWidth" type="float" value="128"/>
    <property name="StartHeight" type="float" value="512"/>
    <property name="StartWidth" type="float" value="128"/>
   </properties>
  </object>
  <object id="62" x="896" y="2560" width="768" height="896"/>
  <object id="74" x="3328" y="2304" width="384" height="1152"/>
  <object id="75" x="3072" y="1408" width="640" height="640"/>
  <object id="79" x="2816" y="2304" width="512" height="1152"/>
 </objectgroup>
 <objectgroup id="12" name="Checkpoint" visible="0"/>
 <objectgroup id="13" name="Player" visible="0">
  <object id="63" name="Player" x="80" y="2797" width="32" height="32">
   <properties>
    <property name="EnteringLevelSpeedX" type="float" value="700"/>
    <property name="EnteringLevelSpeedY" type="float" value="0"/>
    <property name="StartPositionId" type="int" value="0"/>
   </properties>
  </object>
  <object id="65" name="Player" x="80" y="1517" width="32" height="32">
   <properties>
    <property name="EnteringLevelSpeedX" type="float" value="700"/>
    <property name="EnteringLevelSpeedY" type="float" value="0"/>
    <property name="StartPositionId" type="int" value="1"/>
   </properties>
  </object>
  <object id="67" name="Player" x="80" y="749" width="32" height="32">
   <properties>
    <property name="EnteringLevelSpeedX" type="float" value="700"/>
    <property name="EnteringLevelSpeedY" type="float" value="0"/>
    <property name="StartPositionId" type="int" value="2"/>
   </properties>
  </object>
  <object id="69" name="Player" x="3632" y="2283" width="32" height="32">
   <properties>
    <property name="EnteringLevelSpeedX" type="float" value="-700"/>
    <property name="EnteringLevelSpeedY" type="float" value="0"/>
    <property name="StartPositionId" type="int" value="5"/>
   </properties>
  </object>
  <object id="70" name="Player" x="3632" y="1387" width="32" height="32">
   <properties>
    <property name="EnteringLevelSpeedX" type="float" value="-700"/>
    <property name="EnteringLevelSpeedY" type="float" value="0"/>
    <property name="StartPositionId" type="int" value="4"/>
   </properties>
  </object>
  <object id="71" name="Player" x="3632" y="747" width="32" height="32">
   <properties>
    <property name="EnteringLevelSpeedX" type="float" value="-700"/>
    <property name="EnteringLevelSpeedY" type="float" value="0"/>
    <property name="StartPositionId" type="int" value="3"/>
   </properties>
  </object>
 </objectgroup>
 <objectgroup id="14" name="Enemies" visible="0"/>
 <objectgroup id="22" name="CameraBounds" locked="1">
  <object id="24" x="128" y="256" width="3456" height="3072"/>
 </objectgroup>
</map>
